;FLAVOR:Marlin
;TIME:3635
;Filament used: 2.12562m
;Layer height: 0.16
;Generated with Cura_SteamEngine 4.0.0
M140 S60
M105
M190 S60
M104 S215
M105
M109 S215
M82 ;absolute extrusion mode
M201 X500.00 Y500.00 Z100.00 E5000.00 ;Setup machine max acceleration
M203 X500.00 Y500.00 Z10.00 E50.00 ;Setup machine max feedrate
M204 P500.00 R1000.00 T500.00 ;Setup Print/Retract/Travel acceleration
M205 X8.00 Y8.00 Z0.40 E5.00 ;Setup Jerk
M220 S100 ;Reset Feedrate
M221 S100 ;Reset Flowrate

G28 ;Home

G92 E0 ;Reset Extruder
G1 Z2.0 F3000 ;Move Z Axis up
G1 X10.1 Y20 Z0.28 F5000.0 ;Move to start position
G1 X10.1 Y200.0 Z0.28 F1500.0 E15 ;Draw the first line
G1 X10.4 Y200.0 Z0.28 F5000.0 ;Move to side a little
G1 X10.4 Y20 Z0.28 F1500.0 E30 ;Draw the second line
G92 E0 ;Reset Extruder
G1 Z2.0 F3000 ;Move Z Axis up

G92 E0
G1 F2700 E-5
;LAYER_COUNT:134
;LAYER:0
M107
G0 F6000 X102.379 Y90.05 Z0.2
;TYPE:SKIRT
G1 F2700 E0
G1 F1200 X105.194 Y90.05 E0.11703
G1 X105.298 Y90.154 E0.12315
G1 X103.403 Y90.154 E0.20193
G1 X103.09 Y90.194 E0.21505
G1 X102.797 Y90.311 E0.22817
G1 X102.519 Y90.52 E0.24263
G1 X102.379 Y90.66 E0.25086
G1 X102.379 Y90.05 E0.27622
G0 F6000 X101.879 Y89.55
G1 F1200 X105.417 Y89.55 E0.42331
G1 X105.441 Y89.589 E0.42522
G1 X105.794 Y89.942 E0.44597
G1 X105.992 Y90.085 E0.45613
G1 X106.324 Y90.162 E0.4703
G1 X108.121 Y90.162 E0.54501
G1 X108.121 Y90.654 E0.56546
G1 X103.403 Y90.654 E0.76161
G1 X103.162 Y90.694 E0.77177
G1 X102.873 Y90.874 E0.78593
G1 X102.141 Y91.606 E0.82897
G1 X101.998 Y91.804 E0.83912
G1 X101.921 Y92.136 E0.85329
G1 X101.921 Y127.864 E2.33869
G1 X101.961 Y128.105 E2.34884
G1 X102.141 Y128.394 E2.363
G1 X102.873 Y129.126 E2.40604
G1 X103.071 Y129.269 E2.41619
G1 X103.403 Y129.346 E2.43036
G1 X108.121 Y129.347 E2.62651
G1 X108.121 Y129.839 E2.64697
G1 X106.324 Y129.839 E2.72168
G1 X106.083 Y129.879 E2.73183
G1 X105.794 Y130.059 E2.74599
G1 X105.441 Y130.412 E2.76674
G1 X105.414 Y130.45 E2.76868
G1 X101.879 Y130.45 E2.91565
G1 X101.879 Y89.55 E4.61608
G0 F6000 X101.379 Y89.167
G1 F1200 X101.496 Y89.05 E4.62295
G1 X105.721 Y89.05 E4.79861
G1 X105.721 Y89.059 E4.79898
G1 X105.794 Y89.236 E4.80694
G1 X106.147 Y89.589 E4.8277
G1 X106.324 Y89.662 E4.83566
G1 X108.499 Y89.662 E4.92609
G1 X108.621 Y89.785 E4.93329
G1 X108.621 Y91.154 E4.9902
G1 X103.403 Y91.154 E5.20714
G1 X103.226 Y91.227 E5.2151
G1 X102.494 Y91.959 E5.25814
G1 X102.421 Y92.136 E5.2661
G1 X102.421 Y127.864 E6.7515
G1 X102.494 Y128.041 E6.75946
G1 X103.226 Y128.773 E6.8025
G1 X103.403 Y128.846 E6.81046
G1 X108.621 Y128.847 E7.0274
G1 X108.621 Y130.217 E7.08436
G1 X108.498 Y130.339 E7.09156
G1 X106.324 Y130.339 E7.18194
G1 X106.147 Y130.412 E7.1899
G1 X105.794 Y130.765 E7.21066
G1 X105.721 Y130.942 E7.21862
G1 X105.721 Y130.95 E7.21895
G1 X101.496 Y130.95 E7.39461
G1 X101.379 Y130.833 E7.40149
G1 X101.379 Y89.167 E9.13376
G0 F6000 X100.879 Y89.063
G1 F1200 X100.952 Y88.886 E9.14172
G1 X101.215 Y88.623 E9.15718
G1 X101.392 Y88.55 E9.16514
G1 X105.971 Y88.55 E9.35551
G1 X106.105 Y88.589 E9.36131
G1 X106.198 Y88.695 E9.36718
G1 X106.221 Y88.8 E9.37165
G1 X106.221 Y88.955 E9.37809
G1 X106.428 Y89.162 E9.39026
G1 X108.604 Y89.162 E9.48073
G1 X108.782 Y89.236 E9.48874
G1 X109.049 Y89.506 E9.50453
G1 X109.121 Y89.682 E9.51244
G1 X109.121 Y91.404 E9.58403
G1 X109.082 Y91.538 E9.58983
G1 X108.976 Y91.631 E9.59569
G1 X108.871 Y91.654 E9.60016
G1 X103.507 Y91.654 E9.82317
G1 X102.921 Y92.24 E9.85763
G1 X102.921 Y127.76 E11.33438
G1 X103.507 Y128.346 E11.36883
G1 X108.871 Y128.347 E11.59184
G1 X109.005 Y128.386 E11.59764
G1 X109.098 Y128.492 E11.6035
G1 X109.121 Y128.597 E11.60797
G1 X109.121 Y130.322 E11.67969
G1 X109.047 Y130.5 E11.68771
G1 X108.777 Y130.767 E11.70349
G1 X108.601 Y130.839 E11.7114
G1 X106.428 Y130.839 E11.80174
G1 X106.221 Y131.046 E11.81391
G1 X106.221 Y131.2 E11.82031
G1 X106.182 Y131.334 E11.82612
G1 X106.076 Y131.427 E11.83198
G1 X105.971 Y131.45 E11.83645
G1 X101.392 Y131.45 E12.02682
G1 X101.215 Y131.377 E12.03478
G1 X100.952 Y131.114 E12.05024
G1 X100.879 Y130.937 E12.0582
G1 X100.879 Y89.063 E13.79912
G0 F6000 X100.379 Y89.063
G1 F1200 X100.419 Y88.822 E13.80928
G1 X100.599 Y88.533 E13.82343
G1 X100.862 Y88.27 E13.8389
G1 X101.06 Y88.127 E13.84905
G1 X101.392 Y88.05 E13.86322
G1 X105.971 Y88.05 E14.05359
G1 X106.212 Y88.09 E14.06375
G1 X106.427 Y88.205 E14.07389
G1 X106.594 Y88.383 E14.08404
G1 X106.695 Y88.605 E14.09418
G1 X106.703 Y88.662 E14.09657
G1 X108.604 Y88.662 E14.1756
G1 X108.845 Y88.702 E14.18576
G1 X109.137 Y88.885 E14.20009
G1 X109.404 Y89.155 E14.21587
G1 X109.545 Y89.354 E14.22601
G1 X109.621 Y89.682 E14.24001
G1 X109.621 Y91.404 E14.3116
G1 X109.581 Y91.645 E14.32176
G1 X109.466 Y91.86 E14.3319
G1 X109.288 Y92.027 E14.34205
G1 X109.226 Y92.055 E14.34487
G1 X109.344 Y92.218 E14.35324
G1 X109.421 Y92.55 E14.36741
G1 X109.421 Y127.451 E15.81842
G1 X109.381 Y127.692 E15.82858
G1 X109.223 Y127.946 E15.84102
G1 X109.327 Y128.002 E15.84593
G1 X109.494 Y128.18 E15.85608
G1 X109.595 Y128.402 E15.86622
G1 X109.621 Y128.597 E15.87439
G1 X109.621 Y130.322 E15.94611
G1 X109.581 Y130.563 E15.95627
G1 X109.398 Y130.855 E15.9706
G1 X109.128 Y131.122 E15.98638
G1 X108.929 Y131.263 E15.99652
G1 X108.601 Y131.339 E16.01052
G1 X106.698 Y131.339 E16.08964
G1 X106.681 Y131.441 E16.09394
G1 X106.566 Y131.656 E16.10407
G1 X106.388 Y131.823 E16.11422
G1 X106.166 Y131.924 E16.12436
G1 X105.971 Y131.95 E16.13254
G1 X101.392 Y131.95 E16.32291
G1 X101.151 Y131.91 E16.33307
G1 X100.862 Y131.73 E16.34722
G1 X100.599 Y131.467 E16.36269
G1 X100.456 Y131.269 E16.37284
G1 X100.379 Y130.937 E16.38701
G1 X100.379 Y89.063 E18.12793
G0 F6000 X99.879 Y89.063
G1 F1200 X99.919 Y88.75 E18.14105
G1 X100.036 Y88.457 E18.15417
G1 X100.245 Y88.179 E18.16863
G1 X100.508 Y87.916 E18.18409
G1 X100.758 Y87.723 E18.19722
G1 X101.048 Y87.598 E18.21035
G1 X101.392 Y87.55 E18.22479
G1 X105.971 Y87.55 E18.41516
G1 X106.284 Y87.59 E18.42828
G1 X106.577 Y87.707 E18.4414
G1 X106.832 Y87.893 E18.45452
G1 X107.031 Y88.138 E18.46764
G1 X107.042 Y88.162 E18.46874
G1 X108.604 Y88.162 E18.53368
G1 X108.917 Y88.202 E18.5468
G1 X109.21 Y88.319 E18.55992
G1 X109.493 Y88.533 E18.57467
G1 X109.76 Y88.803 E18.59045
G1 X109.952 Y89.054 E18.60359
G1 X110.075 Y89.344 E18.61669
G1 X110.121 Y89.682 E18.63087
G1 X110.121 Y91.404 E18.70246
G1 X110.081 Y91.717 E18.71558
G1 X109.964 Y92.01 E18.7287
G1 X109.854 Y92.161 E18.73647
G1 X109.873 Y92.206 E18.7385
G1 X109.921 Y92.55 E18.75294
G1 X109.921 Y127.451 E20.20395
G1 X109.881 Y127.764 E20.21707
G1 X109.852 Y127.838 E20.22038
G1 X109.931 Y127.935 E20.22558
G1 X110.063 Y128.222 E20.23871
G1 X110.121 Y128.597 E20.25449
G1 X110.121 Y130.322 E20.3262
G1 X110.081 Y130.635 E20.33932
G1 X109.964 Y130.928 E20.35244
G1 X109.75 Y131.211 E20.36719
G1 X109.48 Y131.478 E20.38298
G1 X109.229 Y131.67 E20.39612
G1 X108.939 Y131.793 E20.40921
G1 X108.601 Y131.839 E20.42339
G1 X107.04 Y131.839 E20.48829
G1 X106.878 Y132.061 E20.49972
G1 X106.633 Y132.26 E20.51284
G1 X106.346 Y132.392 E20.52597
G1 X105.971 Y132.45 E20.54175
G1 X101.392 Y132.45 E20.73212
G1 X101.079 Y132.41 E20.74524
G1 X100.786 Y132.293 E20.75836
G1 X100.508 Y132.084 E20.77282
G1 X100.245 Y131.821 E20.78828
G1 X100.052 Y131.571 E20.80141
G1 X99.927 Y131.281 E20.81454
G1 X99.879 Y130.937 E20.82898
G1 X99.879 Y89.063 E22.5699
G0 F6000 X99.379 Y89.063
G1 F1200 X99.419 Y88.692 E22.58542
G1 X99.537 Y88.337 E22.60097
G1 X99.727 Y88.015 E22.61651
G1 X99.892 Y87.826 E22.62694
G1 X100.155 Y87.563 E22.64241
G1 X100.445 Y87.328 E22.65793
G1 X100.779 Y87.161 E22.67345
G1 X101.141 Y87.068 E22.68899
G1 X101.392 Y87.05 E22.69945
G1 X105.971 Y87.05 E22.88982
G1 X106.342 Y87.09 E22.90534
G1 X106.697 Y87.208 E22.92089
G1 X107.019 Y87.398 E22.93643
G1 X107.292 Y87.652 E22.95194
G1 X107.299 Y87.662 E22.95245
G1 X108.604 Y87.662 E23.0067
G1 X108.975 Y87.702 E23.02221
G1 X109.33 Y87.82 E23.03777
G1 X109.652 Y88.01 E23.05331
G1 X109.848 Y88.181 E23.06413
G1 X110.115 Y88.451 E23.07991
G1 X110.348 Y88.744 E23.09548
G1 X110.514 Y89.079 E23.11102
G1 X110.604 Y89.441 E23.12653
G1 X110.621 Y89.682 E23.13657
G1 X110.621 Y91.404 E23.20817
G1 X110.581 Y91.775 E23.22368
G1 X110.463 Y92.13 E23.23923
G1 X110.391 Y92.252 E23.24512
G1 X110.403 Y92.299 E23.24714
G1 X110.421 Y92.55 E23.2576
G1 X110.421 Y127.451 E24.70862
G1 X110.391 Y127.734 E24.72045
G1 X110.406 Y127.756 E24.72155
G1 X110.549 Y128.101 E24.73708
G1 X110.621 Y128.597 E24.75792
G1 X110.621 Y130.322 E24.82964
G1 X110.581 Y130.693 E24.84515
G1 X110.463 Y131.048 E24.8607
G1 X110.273 Y131.37 E24.87625
G1 X110.102 Y131.566 E24.88706
G1 X109.832 Y131.833 E24.90285
G1 X109.539 Y132.066 E24.91841
G1 X109.204 Y132.232 E24.93396
G1 X108.842 Y132.322 E24.94946
G1 X108.601 Y132.339 E24.95951
G1 X107.288 Y132.339 E25.0141
G1 X107.119 Y132.521 E25.02442
G1 X106.812 Y132.735 E25.03998
G1 X106.467 Y132.878 E25.05551
G1 X105.971 Y132.95 E25.07635
G1 X101.392 Y132.95 E25.26672
G1 X101.021 Y132.91 E25.28223
G1 X100.666 Y132.792 E25.29778
G1 X100.344 Y132.602 E25.31333
G1 X100.155 Y132.437 E25.32376
G1 X99.892 Y132.174 E25.33922
G1 X99.657 Y131.884 E25.35474
G1 X99.49 Y131.55 E25.37027
G1 X99.397 Y131.188 E25.38581
G1 X99.379 Y130.937 E25.39627
G1 X99.379 Y89.063 E27.13719
G0 F6000 X98.879 Y89.063
G1 F1200 X98.919 Y88.641 E27.15481
G1 X99.037 Y88.234 E27.17243
G1 X99.23 Y87.857 E27.19004
G1 X99.538 Y87.472 E27.21053
G1 X99.801 Y87.209 E27.226
G1 X100.128 Y86.939 E27.24363
G1 X100.499 Y86.735 E27.26123
G1 X100.902 Y86.604 E27.27885
G1 X101.392 Y86.55 E27.29934
G1 X105.971 Y86.55 E27.48972
G1 X106.393 Y86.59 E27.50734
G1 X106.8 Y86.708 E27.52496
G1 X107.177 Y86.901 E27.54257
G1 X107.512 Y87.161 E27.5602
G1 X107.513 Y87.162 E27.56025
G1 X108.604 Y87.162 E27.60561
G1 X109.026 Y87.202 E27.62324
G1 X109.433 Y87.32 E27.64085
G1 X109.81 Y87.513 E27.65846
G1 X110.204 Y87.83 E27.67949
G1 X110.471 Y88.1 E27.69527
G1 X110.739 Y88.428 E27.71288
G1 X110.941 Y88.801 E27.73052
G1 X111.07 Y89.204 E27.74811
G1 X111.121 Y89.682 E27.7681
G1 X111.121 Y91.404 E27.83969
G1 X111.081 Y91.826 E27.85731
G1 X110.963 Y92.233 E27.87493
G1 X110.9 Y92.357 E27.88071
G1 X110.921 Y92.55 E27.88879
G1 X110.921 Y127.451 E29.3398
G1 X110.904 Y127.634 E29.34744
G1 X110.908 Y127.641 E29.34778
G1 X111.051 Y128.04 E29.3654
G1 X111.121 Y128.597 E29.38874
G1 X111.121 Y130.322 E29.46045
G1 X111.081 Y130.744 E29.47808
G1 X110.963 Y131.151 E29.4957
G1 X110.77 Y131.528 E29.5133
G1 X110.453 Y131.922 E29.53433
G1 X110.183 Y132.189 E29.55012
G1 X109.855 Y132.457 E29.56773
G1 X109.482 Y132.659 E29.58536
G1 X109.079 Y132.788 E29.60295
G1 X108.601 Y132.839 E29.62294
G1 X107.499 Y132.839 E29.66876
G1 X107.292 Y133.021 E29.68021
G1 X106.927 Y133.237 E29.69785
G1 X106.528 Y133.38 E29.71547
G1 X105.971 Y133.45 E29.73881
G1 X101.392 Y133.45 E29.92918
G1 X100.97 Y133.41 E29.9468
G1 X100.563 Y133.292 E29.96442
G1 X100.186 Y133.099 E29.98203
G1 X99.801 Y132.791 E30.00253
G1 X99.538 Y132.528 E30.01799
G1 X99.268 Y132.201 E30.03562
G1 X99.064 Y131.83 E30.05323
G1 X98.933 Y131.427 E30.07084
G1 X98.879 Y130.937 E30.09134
G1 X98.879 Y89.063 E31.83226
G0 F6000 X98.379 Y89.063
G1 F1200 X98.419 Y88.596 E31.85174
G1 X98.538 Y88.143 E31.87122
G1 X98.731 Y87.716 E31.8907
G1 X98.995 Y87.329 E31.91017
G1 X99.184 Y87.118 E31.92195
G1 X99.447 Y86.855 E31.93742
G1 X99.806 Y86.554 E31.95689
G1 X100.21 Y86.317 E31.97637
G1 X100.649 Y86.152 E31.99586
G1 X101.109 Y86.065 E32.01533
G1 X101.392 Y86.05 E32.02711
G1 X105.971 Y86.05 E32.21748
G1 X106.438 Y86.09 E32.23697
G1 X106.891 Y86.209 E32.25644
G1 X107.318 Y86.402 E32.27592
G1 X107.699 Y86.662 E32.2951
G1 X108.604 Y86.662 E32.33273
G1 X109.071 Y86.702 E32.35221
G1 X109.524 Y86.821 E32.37169
G1 X109.951 Y87.014 E32.39117
G1 X110.338 Y87.278 E32.41064
G1 X110.559 Y87.478 E32.42304
G1 X110.826 Y87.748 E32.43882
G1 X111.126 Y88.108 E32.45831
G1 X111.361 Y88.514 E32.47781
G1 X111.523 Y88.954 E32.4973
G1 X111.608 Y89.415 E32.51679
G1 X111.621 Y89.682 E32.52791
G1 X111.621 Y91.404 E32.5995
G1 X111.581 Y91.871 E32.61898
G1 X111.462 Y92.324 E32.63846
G1 X111.415 Y92.429 E32.64324
G1 X111.421 Y92.55 E32.64828
G1 X111.421 Y127.451 E34.09929
G1 X111.412 Y127.553 E34.10355
G1 X111.429 Y127.586 E34.10509
G1 X111.563 Y128.035 E34.12457
G1 X111.621 Y128.597 E34.14806
G1 X111.621 Y130.322 E34.21978
G1 X111.581 Y130.789 E34.23927
G1 X111.462 Y131.242 E34.25874
G1 X111.269 Y131.669 E34.27822
G1 X111.005 Y132.056 E34.2977
G1 X110.805 Y132.277 E34.31009
G1 X110.535 Y132.544 E34.32588
G1 X110.175 Y132.844 E34.34536
G1 X109.769 Y133.079 E34.36486
G1 X109.329 Y133.241 E34.38436
G1 X108.868 Y133.326 E34.40384
G1 X108.601 Y133.339 E34.41496
G1 X107.689 Y133.339 E34.45288
G1 X107.402 Y133.549 E34.46766
G1 X106.982 Y133.757 E34.48715
G1 X106.533 Y133.892 E34.50664
G1 X105.971 Y133.95 E34.53013
G1 X101.392 Y133.95 E34.7205
G1 X100.925 Y133.91 E34.73999
G1 X100.472 Y133.791 E34.75946
G1 X100.045 Y133.598 E34.77894
G1 X99.658 Y133.334 E34.79842
G1 X99.447 Y133.145 E34.8102
G1 X99.184 Y132.882 E34.82566
G1 X98.883 Y132.523 E34.84514
G1 X98.646 Y132.119 E34.86461
G1 X98.481 Y131.68 E34.88411
G1 X98.394 Y131.22 E34.90357
G1 X98.379 Y130.937 E34.91535
G1 X98.379 Y89.063 E36.65627
G1 F2700 E31.65627
G1 F300 Z0.4
G0 F6000 X103.64 Y92.227 Z0.4
G1 F300 Z0.2
G1 F2700 E36.65627
G1 F1200 X103.817 Y92.154 E36.66423
G1 X108.525 Y92.154 E36.85997
G1 X108.702 Y92.227 E36.86793
G1 X108.848 Y92.373 E36.87651
G1 X108.921 Y92.55 E36.88447
G1 X108.921 Y127.451 E38.33549
G1 X108.848 Y127.628 E38.34345
G1 X108.702 Y127.774 E38.35203
G1 X108.525 Y127.847 E38.35999
G1 X103.817 Y127.846 E38.55573
G1 X103.64 Y127.773 E38.56369
G1 X103.494 Y127.627 E38.57227
G1 X103.421 Y127.45 E38.58023
G1 X103.421 Y92.55 E40.03121
G1 X103.494 Y92.373 E40.03917
G1 X103.64 Y92.227 E40.04775
G1 F2700 E35.04775
G1 F300 Z0.4
G0 F6000 X114.064 Y99.501 Z0.4
G1 F300 Z0.2
G1 F2700 E40.04775
G1 F1200 X114.389 Y99.164 E40.06721
G1 X114.767 Y98.887 E40.0867
G1 X115.187 Y98.678 E40.1062
G1 X115.629 Y98.544 E40.1254
G1 X115.965 Y98.473 E40.13968
G1 X116.431 Y98.416 E40.1592
G1 X116.899 Y98.438 E40.17868
G1 X117.356 Y98.54 E40.19815
G1 X117.79 Y98.717 E40.21763
G1 X118.187 Y98.966 E40.23712
G1 X118.412 Y99.155 E40.24933
G1 X119.181 Y99.874 E40.2931
G1 X119.55 Y100.297 E40.31644
G1 X120.339 Y101.415 E40.37333
G1 X120.586 Y101.842 E40.39384
G1 X120.986 Y102.703 E40.43331
G1 X121.135 Y103.102 E40.45102
G1 X121.341 Y103.818 E40.48199
G1 X121.429 Y104.252 E40.5004
G1 X121.602 Y105.701 E40.56107
G1 X121.621 Y106.029 E40.57473
G1 X121.614 Y114.332 E40.91993
G1 X121.59 Y114.692 E40.93493
G1 X121.48 Y115.52 E40.96966
G1 X121.403 Y115.895 E40.98557
G1 X121.112 Y116.941 E41.03071
G1 X120.992 Y117.285 E41.04586
G1 X120.736 Y117.884 E41.07294
G1 X120.625 Y118.114 E41.08356
G1 X120.374 Y118.577 E41.10546
G1 X120.102 Y118.986 E41.12588
G1 X119.105 Y120.23 E41.19216
G1 X118.625 Y120.698 E41.22003
G1 X118.189 Y121.03 E41.24281
G1 X117.793 Y121.281 E41.26231
G1 X117.361 Y121.461 E41.28176
G1 X116.904 Y121.565 E41.30125
G1 X116.436 Y121.591 E41.32074
G1 X115.982 Y121.538 E41.33974
G1 X115.658 Y121.473 E41.35348
G1 X115.208 Y121.342 E41.37296
G1 X114.787 Y121.137 E41.39243
G1 X114.407 Y120.863 E41.41191
G1 X114.079 Y120.528 E41.4314
G1 X113.812 Y120.143 E41.45088
G1 X113.615 Y119.718 E41.47035
G1 X113.493 Y119.265 E41.48986
G1 X113.449 Y118.777 E41.51023
G1 X113.448 Y101.235 E42.23954
G1 X113.488 Y100.768 E42.25903
G1 X113.606 Y100.315 E42.27849
G1 X113.8 Y99.888 E42.29799
G1 X114.064 Y99.501 E42.31747
G0 F6000 X114.559 Y99.694
G1 F1200 X114.877 Y99.414 E42.33508
G1 X115.242 Y99.198 E42.35271
G1 X115.733 Y99.034 E42.37424
G1 X116.069 Y98.963 E42.38851
G1 X116.49 Y98.914 E42.40614
G1 X116.912 Y98.946 E42.42373
G1 X117.322 Y99.056 E42.44138
G1 X117.703 Y99.241 E42.45899
G1 X118.071 Y99.52 E42.47819
G1 X118.84 Y100.239 E42.52196
G1 X119.141 Y100.586 E42.54105
G1 X119.93 Y101.704 E42.59795
G1 X120.133 Y102.053 E42.61473
G1 X120.533 Y102.914 E42.6542
G1 X120.654 Y103.24 E42.66866
G1 X120.86 Y103.956 E42.69963
G1 X120.932 Y104.311 E42.71469
G1 X121.105 Y105.76 E42.77536
