;FLAVOR:Marlin
;TIME:394
;Filament used: 0.143843m
;Layer height: 0.16
;Generated with Cura_SteamEngine 4.0.0
M140 S60
M105
M190 S60
M104 S215
M105
M109 S215
M82 ;absolute extrusion mode
M201 X500.00 Y500.00 Z100.00 E5000.00 ;Setup machine max acceleration
M203 X500.00 Y500.00 Z10.00 E50.00 ;Setup machine max feedrate
M204 P500.00 R1000.00 T500.00 ;Setup Print/Retract/Travel acceleration
M205 X8.00 Y8.00 Z0.40 E5.00 ;Setup Jerk
M220 S100 ;Reset Feedrate
M221 S100 ;Reset Flowrate

G28 ;Home

G92 E0 ;Reset Extruder
G1 Z2.0 F3000 ;Move Z Axis up
G1 X10.1 Y20 Z0.28 F5000.0 ;Move to start position
G1 X10.1 Y200.0 Z0.28 F1500.0 E15 ;Draw the first line
G1 X10.4 Y200.0 Z0.28 F5000.0 ;Move to side a little
G1 X10.4 Y20 Z0.28 F1500.0 E30 ;Draw the second line
G92 E0 ;Reset Extruder
G1 Z2.0 F3000 ;Move Z Axis up

G92 E0
G1 F2700 E-5
;LAYER_COUNT:111
;LAYER:0
M107
G0 F6000 X106.75 Y105.094 Z0.2
;TYPE:SKIRT
G1 F2700 E0
G1 F1200 X107.097 Y104.779 E0.01948
G1 X107.328 Y104.62 E0.03114
G1 X107.78 Y104.343 E0.05318
G1 X108.199 Y104.133 E0.07267
G1 X108.473 Y104.04 E0.0847
G1 X108.982 Y103.897 E0.10668
G1 X109.443 Y103.81 E0.12618
G1 X109.705 Y103.795 E0.13709
G1 X110.241 Y103.791 E0.15938
G1 X110.709 Y103.828 E0.1789
G1 X110.995 Y103.89 E0.19106
G1 X111.505 Y104.031 E0.21306
G1 X111.944 Y104.194 E0.23253
G1 X112.199 Y104.331 E0.24457
G1 X112.652 Y104.606 E0.2666
G1 X113.03 Y104.883 E0.28608
G1 X113.233 Y105.078 E0.29779
G1 X113.599 Y105.469 E0.32005
G1 X113.889 Y105.837 E0.33953
G1 X114.033 Y106.083 E0.35138
G1 X114.276 Y106.552 E0.37334
G1 X114.455 Y106.985 E0.39282
G1 X114.525 Y107.251 E0.40426
G1 X114.635 Y107.774 E0.42648
G1 X114.694 Y108.337 E0.45001
G1 X114.7 Y113.472 E0.6635
G1 X114.661 Y113.939 E0.68298
G1 X114.543 Y114.392 E0.70245
G1 X114.349 Y114.819 E0.72194
G1 X114.086 Y115.207 E0.74143
G1 X113.761 Y115.544 E0.7609
G1 X113.383 Y115.822 E0.78041
G1 X112.964 Y116.031 E0.79987
G1 X112.515 Y116.166 E0.81937
G1 X111.95 Y116.225 E0.84298
G1 X108.05 Y116.225 E1.00513
G1 X107.583 Y116.185 E1.02461
G1 X107.13 Y116.066 E1.04409
G1 X106.703 Y115.873 E1.06357
G1 X106.316 Y115.609 E1.08304
G1 X105.978 Y115.284 E1.10254
G1 X105.701 Y114.906 E1.12202
G1 X105.493 Y114.486 E1.14151
G1 X105.358 Y114.037 E1.161
G1 X105.3 Y113.473 E1.18457
G1 X105.304 Y108.35 E1.39756
G1 X105.36 Y107.802 E1.42046
G1 X105.467 Y107.278 E1.4427
G1 X105.599 Y106.828 E1.4622
G1 X105.71 Y106.582 E1.47342
G1 X105.949 Y106.112 E1.49534
G1 X106.196 Y105.713 E1.51485
G1 X106.385 Y105.487 E1.5271
G1 X106.75 Y105.094 E1.5494
G0 F6000 X107.116 Y105.434
G1 F1200 X107.589 Y105.047 E1.5748
G1 X108.041 Y104.77 E1.59684
G1 X108.608 Y104.522 E1.62257
G1 X109.117 Y104.379 E1.64455
G1 X109.709 Y104.295 E1.66941
G1 X110.245 Y104.291 E1.6917
G1 X110.862 Y104.372 E1.71757
G1 X111.372 Y104.513 E1.73957
G1 X111.94 Y104.759 E1.7653
G1 X112.393 Y105.034 E1.78734
G1 X112.868 Y105.419 E1.81276
G1 X113.234 Y105.81 E1.83502
G1 X113.589 Y106.313 E1.86062
G1 X113.832 Y106.782 E1.88258
G1 X114.036 Y107.354 E1.90783
G1 X114.146 Y107.877 E1.93005
G1 X114.194 Y108.337 E1.94927
G1 X114.2 Y113.472 E2.16276
G1 X114.161 Y113.894 E2.18038
G1 X114.043 Y114.301 E2.198
G1 X113.851 Y114.679 E2.21563
G1 X113.591 Y115.014 E2.23326
G1 X113.273 Y115.295 E2.2509
G1 X112.909 Y115.511 E2.2685
G1 X112.51 Y115.654 E2.28612
G1 X111.95 Y115.725 E2.30959
G1 X108.05 Y115.725 E2.47173
G1 X107.628 Y115.685 E2.48935
G1 X107.221 Y115.567 E2.50697
G1 X106.844 Y115.374 E2.52458
G1 X106.509 Y115.114 E2.54221
G1 X106.229 Y114.796 E2.55983
G1 X106.013 Y114.431 E2.57746
G1 X105.87 Y114.032 E2.59508
G1 X105.8 Y113.473 E2.6185
G1 X105.804 Y108.35 E2.83149
G1 X105.849 Y107.902 E2.85021
G1 X105.956 Y107.378 E2.87245
G1 X106.155 Y106.808 E2.89755
G1 X106.394 Y106.338 E2.91947
G1 X106.751 Y105.827 E2.94539
G1 X107.116 Y105.434 E2.96768
G0 F6000 X107.483 Y105.774
G1 F1200 X107.851 Y105.473 E2.98745
G1 X108.303 Y105.196 E3.00949
G1 X108.744 Y105.003 E3.0295
G1 X109.253 Y104.86 E3.05148
G1 X109.713 Y104.795 E3.0708
G1 X110.249 Y104.791 E3.09308
G1 X110.728 Y104.854 E3.11317
G1 X111.238 Y104.995 E3.13517
G1 X111.68 Y105.186 E3.15519
G1 X112.133 Y105.461 E3.17722
G1 X112.503 Y105.761 E3.19702
G1 X112.869 Y106.152 E3.21929
G1 X113.145 Y106.543 E3.23919
G1 X113.388 Y107.012 E3.26115
G1 X113.547 Y107.457 E3.2808
G1 X113.657 Y107.98 E3.30301
G1 X113.694 Y108.338 E3.31798
G1 X113.7 Y113.473 E3.53147
G1 X113.661 Y113.844 E3.54698
G1 X113.543 Y114.199 E3.56253
G1 X113.353 Y114.521 E3.57807
G1 X113.099 Y114.795 E3.59361
G1 X112.793 Y115.009 E3.60913
G1 X112.448 Y115.153 E3.62467
G1 X111.95 Y115.225 E3.64559
G1 X108.05 Y115.225 E3.80774
G1 X107.679 Y115.185 E3.82325
G1 X107.324 Y115.067 E3.8388
G1 X107.002 Y114.877 E3.85435
G1 X106.729 Y114.623 E3.86985
G1 X106.515 Y114.316 E3.88541
G1 X106.372 Y113.971 E3.90094
G1 X106.3 Y113.474 E3.92181
G1 X106.304 Y108.351 E4.1348
G1 X106.339 Y108.002 E4.14939
G1 X106.446 Y107.478 E4.17162
G1 X106.601 Y107.035 E4.19113
G1 X106.84 Y106.565 E4.21306
G1 X107.118 Y106.167 E4.23324
G1 X107.483 Y105.774 E4.25554
G0 F6000 X107.849 Y106.114
G1 F1200 X108.112 Y105.899 E4.26966
G1 X108.564 Y105.622 E4.2917
G1 X108.879 Y105.485 E4.30598
G1 X109.388 Y105.342 E4.32796
G1 X109.717 Y105.295 E4.34178
G1 X110.253 Y105.291 E4.36407
G1 X110.595 Y105.336 E4.37841
G1 X111.105 Y105.477 E4.40041
G1 X111.421 Y105.613 E4.41471
G1 X111.874 Y105.888 E4.43674
G1 X112.138 Y106.103 E4.4509
G1 X112.504 Y106.494 E4.47316
G1 X112.701 Y106.773 E4.48736
G1 X112.944 Y107.242 E4.50932
G1 X113.057 Y107.56 E4.52335
G1 X113.167 Y108.083 E4.54557
G1 X113.194 Y108.339 E4.55628
G1 X113.2 Y113.474 E4.76976
G1 X113.161 Y113.787 E4.78288
G1 X113.044 Y114.08 E4.79599
G1 X112.858 Y114.335 E4.80912
G1 X112.613 Y114.534 E4.82224
G1 X112.327 Y114.667 E4.83535
G1 X111.95 Y114.725 E4.85121
G1 X108.05 Y114.725 E5.01335
G1 X107.737 Y114.685 E5.02647
G1 X107.444 Y114.568 E5.03959
G1 X107.189 Y114.382 E5.05271
G1 X106.99 Y114.137 E5.06583
G1 X106.858 Y113.85 E5.07897
G1 X106.8 Y113.474 E5.09479
G1 X106.804 Y108.351 E5.30777
G1 X106.829 Y108.102 E5.31818
G1 X106.936 Y107.578 E5.34041
G1 X107.047 Y107.261 E5.35438
G1 X107.286 Y106.791 E5.3763
G1 X107.484 Y106.507 E5.39069
G1 X107.849 Y106.114 E5.41299
G0 F6000 X108.215 Y106.455
G1 F1200 X108.373 Y106.326 E5.42147
G1 X108.825 Y106.049 E5.44351
G1 X109.014 Y105.966 E5.45209
G1 X109.523 Y105.823 E5.47408
G1 X109.72 Y105.795 E5.48235
G1 X110.256 Y105.791 E5.50463
G1 X110.462 Y105.818 E5.51327
G1 X110.972 Y105.959 E5.53527
G1 X111.161 Y106.041 E5.54383
G1 X111.614 Y106.316 E5.56587
G1 X111.773 Y106.444 E5.57435
G1 X112.139 Y106.835 E5.59662
G1 X112.257 Y107.003 E5.60516
G1 X112.5 Y107.472 E5.62712
G1 X112.568 Y107.663 E5.63555
G1 X112.678 Y108.186 E5.65776
G1 X112.694 Y108.339 E5.66416
G1 X112.7 Y113.474 E5.87765
G1 X112.661 Y113.715 E5.8878
G1 X112.546 Y113.931 E5.89797
G1 X112.368 Y114.098 E5.90812
G1 X112.146 Y114.199 E5.91826
G1 X111.95 Y114.225 E5.92648
G1 X108.05 Y114.225 E6.08862
G1 X107.809 Y114.185 E6.09878
G1 X107.594 Y114.07 E6.10892
G1 X107.427 Y113.892 E6.11906
G1 X107.326 Y113.67 E6.1292
G1 X107.3 Y113.474 E6.13742
G1 X107.304 Y108.351 E6.35041
G1 X107.319 Y108.202 E6.35664
G1 X107.426 Y107.678 E6.37888
G1 X107.492 Y107.488 E6.38724
G1 X107.731 Y107.018 E6.40916
G1 X107.85 Y106.848 E6.41779
G1 X108.215 Y106.455 E6.44009
G0 F6000 X108.582 Y106.795
G1 F1200 X108.634 Y106.752 E6.44289
G1 X109.086 Y106.475 E6.46493
G1 X109.149 Y106.447 E6.4678
G1 X109.658 Y106.304 E6.48978
G1 X109.724 Y106.295 E6.49255
G1 X110.26 Y106.291 E6.51483
G1 X110.329 Y106.3 E6.51773
G1 X110.839 Y106.441 E6.53972
G1 X110.902 Y106.468 E6.54257
G1 X111.355 Y106.743 E6.56461
G1 X111.408 Y106.786 E6.56744
G1 X111.774 Y107.177 E6.58971
G1 X111.813 Y107.233 E6.59255
G1 X112.056 Y107.702 E6.61451
G1 X112.079 Y107.766 E6.61734
G1 X112.189 Y108.289 E6.63955
G1 X112.194 Y108.34 E6.64169
G1 X112.2 Y113.475 E6.85517
G1 X112.161 Y113.609 E6.86098
G1 X112.056 Y113.702 E6.86681
G1 X111.95 Y113.725 E6.87132
G1 X108.05 Y113.725 E7.03346
G1 X107.916 Y113.686 E7.03926
G1 X107.823 Y113.58 E7.04513
G1 X107.8 Y113.475 E7.04959
G1 X107.804 Y108.352 E7.26258
G1 X107.809 Y108.302 E7.26467
G1 X107.916 Y107.778 E7.28691
G1 X107.938 Y107.715 E7.28968
G1 X108.177 Y107.245 E7.3116
G1 X108.217 Y107.188 E7.3145
G1 X108.582 Y106.795 E7.3368
G1 F2700 E2.3368
G1 F300 Z0.4
;MESH:FGC-9_Magazine_Catch_Pivot_Lock.stl
G0 F6000 X111.45 Y113.225 Z0.4
;TYPE:WALL-OUTER
G1 F300 Z0.2
G1 F2700 E7.3368
G1 F1200 X108.55 Y113.225 E7.45737
G1 X108.3 Y113.225 E7.46776
G1 X108.3 Y112.975 E7.47448
G1 X108.304 Y108.376 E7.66569
G1 X108.398 Y107.914 E7.68529
G1 X108.61 Y107.499 E7.70466
G1 X108.922 Y107.163 E7.72373
G1 X109.317 Y106.921 E7.74299
G1 X109.765 Y106.795 E7.76234
G1 X110.226 Y106.791 E7.7815
G1 X110.671 Y106.915 E7.80071
G1 X111.07 Y107.157 E7.82011
G1 X111.384 Y107.491 E7.83917
G1 X111.597 Y107.902 E7.85841
G1 X111.694 Y108.365 E7.87808
G1 X111.7 Y112.975 E8.06974
G1 X111.7 Y113.225 E8.08014
G1 X111.45 Y113.225 E8.08686
G0 F6000 X111.25 Y113.225
G0 X110.949 Y112.725
;TYPE:WALL-INNER
G1 F1200 X109.05 Y112.725 E8.16581
G1 X108.8 Y112.725 E8.17621
G1 X108.8 Y112.475 E8.18293
G1 X108.804 Y108.427 E8.35123
G1 X108.875 Y108.079 E8.36599
G1 X109.023 Y107.788 E8.37957
G1 X109.241 Y107.553 E8.39289
G1 X109.519 Y107.383 E8.40644
G1 X109.834 Y107.294 E8.42005
G1 X110.159 Y107.292 E8.43356
G1 X110.47 Y107.378 E8.44698
G1 X110.755 Y107.551 E8.46084
G1 X110.971 Y107.781 E8.47396
G1 X111.122 Y108.072 E8.48759
G1 X111.194 Y108.416 E8.5022
G1 X111.199 Y112.475 E8.67095
G1 X111.199 Y112.725 E8.68135
G1 X110.949 Y112.725 E8.68807
G0 F6000 X110.448 Y112.225
G1 F1200 X109.55 Y112.225 E8.72541
G1 X109.3 Y112.225 E8.7358
G1 X109.3 Y111.975 E8.74252
G1 X109.304 Y108.478 E8.88791
G1 X109.351 Y108.247 E8.89771
G1 X109.438 Y108.077 E8.90565
G1 X109.56 Y107.944 E8.91316
G1 X109.723 Y107.845 E8.92108
G1 X109.904 Y107.794 E8.9289
G1 X110.093 Y107.792 E8.93676
G1 X110.272 Y107.842 E8.94449
G1 X110.437 Y107.942 E8.95251
G1 X110.558 Y108.071 E8.95986
G1 X110.647 Y108.243 E8.96791
G1 X110.694 Y108.466 E8.97739
G1 X110.698 Y111.975 E9.12328
G1 X110.698 Y112.225 E9.13367
G1 X110.448 Y112.225 E9.14039
G0 F6000 X110.208 Y111.735
;TYPE:SKIN
G1 F1200 X109.79 Y111.735 E9.15777
G1 X109.794 Y108.528 E9.2911
G1 X109.817 Y108.415 E9.2959
G1 X109.847 Y108.356 E9.29865
G1 X109.872 Y108.329 E9.30018
G1 X109.921 Y108.299 E9.30257
G1 X109.976 Y108.283 E9.30495
G1 X110.029 Y108.283 E9.30715
G1 X110.075 Y108.295 E9.30913
G1 X110.127 Y108.327 E9.31167
G1 X110.154 Y108.356 E9.31332
G1 X110.181 Y108.407 E9.31572
G1 X110.204 Y108.519 E9.32047
G1 X110.208 Y111.735 E9.45418
;MESH:NONMESH
G0 F6000 X110.448 Y112.225
;TIME_ELAPSED:20.911580
;LAYER:1
M140 S60
M106 S85
;MESH:FGC-9_Magazine_Catch_Pivot_Lock.stl
G0 F7500 X110.448 Y112.225 Z0.4
;TYPE:WALL-INNER
G1 F600 X109.55 Y112.225 E9.49151
G1 X109.3 Y112.225 E9.5019
G1 X109.3 Y111.975 E9.50863
G1 X109.303 Y108.48 E9.65393
G1 X109.35 Y108.249 E9.66373
G1 X109.433 Y108.086 E9.67134
G1 X109.564 Y107.943 E9.6794
G1 X109.72 Y107.846 E9.68704
G1 X109.903 Y107.794 E9.69495
G1 X110.094 Y107.793 E9.70289
G1 X110.273 Y107.842 E9.71061
G1 X110.432 Y107.938 E9.71833
G1 X110.554 Y108.068 E9.72574
G1 X110.647 Y108.246 E9.73409
G1 X110.694 Y108.469 E9.74356
G1 X110.698 Y111.975 E9.88933
G1 X110.698 Y112.225 E9.89972
G1 X110.448 Y112.225 E9.90644
G0 F7500 X110.949 Y112.725
G1 F600 X109.05 Y112.725 E9.9854
G1 X108.8 Y112.725 E9.99579
G1 X108.8 Y112.475 E10.00251
G1 X108.803 Y108.43 E10.17069
G1 X108.873 Y108.084 E10.18536
G1 X109.02 Y107.796 E10.19881
G1 X109.241 Y107.555 E10.2124
G1 X109.518 Y107.384 E10.22593
G1 X109.831 Y107.295 E10.23946
G1 X110.159 Y107.292 E10.2531
G1 X110.471 Y107.378 E10.26656
G1 X110.748 Y107.545 E10.28
G1 X110.968 Y107.779 E10.29336
G1 X111.121 Y108.073 E10.30714
G1 X111.194 Y108.416 E10.32172
G1 X111.199 Y112.475 E10.49047
G1 X111.199 Y112.725 E10.50086
G1 X110.949 Y112.725 E10.50759
G0 F7500 X111.45 Y113.225
;TYPE:WALL-OUTER
G1 F600 X108.55 Y113.225 E10.62816
G1 X108.3 Y113.225 E10.63855
G1 X108.3 Y112.975 E10.64527
G1 X108.303 Y108.381 E10.83627
G1 X108.396 Y107.919 E10.85586
G1 X108.607 Y107.505 E10.87518
G1 X108.919 Y107.166 E10.89434
G1 X109.315 Y106.922 E10.91367
G1 X109.758 Y106.796 E10.93282
G1 X110.224 Y106.791 E10.9522
G1 X110.669 Y106.914 E10.97139
G1 X111.066 Y107.153 E10.99066
G1 X111.381 Y107.488 E11.00978
G1 X111.596 Y107.901 E11.02913
G1 X111.694 Y108.364 E11.04881
G1 X111.7 Y112.975 E11.24051
G1 X111.7 Y113.225 E11.25091
G1 X111.45 Y113.225 E11.25763
G0 F7500 X111.25 Y113.225
G1 F2700 E6.25763
G1 F300 Z0.6
G0 F7500 X110.208 Y111.735 Z0.6
;TYPE:SKIN
G1 F300 Z0.4
G1 F2700 E11.25763
G1 F600 X109.79 Y111.735 E11.27501
G1 X109.793 Y108.528 E11.40834
G1 X109.816 Y108.412 E11.41326
G1 X109.839 Y108.368 E11.41532
G1 X109.879 Y108.324 E11.41779
G1 X109.922 Y108.297 E11.41991
G1 X109.97 Y108.284 E11.42197
G1 X110.031 Y108.283 E11.42451
G1 X110.078 Y108.296 E11.42654
G1 X110.122 Y108.323 E11.42868
G1 X110.149 Y108.351 E11.4303
G1 X110.181 Y108.413 E11.4332
G1 X110.204 Y108.523 E11.43787
G1 X110.208 Y111.735 E11.57141
;MESH:NONMESH
G0 F7500 X110.448 Y112.225
;TIME_ELAPSED:26.786471
;LAYER:2
M106 S170
;MESH:FGC-9_Magazine_Catch_Pivot_Lock.stl
G0 F9000 X110.448 Y112.225 Z0.6
;TYPE:WALL-INNER
G1 F600 X109.55 Y112.225 E11.60875
G1 X109.3 Y112.225 E11.61914
G1 X109.3 Y111.975 E11.62587
G1 X109.303 Y108.485 E11.77096
G1 X109.349 Y108.252 E11.78084
G1 X109.434 Y108.083 E11.7887
G1 X109.56 Y107.945 E11.79647
G1 X109.719 Y107.847 E11.80424
G1 X109.901 Y107.794 E11.81212
G1 X110.093 Y107.792 E11.8201
G1 X110.265 Y107.839 E11.82751
G1 X110.431 Y107.938 E11.83555
G1 X110.558 Y108.073 E11.84326
G1 X110.647 Y108.243 E11.85123
G1 X110.694 Y108.464 E11.86063
G1 X110.698 Y111.975 E12.0066
G1 X110.698 Y112.225 E12.01699
G1 X110.448 Y112.225 E12.02372
G0 F9000 X110.949 Y112.725
G1 F600 X109.05 Y112.725 E12.10267
G1 X108.8 Y112.725 E12.11306
G1 X108.8 Y112.475 E12.11979
G1 X108.803 Y108.435 E12.28775
G1 X108.871 Y108.088 E12.30245
G1 X109.017 Y107.798 E12.31595
G1 X109.239 Y107.556 E12.3296
G1 X109.514 Y107.386 E12.34304
G1 X109.828 Y107.295 E12.35664
G1 X110.156 Y107.291 E12.37027
G1 X110.464 Y107.375 E12.38355
G1 X110.746 Y107.545 E12.39724
G1 X110.969 Y107.781 E12.41073
G1 X111.122 Y108.074 E12.42448
G1 X111.194 Y108.41 E12.43876
G1 X111.199 Y112.475 E12.60777
G1 X111.199 Y112.725 E12.61816
G1 X110.949 Y112.725 E12.62489
G0 F9000 X111.45 Y113.225
;TYPE:WALL-OUTER
G1 F600 X108.55 Y113.225 E12.74545
G1 X108.3 Y113.225 E12.75585
G1 X108.3 Y112.975 E12.76257
G1 X108.303 Y108.385 E12.9534
G1 X108.393 Y107.925 E12.97289
G1 X108.603 Y107.51 E12.99223
G1 X108.915 Y107.169 E13.01144
G1 X109.309 Y106.925 E13.03071
G1 X109.755 Y106.796 E13.05001
G1 X110.219 Y106.79 E13.0693
G1 X110.665 Y106.912 E13.08853
G1 X111.061 Y107.15 E13.10774
G1 X111.38 Y107.488 E13.12706
G1 X111.597 Y107.902 E13.14649
G1 X111.694 Y108.357 E13.16583
G1 X111.7 Y112.975 E13.35783
G1 X111.7 Y113.225 E13.36822
G1 X111.45 Y113.225 E13.37495
G0 F9000 X111.25 Y113.225
G1 F2700 E8.37495
G1 F300 Z0.8
G0 F9000 X110.208 Y111.735 Z0.8
;TYPE:SKIN
G1 F300 Z0.6
G1 F2700 E13.37495
G1 F600 X109.79 Y111.735 E13.39233
G1 X109.793 Y108.534 E13.52541
G1 X109.817 Y108.411 E13.53062
G1 X109.839 Y108.367 E13.53266
G1 X109.877 Y108.326 E13.53499
G1 X109.92 Y108.299 E13.5371
G1 X109.974 Y108.283 E13.53944
G1 X110.031 Y108.283 E13.54181
G1 X110.069 Y108.293 E13.54344
G1 X110.123 Y108.325 E13.54605
G1 X110.156 Y108.361 E13.54808
G1 X110.181 Y108.407 E13.55026
G1 X110.204 Y108.518 E13.55497
G1 X110.208 Y111.735 E13.68872
;MESH:NONMESH
G0 F9000 X110.448 Y112.225
;TIME_ELAPSED:32.664412
;LAYER:3
M106 S255
;MESH:FGC-9_Magazine_Catch_Pivot_Lock.stl
G0 X110.448 Y112.225 Z0.8
;TYPE:WALL-INNER
G1 F600 X109.55 Y112.225 E13.72605
G1 X109.3 Y112.225 E13.73645
G1 X109.3 Y111.975 E13.74317
G1 X109.303 Y108.491 E13.88802
G1 X109.348 Y108.256 E13.89797
G1 X109.435 Y108.081 E13.90609
G1 X109.558 Y107.946 E13.91369
G1 X109.715 Y107.848 E13.92138
G1 X109.899 Y107.795 E13.92934
G1 X110.09 Y107.792 E13.93728
G1 X110.268 Y107.84 E13.94495
