;FLAVOR:Marlin
;TIME:1352
;Filament used: 0.628118m
;Layer height: 0.16
;Generated with Cura_SteamEngine 4.0.0
M140 S60
M105
M190 S60
M104 S215
M105
M109 S215
M82 ;absolute extrusion mode
M201 X500.00 Y500.00 Z100.00 E5000.00 ;Setup machine max acceleration
M203 X500.00 Y500.00 Z10.00 E50.00 ;Setup machine max feedrate
M204 P500.00 R1000.00 T500.00 ;Setup Print/Retract/Travel acceleration
M205 X8.00 Y8.00 Z0.40 E5.00 ;Setup Jerk
M220 S100 ;Reset Feedrate
M221 S100 ;Reset Flowrate

G28 ;Home

G92 E0 ;Reset Extruder
G1 Z2.0 F3000 ;Move Z Axis up
G1 X10.1 Y20 Z0.28 F5000.0 ;Move to start position
G1 X10.1 Y200.0 Z0.28 F1500.0 E15 ;Draw the first line
G1 X10.4 Y200.0 Z0.28 F5000.0 ;Move to side a little
G1 X10.4 Y20 Z0.28 F1500.0 E30 ;Draw the second line
G92 E0 ;Reset Extruder
G1 Z2.0 F3000 ;Move Z Axis up

G92 E0
G1 F2700 E-5
;LAYER_COUNT:102
;LAYER:0
M107
G0 F6000 X114.801 Y97.698 Z0.2
;TYPE:SKIRT
G1 F2700 E0
G1 F1200 X115.143 Y97.378 E0.01947
G1 X115.655 Y97.057 E0.0446
G1 X116.056 Y96.864 E0.0631
G1 X116.494 Y96.698 E0.08257
G1 X116.954 Y96.608 E0.10206
G1 X117.21 Y96.592 E0.11272
G1 X118.544 Y96.573 E0.16819
G1 X119.011 Y96.607 E0.18766
G1 X119.493 Y96.728 E0.20832
G1 X119.915 Y96.876 E0.22691
G1 X120.342 Y97.068 E0.24638
G1 X120.731 Y97.33 E0.26587
G1 X120.95 Y97.526 E0.27809
G1 X121.263 Y97.839 E0.2965
G1 X121.564 Y98.198 E0.31597
G1 X121.801 Y98.602 E0.33545
G1 X121.913 Y98.874 E0.34768
G1 X122.061 Y99.296 E0.36627
G1 X122.178 Y99.75 E0.38576
G1 X122.216 Y100.209 E0.40491
G1 X122.197 Y115.909 E1.05764
G1 X122.157 Y116.376 E1.07713
G1 X122.037 Y116.829 E1.09661
G1 X121.776 Y117.368 E1.12151
G1 X121.425 Y117.927 E1.14895
G1 X121.143 Y118.302 E1.16846
G1 X120.801 Y118.622 E1.18793
G1 X120.286 Y118.944 E1.21318
G1 X120.227 Y118.972 E1.2159
G1 X120.216 Y119.832 E1.25165
G1 X120.17 Y120.298 E1.27112
G1 X120.06 Y120.707 E1.28873
G1 X119.912 Y121.128 E1.30728
G1 X119.72 Y121.555 E1.32675
G1 X119.458 Y121.944 E1.34625
G1 X119.263 Y122.161 E1.35838
G1 X118.95 Y122.474 E1.37678
G1 X118.591 Y122.775 E1.39626
G1 X118.187 Y123.012 E1.41573
G1 X117.915 Y123.124 E1.42796
G1 X117.493 Y123.272 E1.44655
G1 X117.039 Y123.389 E1.46604
G1 X116.58 Y123.427 E1.48519
G1 X101.302 Y123.408 E2.12038
G1 X100.835 Y123.367 E2.13987
G1 X100.382 Y123.248 E2.15934
G1 X99.843 Y122.987 E2.18424
G1 X99.284 Y122.636 E2.21168
G1 X98.909 Y122.354 E2.23119
G1 X98.589 Y122.012 E2.25066
G1 X98.267 Y121.497 E2.27591
G1 X98.074 Y121.095 E2.29445
G1 X97.908 Y120.657 E2.31393
G1 X97.819 Y120.197 E2.33341
G1 X97.821 Y119.589 E2.35868
G1 X97.987 Y118.156 E2.41866
G1 X98.09 Y117.666 E2.43948
G1 X98.524 Y116.251 E2.50101
G1 X98.672 Y115.872 E2.51793
G1 X99.312 Y114.532 E2.57966
G1 X99.514 Y114.178 E2.59661
G1 X100.344 Y112.949 E2.65827
G1 X100.596 Y112.63 E2.67517
G1 X101.6 Y111.535 E2.73693
G1 X101.901 Y111.252 E2.75411
G1 X103.059 Y110.318 E2.81596
G1 X103.391 Y110.089 E2.83273
G1 X104.666 Y109.339 E2.89423
G1 X105.034 Y109.158 E2.91128
G1 X106.414 Y108.603 E2.97312
G1 X106.802 Y108.479 E2.99005
G1 X108.244 Y108.135 E3.05169
G1 X108.649 Y108.07 E3.06874
G1 X110.13 Y107.944 E3.13054
G1 X110.537 Y107.94 E3.14746
G1 X112.016 Y108.034 E3.20907
G1 X112.421 Y108.09 E3.22607
G1 X113.723 Y108.37 E3.28144
G1 X113.747 Y100.086 E3.62585
G1 X113.788 Y99.619 E3.64534
G1 X113.908 Y99.166 E3.66482
G1 X114.168 Y98.632 E3.68951
G1 X114.519 Y98.073 E3.71696
G1 X114.801 Y97.698 E3.73646
G0 F6000 X115.201 Y98.002
G1 F1200 X115.517 Y97.721 E3.75404
G1 X115.872 Y97.508 E3.77126
G1 X116.273 Y97.315 E3.78976
G1 X116.671 Y97.168 E3.8074
G1 X117.217 Y97.092 E3.83032
G1 X118.551 Y97.073 E3.88578
G1 X118.973 Y97.107 E3.90339
G1 X119.328 Y97.2 E3.91864
G1 X119.75 Y97.348 E3.93724
G1 X120.135 Y97.525 E3.95485
G1 X120.596 Y97.88 E3.97904
G1 X120.909 Y98.193 E3.99745
G1 X121.179 Y98.52 E4.01508
G1 X121.441 Y99.039 E4.03925
G1 X121.589 Y99.461 E4.05784
G1 X121.691 Y99.873 E4.07549
G1 X121.716 Y100.209 E4.08949
G1 X121.697 Y115.909 E4.74222
G1 X121.657 Y116.331 E4.75985
G1 X121.538 Y116.737 E4.77744
G1 X121.353 Y117.102 E4.79445
G1 X121.002 Y117.661 E4.82189
G1 X120.743 Y117.998 E4.83956
G1 X120.427 Y118.279 E4.85714
G1 X120.07 Y118.493 E4.87445
G1 X119.732 Y118.655 E4.89003
G1 X119.716 Y119.825 E4.93868
G1 X119.67 Y120.246 E4.95629
G1 X119.589 Y120.541 E4.96901
G1 X119.441 Y120.962 E4.98756
G1 X119.263 Y121.347 E5.00519
G1 X118.909 Y121.807 E5.02932
G1 X118.596 Y122.12 E5.04773
G1 X118.269 Y122.39 E5.06536
G1 X117.75 Y122.652 E5.08953
G1 X117.328 Y122.8 E5.10812
G1 X116.916 Y122.902 E5.12577
G1 X116.58 Y122.927 E5.13978
G1 X101.302 Y122.908 E5.77496
G1 X100.88 Y122.868 E5.79259
G1 X100.474 Y122.749 E5.81018
G1 X100.109 Y122.564 E5.82719
G1 X99.55 Y122.213 E5.85463
G1 X99.213 Y121.954 E5.8723
G1 X98.932 Y121.638 E5.88988
G1 X98.718 Y121.281 E5.90719
G1 X98.525 Y120.879 E5.92573
G1 X98.378 Y120.481 E5.94337
G1 X98.309 Y120.063 E5.96098
G1 X98.318 Y119.646 E5.97832
G1 X98.484 Y118.213 E6.0383
G1 X98.568 Y117.812 E6.05533
G1 X99.002 Y116.397 E6.11686
G1 X99.123 Y116.087 E6.1307
G1 X99.763 Y114.747 E6.19244
G1 X99.928 Y114.458 E6.20627
G1 X100.758 Y113.229 E6.26793
G1 X100.965 Y112.967 E6.28181
G1 X101.969 Y111.872 E6.34358
G1 X102.214 Y111.642 E6.35755
G1 X103.372 Y110.708 E6.4194
G1 X103.644 Y110.52 E6.43315
G1 X104.919 Y109.77 E6.49465
G1 X105.22 Y109.621 E6.50861
G1 X106.6 Y109.066 E6.57045
G1 X106.918 Y108.965 E6.58432
G1 X108.36 Y108.621 E6.64595
G1 X108.691 Y108.568 E6.65989
G1 X110.172 Y108.442 E6.72169
G1 X110.506 Y108.439 E6.73557
G1 X111.985 Y108.533 E6.79719
G1 X112.316 Y108.578 E6.81107
G1 X113.769 Y108.891 E6.87287
G1 X114.131 Y109.002 E6.88861
G1 X114.221 Y109.038 E6.89264
G1 X114.247 Y100.087 E7.26478
G1 X114.288 Y99.666 E7.28237
G1 X114.408 Y99.259 E7.30001
G1 X114.591 Y98.898 E7.31684
G1 X114.942 Y98.339 E7.34428
G1 X115.201 Y98.002 E7.36195
G0 F6000 X115.597 Y98.311
G1 F1200 X115.886 Y98.073 E7.37751
G1 X116.089 Y97.958 E7.38721
G1 X116.49 Y97.765 E7.40572
G1 X116.842 Y97.64 E7.42125
G1 X117.224 Y97.592 E7.43725
G1 X118.558 Y97.573 E7.49272
G1 X118.93 Y97.608 E7.50825
G1 X119.162 Y97.672 E7.51826
G1 X119.584 Y97.82 E7.53685
G1 X119.922 Y97.98 E7.5524
G1 X120.242 Y98.234 E7.56938
G1 X120.555 Y98.547 E7.58779
G1 X120.79 Y98.837 E7.60331
G1 X120.969 Y99.205 E7.62032
G1 X121.117 Y99.627 E7.63891
G1 X121.203 Y99.991 E7.65446
G1 X121.216 Y100.208 E7.6635
G1 X121.197 Y115.908 E8.31623
G1 X121.157 Y116.28 E8.33179
G1 X121.038 Y116.634 E8.34731
G1 X120.929 Y116.837 E8.35689
G1 X120.578 Y117.396 E8.38433
G1 X120.347 Y117.689 E8.39985
G1 X120.058 Y117.927 E8.41541
G1 X119.853 Y118.043 E8.4252
G1 X119.453 Y118.235 E8.44365
G1 X119.236 Y118.306 E8.45314
G1 X119.216 Y119.818 E8.51601
G1 X119.171 Y120.189 E8.53155
G1 X119.117 Y120.375 E8.5396
G1 X118.969 Y120.796 E8.55815
G1 X118.808 Y121.134 E8.57372
G1 X118.555 Y121.453 E8.59065
G1 X118.242 Y121.766 E8.60905
G1 X117.952 Y122.001 E8.62457
G1 X117.584 Y122.18 E8.64158
G1 X117.162 Y122.328 E8.66017
G1 X116.798 Y122.414 E8.67572
G1 X116.581 Y122.427 E8.68476
G1 X101.303 Y122.408 E9.31995
G1 X100.931 Y122.368 E9.3355
G1 X100.577 Y122.249 E9.35103
G1 X100.374 Y122.14 E9.36061
G1 X99.815 Y121.789 E9.38805
G1 X99.522 Y121.558 E9.40356
G1 X99.284 Y121.269 E9.41913
G1 X99.168 Y121.064 E9.42892
G1 X98.975 Y120.662 E9.44746
G1 X98.851 Y120.31 E9.46298
G1 X98.803 Y119.94 E9.47849
G1 X98.815 Y119.704 E9.48831
G1 X98.981 Y118.271 E9.54829
G1 X99.046 Y117.959 E9.56154
G1 X99.48 Y116.544 E9.62307
G1 X99.574 Y116.303 E9.63383
G1 X100.214 Y114.963 E9.69557
G1 X100.343 Y114.738 E9.70635
G1 X101.173 Y113.509 E9.76801
G1 X101.333 Y113.305 E9.77878
G1 X102.337 Y112.21 E9.84055
G1 X102.528 Y112.031 E9.85143
G1 X103.686 Y111.097 E9.91328
G1 X103.898 Y110.951 E9.92399
G1 X105.173 Y110.201 E9.98549
G1 X105.407 Y110.085 E9.99634
G1 X106.787 Y109.53 E10.05818
G1 X107.034 Y109.452 E10.06895
G1 X108.476 Y109.108 E10.13059
G1 X108.734 Y109.066 E10.14145
G1 X110.215 Y108.94 E10.20325
G1 X110.474 Y108.938 E10.21402
G1 X111.953 Y109.032 E10.27563
G1 X112.211 Y109.067 E10.28646
G1 X113.664 Y109.38 E10.34825
G1 X113.945 Y109.466 E10.36047
G1 X114.719 Y109.776 E10.39513
G1 X114.747 Y100.089 E10.79787
G1 X114.788 Y99.717 E10.81343
G1 X114.907 Y99.363 E10.82896
G1 X115.015 Y99.163 E10.83841
G1 X115.366 Y98.604 E10.86585
G1 X115.597 Y98.311 E10.88136
G0 F6000 X115.99 Y98.626
G1 F1200 X116.306 Y98.409 E10.8973
G1 X116.707 Y98.216 E10.9158
G1 X117.006 Y98.116 E10.92891
G1 X117.231 Y98.092 E10.93832
G1 X118.565 Y98.073 E10.99378
G1 X118.997 Y98.143 E11.01198
G1 X119.419 Y98.291 E11.03057
G1 X119.701 Y98.433 E11.0437
G1 X119.889 Y98.587 E11.0538
G1 X120.202 Y98.9 E11.0722
G1 X120.395 Y99.15 E11.08534
G1 X120.498 Y99.37 E11.09543
G1 X120.646 Y99.792 E11.11403
G1 X120.716 Y100.208 E11.13157
G1 X120.697 Y115.908 E11.7843
G1 X120.657 Y116.221 E11.79742
G1 X120.506 Y116.571 E11.81326
G1 X120.155 Y117.13 E11.84071
G1 X119.954 Y117.374 E11.85385
G1 X119.637 Y117.592 E11.86984
G1 X119.237 Y117.784 E11.88829
G1 X118.929 Y117.885 E11.90177
G1 X118.741 Y117.921 E11.90972
G1 X118.716 Y119.812 E11.98835
G1 X118.645 Y120.21 E12.00516
G1 X118.497 Y120.631 E12.02371
G1 X118.356 Y120.913 E12.03682
G1 X118.202 Y121.1 E12.04689
G1 X117.889 Y121.413 E12.06529
G1 X117.639 Y121.606 E12.07842
G1 X117.419 Y121.709 E12.08852
G1 X116.997 Y121.857 E12.10712
G1 X116.581 Y121.927 E12.12465
G1 X101.303 Y121.908 E12.75984
G1 X100.99 Y121.868 E12.77296
G1 X100.64 Y121.717 E12.78881
G1 X100.081 Y121.366 E12.81625
G1 X99.837 Y121.165 E12.82939
G1 X99.619 Y120.848 E12.84539
G1 X99.426 Y120.446 E12.86393
G1 X99.327 Y120.147 E12.87702
G1 X99.311 Y119.761 E12.89308
G1 X99.477 Y118.328 E12.95306
G1 X99.524 Y118.105 E12.96253
G1 X99.958 Y116.69 E13.02407
G1 X100.025 Y116.518 E13.03174
G1 X100.665 Y115.178 E13.09348
G1 X100.757 Y115.017 E13.10119
G1 X101.587 Y113.788 E13.16285
G1 X101.702 Y113.643 E13.17054
G1 X102.706 Y112.548 E13.23231
G1 X102.842 Y112.42 E13.24007
G1 X104 Y111.486 E13.30192
G1 X104.151 Y111.382 E13.30955
G1 X105.426 Y110.632 E13.37104
G1 X105.594 Y110.549 E13.37884
G1 X106.974 Y109.994 E13.44068
G1 X107.15 Y109.938 E13.44835
G1 X108.592 Y109.594 E13.50999
G1 X108.776 Y109.564 E13.51774
G1 X110.257 Y109.438 E13.57953
G1 X110.442 Y109.437 E13.58723
G1 X111.921 Y109.531 E13.64884
G1 X112.105 Y109.556 E13.65656
G1 X113.558 Y109.869 E13.71835
G1 X113.76 Y109.931 E13.72714
G1 X115.216 Y110.514 E13.79234
G1 X115.247 Y100.09 E14.22573
G1 X115.288 Y99.777 E14.23885
G1 X115.438 Y99.429 E14.2546
G1 X115.789 Y98.87 E14.28205
G1 X115.99 Y98.626 E14.29519
G0 F6000 X116.375 Y98.953
G1 F1200 X116.523 Y98.859 E14.30248
G1 X116.924 Y98.666 E14.32098
G1 X117.238 Y98.592 E14.33439
G1 X118.572 Y98.573 E14.38986
G1 X118.831 Y98.615 E14.40077
G1 X119.253 Y98.763 E14.41936
G1 X119.535 Y98.941 E14.43323
G1 X119.848 Y99.254 E14.45163
G1 X120.026 Y99.536 E14.46549
G1 X120.174 Y99.958 E14.48409
G1 X120.216 Y100.207 E14.49458
G1 X120.197 Y115.907 E15.14732
G1 X120.157 Y116.148 E15.15747
G1 X120.082 Y116.305 E15.16471
G1 X119.731 Y116.864 E15.19215
G1 X119.569 Y117.047 E15.20231
G1 X119.421 Y117.141 E15.2096
G1 X119.021 Y117.333 E15.22805
G1 X118.836 Y117.394 E15.23614
G1 X118.405 Y117.476 E15.25438
G1 X118.245 Y117.636 E15.26379
G1 X118.216 Y119.805 E15.35398
G1 X118.174 Y120.044 E15.36406
G1 X118.026 Y120.465 E15.38262
G1 X117.848 Y120.746 E15.39645
G1 X117.535 Y121.059 E15.41485
G1 X117.253 Y121.237 E15.42872
G1 X116.831 Y121.385 E15.44731
G1 X116.582 Y121.427 E15.45781
G1 X101.304 Y121.408 E16.09299
G1 X101.063 Y121.368 E16.10315
G1 X100.906 Y121.293 E16.11038
G1 X100.347 Y120.942 E16.13782
G1 X100.164 Y120.78 E16.14799
G1 X100.07 Y120.632 E16.15527
G1 X99.877 Y120.23 E16.17381
G1 X99.808 Y119.995 E16.184
G1 X99.808 Y119.819 E16.19131
G1 X99.974 Y118.386 E16.25129
G1 X100.002 Y118.252 E16.25698
G1 X100.436 Y116.837 E16.31852
G1 X100.476 Y116.734 E16.32311
G1 X101.116 Y115.394 E16.38485
G1 X101.171 Y115.297 E16.38948
G1 X102.001 Y114.068 E16.45114
G1 X102.07 Y113.981 E16.45576
G1 X103.074 Y112.886 E16.51752
G1 X103.156 Y112.809 E16.5222
G1 X104.314 Y111.875 E16.58405
G1 X104.405 Y111.813 E16.58863
G1 X105.68 Y111.063 E16.65013
G1 X105.78 Y111.013 E16.65478
G1 X107.16 Y110.458 E16.71662
G1 X107.266 Y110.424 E16.72124
G1 X108.708 Y110.08 E16.78288
G1 X108.818 Y110.063 E16.78751
G1 X110.299 Y109.937 E16.8493
G1 X110.411 Y109.936 E16.85396
G1 X111.89 Y110.03 E16.91557
G1 X112 Y110.045 E16.92019
G1 X113.453 Y110.358 E16.98198
G1 X113.574 Y110.395 E16.98724
G1 X115.31 Y111.09 E17.06498
G1 X115.494 Y111.114 E17.0727
G1 X115.593 Y111.081 E17.07704
G1 X115.665 Y111.01 E17.08124
G1 X115.715 Y110.868 E17.0875
G1 X115.747 Y100.092 E17.53552
G1 X115.787 Y99.851 E17.54567
G1 X115.862 Y99.695 E17.55287
G1 X116.213 Y99.136 E17.58031
G1 X116.375 Y98.953 E17.59047
G0 F6000 X116.636 Y99.402
G1 F1200 X116.74 Y99.31 E17.59625
G1 X117.141 Y99.117 E17.61475
G1 X117.245 Y99.092 E17.6192
G1 X118.579 Y99.073 E17.67466
G1 X118.666 Y99.087 E17.67833
G1 X119.088 Y99.235 E17.69692
G1 X119.182 Y99.294 E17.70153
G1 X119.495 Y99.607 E17.71994
G1 X119.554 Y99.701 E17.72455
G1 X119.702 Y100.123 E17.74314
G1 X119.716 Y100.206 E17.74664
G1 X119.697 Y115.906 E18.39937
G1 X119.659 Y116.039 E18.40512
G1 X119.308 Y116.598 E18.43257
G1 X119.204 Y116.69 E18.43834
G1 X118.804 Y116.882 E18.45678
G1 X118.743 Y116.903 E18.45947
G1 X118.159 Y117.014 E18.48418
G1 X117.789 Y117.385 E18.50597
G1 X117.746 Y117.506 E18.5113
G1 X117.716 Y119.798 E18.6066
G1 X117.702 Y119.878 E18.60998
G1 X117.554 Y120.299 E18.62853
G1 X117.495 Y120.393 E18.63315
G1 X117.182 Y120.706 E18.65155
G1 X117.088 Y120.765 E18.65616
G1 X116.666 Y120.913 E18.67476
G1 X116.583 Y120.927 E18.67826
G1 X101.305 Y120.908 E19.31344
G1 X101.172 Y120.87 E19.31919
G1 X100.613 Y120.519 E19.34663
G1 X100.521 Y120.415 E19.35241
G1 X100.328 Y120.013 E19.37095
G1 X100.305 Y119.876 E19.37672
G1 X100.471 Y118.443 E19.4367
G1 X100.48 Y118.399 E19.43857
G1 X100.914 Y116.984 E19.5001
G1 X100.927 Y116.949 E19.50165
G1 X101.567 Y115.609 E19.56339
G1 X101.586 Y115.577 E19.56494
G1 X102.416 Y114.348 E19.62659
G1 X102.439 Y114.319 E19.62813
G1 X103.443 Y113.224 E19.6899
G1 X103.47 Y113.198 E19.69146
G1 X104.628 Y112.264 E19.75331
G1 X104.658 Y112.244 E19.75481
G1 X105.933 Y111.494 E19.81631
G1 X105.967 Y111.477 E19.81789
G1 X107.347 Y110.922 E19.87973
G1 X107.382 Y110.911 E19.88125
G1 X108.824 Y110.567 E19.94289
G1 X108.861 Y110.561 E19.94444
G1 X110.342 Y110.435 E20.00624
G1 X110.379 Y110.435 E20.00778
G1 X111.858 Y110.529 E20.06939
G1 X111.895 Y110.534 E20.07094
G1 X113.348 Y110.847 E20.13274
G1 X113.388 Y110.859 E20.13447
G1 X115.184 Y111.578 E20.2149
G1 X115.544 Y111.625 E20.23
G1 X115.862 Y111.519 E20.24393
G1 X116.097 Y111.287 E20.25766
G1 X116.215 Y110.953 E20.27239
G1 X116.247 Y100.093 E20.7239
G1 X116.285 Y99.961 E20.72961
G1 X116.636 Y99.402 E20.75705
G1 F2700 E15.75705
G1 F300 Z0.4
;MESH:FGC-9_Bolt_Welding_Jig.stl
G0 F6000 X116.554 Y120.427 Z0.4
;TYPE:WALL-OUTER
G1 F300 Z0.2
G1 F2700 E20.75705
G1 F1200 X101.362 Y120.408 E21.38866
G1 X101.05 Y120.258 E21.40306
G1 X100.944 Y120.152 E21.40929
G1 X100.853 Y120.007 E21.41641
G1 X100.798 Y119.849 E21.42336
G1 X100.78 Y119.691 E21.42997
G1 X100.964 Y118.528 E21.47893
G1 X101.152 Y117.82 E21.50938
G1 X101.39 Y117.137 E21.53945
G1 X101.674 Y116.482 E21.56913
G1 X102.009 Y115.842 E21.59917
G1 X102.388 Y115.233 E21.62899
G1 X102.826 Y114.634 E21.65984
G1 X103.284 Y114.096 E21.68921
G1 X103.8 Y113.574 E21.71973
G1 X104.348 Y113.098 E21.74991
G1 X104.918 Y112.671 E21.77952
G1 X105.54 Y112.273 E21.81022
G1 X106.176 Y111.931 E21.84024
G1 X106.833 Y111.639 E21.87013
G1 X107.512 Y111.393 E21.90016
G1 X108.217 Y111.197 E21.93058
G1 X108.923 Y111.057 E21.9605
G1 X109.635 Y110.97 E21.99032
G1 X110.368 Y110.934 E22.02083
G1 X111.086 Y110.953 E22.0507
G1 X111.816 Y111.027 E22.0812
G1 X112.521 Y111.151 E22.11096
G1 X113.223 Y111.33 E22.14108
G1 X113.904 Y111.558 E22.17094
G1 X115.04 Y112.06 E22.22257
G1 X115.308 Y112.125 E22.23404
G1 X115.59 Y112.132 E22.24577
G1 X115.869 Y112.073 E22.25762
G1 X116.139 Y111.946 E22.27003
G1 X116.521 Y111.571 E22.29228
