;FLAVOR:Marlin
;TIME:7117
;Filament used: 5.35228m
;Layer height: 0.16
;Generated with Cura_SteamEngine 4.0.0
M140 S60
M105
M190 S60
M104 S215
M105
M109 S215
M82 ;absolute extrusion mode
M201 X500.00 Y500.00 Z100.00 E5000.00 ;Setup machine max acceleration
M203 X500.00 Y500.00 Z10.00 E50.00 ;Setup machine max feedrate
M204 P500.00 R1000.00 T500.00 ;Setup Print/Retract/Travel acceleration
M205 X8.00 Y8.00 Z0.40 E5.00 ;Setup Jerk
M220 S100 ;Reset Feedrate
M221 S100 ;Reset Flowrate

G28 ;Home

G92 E0 ;Reset Extruder
G1 Z2.0 F3000 ;Move Z Axis up
G1 X10.1 Y20 Z0.28 F5000.0 ;Move to start position
G1 X10.1 Y200.0 Z0.28 F1500.0 E15 ;Draw the first line
G1 X10.4 Y200.0 Z0.28 F5000.0 ;Move to side a little
G1 X10.4 Y20 Z0.28 F1500.0 E30 ;Draw the second line
G92 E0 ;Reset Extruder
G1 Z2.0 F3000 ;Move Z Axis up

G92 E0
G1 F2700 E-5
;LAYER_COUNT:50
;LAYER:0
M107
G0 F6000 X99.124 Y92.32 Z0.2
;TYPE:SKIRT
G1 F2700 E0
G1 F1200 X110.994 Y80.452 E0.69785
G1 X113.048 Y79.393 E0.79393
G1 X99.747 Y92.693 E1.57595
G1 X99.259 Y92.385 E1.59994
G1 X99.124 Y92.32 E1.60617
G0 F6000 X99.041 Y92.835
G1 F1200 X98.273 Y92.464 E1.64163
G1 X110.695 Y80.044 E2.37194
G1 X115.668 Y77.48 E2.60455
G1 X99.787 Y93.36 E3.53826
G1 X99.475 Y93.109 E3.55491
G1 X99.041 Y92.835 E3.57625
G0 F6000 X98.824 Y93.285
G1 F1200 X97.422 Y92.608 E3.64098
G1 X110.398 Y79.634 E4.40386
G1 X118.292 Y75.564 E4.77311
G1 X99.823 Y94.032 E5.85898
G1 X99.161 Y93.499 E5.89432
G1 X98.824 Y93.285 E5.91092
G0 F6000 X98.607 Y93.735
G1 F1200 X96.94 Y92.93 E5.98788
G1 X96.673 Y92.837 E5.99963
G1 X96.521 Y92.802 E6.00612
G1 X110.099 Y79.226 E6.80439
G1 X120.91 Y73.653 E7.31007
G1 X99.858 Y94.703 E8.54779
G1 X98.848 Y93.888 E8.60174
G1 X98.607 Y93.735 E8.61361
G0 F6000 X98.389 Y94.186
G1 F1200 X96.722 Y93.381 E8.69058
G1 X96.562 Y93.325 E8.69762
G1 X95.526 Y93.09 E8.74179
G1 X109.798 Y78.819 E9.5809
G1 X123.532 Y71.739 E10.2233
G1 X99.847 Y95.422 E11.61583
G1 X99.655 Y95.197 E11.62812
G1 X99.556 Y95.101 E11.63386
G1 X98.534 Y94.277 E11.68844
G1 X98.389 Y94.186 E11.69556
G0 F6000 X98.172 Y94.636
G1 F1200 X96.505 Y93.831 E11.77252
G1 X96.451 Y93.812 E11.7749
G1 X95.188 Y93.525 E11.82875
G1 X95.143 Y93.519 E11.83063
G1 X94.42 Y93.489 E11.86072
G1 X109.479 Y78.432 E12.74607
G1 X109.53 Y78.394 E12.74872
G1 X126.151 Y69.826 E13.52615
G1 X99.818 Y96.157 E15.07437
G1 X99.275 Y95.522 E15.1091
G1 X99.242 Y95.49 E15.11102
G1 X98.22 Y94.666 E15.1656
G1 X98.172 Y94.636 E15.16795
G0 F6000 X97.925 Y95.072
G1 F1200 X96.314 Y94.295 E15.24231
G1 X95.1 Y94.018 E15.29408
G1 X93.826 Y93.969 E15.34709
G1 X93.694 Y93.924 E15.35288
G1 X93.605 Y93.816 E15.3587
G1 X93.59 Y93.677 E15.36451
G1 X93.659 Y93.542 E15.37082
G1 X109.217 Y78.006 E16.28492
G1 X109.279 Y77.961 E16.28811
G1 X127.005 Y68.823 E17.11723
G1 X127.159 Y68.798 E17.12372
G1 X127.31 Y68.822 E17.13007
G1 X127.437 Y68.882 E17.13591
G1 X127.511 Y69 E17.1417
G1 X127.511 Y69.14 E17.14752
G1 X127.448 Y69.246 E17.15265
G1 X99.981 Y96.702 E18.76728
G1 X99.858 Y96.769 E18.77311
G1 X99.718 Y96.76 E18.77894
G1 X99.614 Y96.688 E18.7842
G1 X98.911 Y95.867 E18.82913
G1 X97.925 Y95.072 E18.88179
G0 F6000 X97.632 Y95.486
G1 F1200 X97.68 Y95.516 E18.88415
G1 X98.544 Y96.213 E18.9303
G1 X98.577 Y96.245 E18.93221
G1 X99.28 Y97.065 E18.97711
G1 X99.305 Y97.1 E18.9789
G1 X99.672 Y97.717 E19.00875
G1 X127.719 Y69.672 E20.65775
G1 X127.736 Y69.657 E20.65869
G1 X129.074 Y68.547 E20.73097
G1 X129.096 Y68.53 E20.73212
G1 X130.565 Y67.561 E20.80529
G1 X130.589 Y67.548 E20.80642
G1 X132.13 Y66.758 E20.87842
G1 X132.155 Y66.746 E20.87957
G1 X133.799 Y66.119 E20.95272
G1 X133.825 Y66.111 E20.95385
G1 X135.516 Y65.67 E21.02651
G1 X135.543 Y65.665 E21.02765
G1 X137.266 Y65.413 E21.10005
G1 X137.293 Y65.41 E21.10118
G1 X139.048 Y65.347 E21.17419
G1 X139.076 Y65.348 E21.17535
G1 X140.793 Y65.476 E21.24693
G1 X140.819 Y65.479 E21.24802
G1 X142.551 Y65.799 E21.32125
G1 X142.578 Y65.806 E21.32241
G1 X144.243 Y66.306 E21.39469
G1 X144.269 Y66.315 E21.39583
G1 X145.88 Y66.998 E21.46858
G1 X145.904 Y67.01 E21.46969
G1 X147.43 Y67.866 E21.54244
G1 X147.459 Y67.885 E21.54388
G1 X149.555 Y69.474 E21.65323
G1 X149.58 Y69.496 E21.65462
G1 X155.489 Y75.371 E22.00104
G1 X155.563 Y75.548 E22.00902
G1 X155.563 Y75.754 E22.01758
G1 X155.507 Y75.912 E22.02455
G1 X144.307 Y89.708 E22.76334
G1 X144.153 Y89.797 E22.77074
G1 X143.964 Y89.828 E22.7787
G1 X143.79 Y89.792 E22.78609
G1 X138.433 Y86.386 E23.05001
G1 X121.535 Y82.786 E23.76831
G1 X93.561 Y110.759 E25.41305
G1 X93.581 Y110.836 E25.41635
G1 X93.543 Y112.8 E25.49802
G1 X93.47 Y112.972 E25.50579
G1 X78.731 Y127.71 E26.37236
G1 X83.076 Y148.109 E27.23948
G1 X83.071 Y148.232 E27.24459
G1 X83.035 Y148.354 E27.24988
G1 X82.972 Y148.46 E27.25501
G1 X76.955 Y154.476 E27.60876
G1 X76.778 Y154.549 E27.61672
G1 X76.57 Y154.549 E27.62536
G1 X76.393 Y154.475 E27.63334
G1 X67.028 Y145.058 E28.1855
G1 X67.004 Y145.031 E28.187
G1 X66.113 Y143.825 E28.24934
G1 X66.095 Y143.796 E28.25076
G1 X65.378 Y142.483 E28.31295
G1 X65.364 Y142.452 E28.31437
G1 X64.836 Y141.074 E28.37572
G1 X64.826 Y141.042 E28.37711
G1 X64.484 Y139.586 E28.43929
G1 X64.478 Y139.553 E28.44069
G1 X64.336 Y138.058 E28.50312
G1 X64.335 Y138.024 E28.50454
G1 X64.393 Y136.548 E28.56595
G1 X64.395 Y136.523 E28.56699
G1 X64.502 Y135.77 E28.59861
G1 X64.509 Y135.737 E28.60002
G1 X65.114 Y133.601 E28.69231
G1 X65.126 Y133.569 E28.69374
G1 X65.428 Y132.878 E28.72509
G1 X65.444 Y132.848 E28.7265
G1 X66.604 Y130.944 E28.81919
G1 X66.624 Y130.915 E28.82066
G1 X67.152 Y130.273 E28.85522
G1 X67.168 Y130.255 E28.85622
G1 X91.206 Y106.184 E30.27053
G1 X91.017 Y106.083 E30.27944
G1 X90.979 Y106.058 E30.28133
G1 X89.706 Y105.039 E30.34912
G1 X89.666 Y104.999 E30.35148
G1 X88.987 Y104.143 E30.3969
G1 X88.962 Y104.105 E30.39879
G1 X88.454 Y103.15 E30.44376
G1 X88.437 Y103.109 E30.44561
G1 X88.11 Y102.077 E30.49062
G1 X88.099 Y102.021 E30.49299
G1 X87.967 Y100.389 E30.56106
G1 X87.969 Y100.332 E30.56343
G1 X88.129 Y99.257 E30.60862
G1 X88.14 Y99.213 E30.61051
G1 X88.497 Y98.172 E30.65626
G1 X88.515 Y98.131 E30.65812
G1 X89.046 Y97.186 E30.70319
G1 X89.079 Y97.14 E30.70554
G1 X90.175 Y95.936 E30.77323
G1 X90.228 Y95.892 E30.77609
G1 X91.617 Y95.025 E30.84417
G1 X91.667 Y95.001 E30.84648
G1 X92.699 Y94.645 E30.89186
G1 X92.745 Y94.634 E30.89383
G1 X93.871 Y94.472 E30.94112
G1 X93.917 Y94.469 E30.94304
G1 X95.009 Y94.514 E30.98848
G1 X95.055 Y94.52 E30.99041
G1 X96.12 Y94.763 E31.03582
G1 X96.173 Y94.782 E31.03816
G1 X97.632 Y95.486 E31.10551
G1 F2700 E26.10551
G1 F300 Z0.4
G0 F6000 X93.306 Y93.188 Z0.4
G1 F300 Z0.2
G1 F2700 E31.10551
G1 F1200 X108.864 Y77.652 E32.01962
G1 X109.05 Y77.516 E32.0292
G1 X126.776 Y68.378 E32.85832
G1 X127.009 Y68.303 E32.8685
G1 X127.238 Y68.304 E32.87802
G1 X127.389 Y68.328 E32.88438
G1 X127.62 Y68.405 E32.8945
G1 X127.815 Y68.553 E32.90468
G1 X127.952 Y68.755 E32.91482
G1 X127.968 Y68.815 E32.91741
G1 X128.755 Y68.162 E32.95992
G1 X128.821 Y68.113 E32.96334
G1 X130.29 Y67.144 E33.0365
G1 X130.361 Y67.103 E33.03991
G1 X131.902 Y66.313 E33.11191
G1 X131.977 Y66.279 E33.11533
G1 X133.621 Y65.652 E33.18848
G1 X133.699 Y65.627 E33.19189
G1 X135.39 Y65.186 E33.26454
G1 X135.47 Y65.17 E33.26794
G1 X137.193 Y64.918 E33.34033
G1 X137.275 Y64.91 E33.34376
G1 X139.03 Y64.847 E33.41677
G1 X139.113 Y64.849 E33.42022
G1 X140.83 Y64.977 E33.4918
G1 X140.91 Y64.987 E33.49516
G1 X142.642 Y65.307 E33.56838
G1 X142.722 Y65.327 E33.57181
G1 X144.387 Y65.827 E33.64409
G1 X144.464 Y65.854 E33.64748
G1 X146.075 Y66.537 E33.72023
G1 X146.149 Y66.574 E33.72367
G1 X147.675 Y67.43 E33.79641
G1 X147.761 Y67.486 E33.80068
G1 X149.857 Y69.075 E33.91003
G1 X149.933 Y69.141 E33.91422
G1 X155.842 Y75.016 E34.26064
G1 X155.985 Y75.214 E34.2708
G1 X156.063 Y75.548 E34.28506
G1 X156.063 Y75.754 E34.29362
G1 X156.023 Y75.995 E34.30378
G1 X155.895 Y76.227 E34.3148
G1 X144.695 Y90.023 E35.05358
G1 X144.513 Y90.185 E35.06371
G1 X144.234 Y90.29 E35.07611
G1 X144.045 Y90.321 E35.08407
G1 X143.801 Y90.321 E35.09421
G1 X143.522 Y90.214 E35.10664
G1 X138.241 Y86.856 E35.36682
G1 X121.695 Y83.332 E36.07015
G1 X94.079 Y110.947 E37.69384
G1 X94.043 Y112.81 E37.77131
G1 X93.998 Y113.05 E37.78146
G1 X93.823 Y113.325 E37.79501
G1 X79.277 Y127.87 E38.65023
G1 X83.565 Y148.005 E39.50612
G1 X83.576 Y148.249 E39.51628
G1 X83.55 Y148.373 E39.52154
G1 X83.514 Y148.495 E39.52683
G1 X83.408 Y148.715 E39.53698
G1 X83.325 Y148.813 E39.54232
G1 X77.308 Y154.829 E39.89607
G1 X77.11 Y154.972 E39.90622
G1 X76.778 Y155.049 E39.92039
G1 X76.57 Y155.049 E39.92904
G1 X76.329 Y155.009 E39.9392
G1 X76.038 Y154.828 E39.95345
G1 X66.673 Y145.411 E40.5056
G1 X66.602 Y145.328 E40.51014
G1 X65.711 Y144.122 E40.57248
G1 X65.656 Y144.035 E40.57676
G1 X64.939 Y142.722 E40.63896
G1 X64.897 Y142.631 E40.64313
G1 X64.369 Y141.253 E40.70448
G1 X64.339 Y141.156 E40.7087
G1 X63.997 Y139.7 E40.77088
G1 X63.98 Y139.6 E40.7751
G1 X63.838 Y138.105 E40.83753
G1 X63.836 Y138.005 E40.84169
G1 X63.894 Y136.529 E40.9031
G1 X63.9 Y136.452 E40.90631
G1 X64.007 Y135.699 E40.93793
G1 X64.028 Y135.601 E40.9421
G1 X64.633 Y133.465 E41.0344
G1 X64.668 Y133.369 E41.03865
G1 X64.97 Y132.678 E41.07
G1 X65.017 Y132.588 E41.07422
G1 X66.177 Y130.684 E41.16691
G1 X66.238 Y130.598 E41.1713
G1 X66.766 Y129.956 E41.20586
G1 X66.814 Y129.902 E41.20886
G1 X67.493 Y129.222 E41.24881
G1 X67.436 Y129.201 E41.25134
G1 X67.247 Y129.047 E41.26147
G1 X67.118 Y128.84 E41.27161
G1 X67.062 Y128.602 E41.28178
G1 X67.085 Y128.359 E41.29193
G1 X67.129 Y128.237 E41.29732
G1 X74.672 Y111.889 E42.04585
G1 X74.823 Y111.673 E42.05681
G1 X86.681 Y99.819 E42.75389
G1 X86.879 Y99.676 E42.76405
G1 X87.113 Y99.605 E42.77422
G1 X87.357 Y99.613 E42.78437
G1 X87.559 Y99.689 E42.79334
G1 X87.634 Y99.184 E42.81456
G1 X87.667 Y99.051 E42.82026
G1 X88.024 Y98.01 E42.86602
G1 X88.079 Y97.886 E42.87165
G1 X88.61 Y96.941 E42.91672
G1 X88.709 Y96.803 E42.92378
G1 X89.805 Y95.599 E42.99147
G1 X89.963 Y95.468 E43.00001
G1 X91.352 Y94.601 E43.06808
G1 X91.504 Y94.528 E43.07509
G1 X92.536 Y94.172 E43.12048
G1 X92.674 Y94.139 E43.12638
G1 X93.178 Y94.066 E43.14755
G1 X93.105 Y93.886 E43.15562
G1 X93.09 Y93.642 E43.16579
G1 X93.154 Y93.407 E43.17591
G1 X93.306 Y93.188 E43.187
G0 F6000 X92.953 Y92.834
G1 F1200 X108.511 Y77.298 E44.1011
G1 X108.821 Y77.072 E44.11705
G1 X126.547 Y67.934 E44.94617
G1 X126.844 Y67.826 E44.95931
G1 X127.158 Y67.796 E44.97243
G1 X127.316 Y67.81 E44.97902
G1 X127.467 Y67.834 E44.98538
G1 X127.77 Y67.923 E44.99851
G1 X128.041 Y68.085 E45.01163
G1 X128.052 Y68.096 E45.01228
G1 X128.436 Y67.777 E45.03304
G1 X128.546 Y67.696 E45.03872
G1 X130.015 Y66.727 E45.11188
G1 X130.133 Y66.658 E45.11756
G1 X131.674 Y65.868 E45.18956
G1 X131.799 Y65.812 E45.19525
G1 X133.443 Y65.185 E45.26841
G1 X133.573 Y65.143 E45.27408
G1 X135.264 Y64.702 E45.34674
G1 X135.398 Y64.675 E45.35242
G1 X137.121 Y64.423 E45.42482
G1 X137.257 Y64.411 E45.4305
G1 X139.012 Y64.348 E45.50351
G1 X139.15 Y64.35 E45.50924
G1 X140.867 Y64.478 E45.58083
G1 X141.001 Y64.496 E45.58645
G1 X142.733 Y64.816 E45.65968
G1 X142.866 Y64.848 E45.66536
G1 X144.531 Y65.348 E45.73764
G1 X144.659 Y65.394 E45.74329
G1 X146.27 Y66.077 E45.81604
G1 X146.394 Y66.138 E45.82179
G1 X147.92 Y66.994 E45.89453
G1 X148.063 Y67.088 E45.90165
G1 X150.159 Y68.677 E46.011
G1 X150.285 Y68.787 E46.01795
G1 X156.194 Y74.662 E46.36438
G1 X156.388 Y74.911 E46.3775
G1 X156.514 Y75.2 E46.39061
G1 X156.563 Y75.548 E46.40522
G1 X156.563 Y75.754 E46.41379
G1 X156.523 Y76.067 E46.42691
G1 X156.406 Y76.36 E46.44002
G1 X156.283 Y76.542 E46.44916
G1 X145.083 Y90.338 E47.18794
G1 X144.855 Y90.556 E47.20106
G1 X144.58 Y90.71 E47.21416
G1 X144.315 Y90.784 E47.2256
G1 X144.126 Y90.815 E47.23356
G1 X143.811 Y90.826 E47.24667
G1 X143.503 Y90.758 E47.25978
G1 X143.253 Y90.636 E47.27135
G1 X138.047 Y87.326 E47.52783
G1 X121.858 Y83.877 E48.216
G1 X94.575 Y111.159 E49.8201
G1 X94.543 Y112.819 E49.88913
G1 X94.497 Y113.131 E49.90224
G1 X94.374 Y113.422 E49.91538
G1 X94.177 Y113.679 E49.92884
G1 X79.822 Y128.033 E50.77283
G1 X84.054 Y147.901 E51.61737
G1 X84.08 Y148.215 E51.63047
G1 X84.03 Y148.515 E51.64312
G1 X83.994 Y148.637 E51.64841
G1 X83.867 Y148.926 E51.66153
G1 X83.679 Y149.167 E51.67424
G1 X77.662 Y155.183 E52.02799
G1 X77.412 Y155.376 E52.04112
G1 X77.122 Y155.501 E52.05425
G1 X76.778 Y155.549 E52.06869
G1 X76.57 Y155.549 E52.07733
G1 X76.257 Y155.509 E52.09045
G1 X75.964 Y155.392 E52.10357
G1 X75.684 Y155.18 E52.11817
G1 X66.319 Y145.763 E52.67033
G1 X66.2 Y145.625 E52.6779
G1 X65.309 Y144.419 E52.74024
G1 X65.217 Y144.275 E52.74735
G1 X64.5 Y142.962 E52.80954
G1 X64.43 Y142.81 E52.8165
G1 X63.902 Y141.432 E52.87785
G1 X63.852 Y141.271 E52.88486
G1 X63.51 Y139.815 E52.94704
G1 X63.483 Y139.647 E52.95412
G1 X63.341 Y138.152 E53.01655
G1 X63.336 Y137.985 E53.0235
G1 X63.394 Y136.509 E53.08491
G1 X63.405 Y136.382 E53.09021
G1 X63.512 Y135.629 E53.12183
G1 X63.547 Y135.464 E53.12884
G1 X64.152 Y133.328 E53.22114
G1 X64.21 Y133.168 E53.22822
G1 X64.512 Y132.477 E53.25957
G1 X64.59 Y132.328 E53.26656
G1 X65.75 Y130.424 E53.35926
G1 X65.852 Y130.28 E53.36659
G1 X66.38 Y129.638 E53.40115
G1 X66.461 Y129.549 E53.40615
G1 X66.768 Y129.241 E53.42423
G1 X66.628 Y128.958 E53.43736
G1 X66.564 Y128.649 E53.45048
G1 X66.579 Y128.334 E53.46359
G1 X66.675 Y128.027 E53.47696
G1 X74.218 Y111.679 E54.22549
G1 X74.469 Y111.319 E54.24374
G1 X86.327 Y99.465 E54.94083
G1 X86.577 Y99.272 E54.95396
G1 X86.867 Y99.147 E54.96709
G1 X87.141 Y99.105 E54.97861
G1 X87.194 Y98.889 E54.98786
G1 X87.551 Y97.848 E55.03361
G1 X87.643 Y97.641 E55.04303
G1 X88.174 Y96.696 E55.0881
G1 X88.34 Y96.467 E55.09986
G1 X89.436 Y95.263 E55.16755
G1 X89.698 Y95.044 E55.18174
G1 X91.087 Y94.177 E55.24982
G1 X91.341 Y94.055 E55.26153
G1 X92.373 Y93.699 E55.30692
G1 X92.596 Y93.646 E55.31645
G1 X92.622 Y93.422 E55.32582
G1 X92.735 Y93.127 E55.33896
G1 X92.953 Y92.834 E55.35414
G0 F6000 X92.599 Y92.481
G1 F1200 X108.157 Y76.945 E56.26824
G1 X108.592 Y76.628 E56.29062
G1 X126.318 Y67.49 E57.11975
G1 X126.667 Y67.355 E57.1353
G1 X127.036 Y67.297 E57.15083
G1 X127.395 Y67.317 E57.16578
G1 X127.546 Y67.341 E57.17214
G1 X127.906 Y67.438 E57.18764
G1 X128.002 Y67.488 E57.19214
G1 X128.117 Y67.392 E57.19837
G1 X128.27 Y67.278 E57.2063
G1 X129.739 Y66.309 E57.27947
G1 X129.905 Y66.213 E57.28744
G1 X131.446 Y65.423 E57.35943
G1 X131.62 Y65.345 E57.36736
G1 X133.264 Y64.718 E57.44051
G1 X133.446 Y64.66 E57.44845
G1 X135.137 Y64.219 E57.52111
G1 X135.326 Y64.18 E57.52913
G1 X137.049 Y63.928 E57.60153
G1 X137.239 Y63.911 E57.60946
G1 X138.994 Y63.848 E57.68247
G1 X139.187 Y63.852 E57.6905
G1 X140.904 Y63.98 E57.76208
G1 X141.092 Y64.004 E57.76996
G1 X142.824 Y64.324 E57.84319
G1 X143.009 Y64.369 E57.8511
G1 X144.674 Y64.869 E57.92338
G1 X144.854 Y64.934 E57.93133
G1 X146.465 Y65.617 E58.00408
G1 X146.638 Y65.702 E58.0121
G1 X148.164 Y66.558 E58.08484
G1 X148.365 Y66.689 E58.09482
G1 X150.461 Y68.278 E58.20417
G1 X150.638 Y68.432 E58.21392
G1 X156.547 Y74.307 E58.56035
G1 X156.782 Y74.597 E58.57587
G1 X156.951 Y74.931 E58.59143
G1 X157.044 Y75.292 E58.60693
G1 X157.063 Y75.548 E58.6176
G1 X157.063 Y75.754 E58.62617
G1 X157.023 Y76.125 E58.64168
G1 X156.905 Y76.48 E58.65723
G1 X156.672 Y76.857 E58.67566
G1 X145.472 Y90.653 E59.41445
G1 X145.207 Y90.916 E59.42997
G1 X144.892 Y91.117 E59.4455
G1 X144.396 Y91.277 E59.46717
G1 X144.207 Y91.308 E59.47513
G1 X143.834 Y91.329 E59.49067
G1 X143.465 Y91.27 E59.5062
G1 X142.985 Y91.058 E59.52802
G1 X137.856 Y87.797 E59.78071
G1 X122.018 Y84.423 E60.45395
G1 X95.071 Y111.369 E62.0383
G1 X95.043 Y112.829 E62.09901
G1 X94.996 Y113.2 E62.11456
G1 X94.871 Y113.552 E62.13009
G1 X94.674 Y113.869 E62.14561
G1 X94.53 Y114.032 E62.15465
G1 X80.368 Y128.193 E62.98729
G1 X84.543 Y147.796 E63.82057
G1 X84.581 Y148.168 E63.83612
G1 X84.509 Y148.656 E63.85662
G1 X84.473 Y148.778 E63.86191
G1 X84.33 Y149.123 E63.87744
G1 X84.032 Y149.521 E63.89811
G1 X78.015 Y155.537 E64.25186
G1 X77.724 Y155.771 E64.26738
G1 X77.39 Y155.938 E64.28291
G1 X77.028 Y156.031 E64.29845
G1 X76.778 Y156.049 E64.30887
