;FLAVOR:Marlin
;TIME:1322
;Filament used: 0.775964m
;Layer height: 0.16
;Generated with Cura_SteamEngine 4.0.0
M140 S60
M105
M190 S60
M104 S215
M105
M109 S215
M82 ;absolute extrusion mode
M201 X500.00 Y500.00 Z100.00 E5000.00 ;Setup machine max acceleration
M203 X500.00 Y500.00 Z10.00 E50.00 ;Setup machine max feedrate
M204 P500.00 R1000.00 T500.00 ;Setup Print/Retract/Travel acceleration
M205 X8.00 Y8.00 Z0.40 E5.00 ;Setup Jerk
M220 S100 ;Reset Feedrate
M221 S100 ;Reset Flowrate

G28 ;Home

G92 E0 ;Reset Extruder
G1 Z2.0 F3000 ;Move Z Axis up
G1 X10.1 Y20 Z0.28 F5000.0 ;Move to start position
G1 X10.1 Y200.0 Z0.28 F1500.0 E15 ;Draw the first line
G1 X10.4 Y200.0 Z0.28 F5000.0 ;Move to side a little
G1 X10.4 Y20 Z0.28 F1500.0 E30 ;Draw the second line
G92 E0 ;Reset Extruder
G1 Z2.0 F3000 ;Move Z Axis up

G92 E0
G1 F2700 E-5
;LAYER_COUNT:53
;LAYER:0
M107
G0 F6000 X101.479 Y100.87 Z0.2
;TYPE:SKIRT
G1 F2700 E0
G1 F1200 X101.819 Y100.548 E0.01947
G1 X102.123 Y100.338 E0.03483
G1 X106.892 Y97.489 E0.26579
G1 X109.349 Y95.83 E0.38904
G1 X109.758 Y95.602 E0.40851
G1 X110.2 Y95.446 E0.428
G1 X110.662 Y95.368 E0.44748
G1 X111.131 Y95.37 E0.46698
G1 X111.558 Y95.442 E0.48498
G1 X111.749 Y95.49 E0.49317
G1 X112.192 Y95.642 E0.51264
G1 X112.603 Y95.868 E0.53214
G1 X112.97 Y96.16 E0.55164
G1 X113.267 Y96.492 E0.57016
G1 X113.388 Y96.651 E0.57847
G1 X113.639 Y97.046 E0.59792
G1 X113.82 Y97.479 E0.61743
G1 X113.924 Y97.936 E0.63692
G1 X113.95 Y98.306 E0.65234
G1 X113.965 Y102.281 E0.8176
G1 X113.927 Y102.748 E0.83708
G1 X113.81 Y103.201 E0.85653
G1 X113.618 Y103.629 E0.87604
G1 X113.356 Y104.017 E0.8955
G1 X113.031 Y104.356 E0.91503
G1 X112.654 Y104.634 E0.9345
G1 X112.236 Y104.845 E0.95397
G1 X111.787 Y104.981 E0.97347
G1 X111.215 Y105.041 E0.99738
G1 X110.214 Y105.041 E1.039
G1 X110.214 Y109.141 E1.20946
G1 X116.895 Y109.141 E1.48722
G1 X117.362 Y109.181 E1.50671
G1 X117.815 Y109.3 E1.52618
G1 X118.242 Y109.493 E1.54566
G1 X118.629 Y109.757 E1.56514
G1 X118.967 Y110.082 E1.58464
G1 X119.244 Y110.46 E1.60412
G1 X119.452 Y110.88 E1.6236
G1 X119.587 Y111.329 E1.6431
G1 X119.645 Y111.891 E1.66659
G1 X119.645 Y121.891 E2.08234
G1 X119.605 Y122.358 E2.10182
G1 X119.486 Y122.811 E2.1213
G1 X119.293 Y123.238 E2.14078
G1 X119.029 Y123.625 E2.16026
G1 X118.704 Y123.963 E2.17975
G1 X118.326 Y124.24 E2.19923
G1 X117.906 Y124.448 E2.21872
G1 X117.457 Y124.583 E2.23821
G1 X116.895 Y124.641 E2.2617
G1 X103.395 Y124.641 E2.82297
G1 X102.928 Y124.601 E2.84245
G1 X102.475 Y124.482 E2.86193
G1 X102.048 Y124.289 E2.88141
G1 X101.661 Y124.025 E2.90088
G1 X101.323 Y123.7 E2.92038
G1 X101.046 Y123.322 E2.93986
G1 X100.838 Y122.902 E2.95935
G1 X100.703 Y122.453 E2.97884
G1 X100.645 Y121.891 E3.00233
G1 X100.645 Y110.098 E3.49263
G1 X100.719 Y109.465 E3.51912
G1 X101.357 Y106.767 E3.63439
G1 X101.273 Y106.704 E3.63875
G1 X100.951 Y106.363 E3.65825
G1 X100.692 Y105.973 E3.67771
G1 X100.503 Y105.544 E3.6972
G1 X100.39 Y105.089 E3.7167
G1 X100.355 Y104.622 E3.73617
G1 X100.419 Y104.065 E3.75947
G1 X100.847 Y102.111 E3.84264
G1 X100.986 Y101.663 E3.86214
G1 X101.198 Y101.246 E3.88159
G1 X101.479 Y100.87 E3.9011
G0 F6000 X101.936 Y101.114
G1 F1200 X102.379 Y100.767 E3.9245
G1 X107.164 Y97.909 E4.15622
G1 X109.629 Y96.244 E4.27989
G1 X110.001 Y96.041 E4.29751
G1 X110.404 Y95.912 E4.3151
G1 X110.825 Y95.86 E4.33274
G1 X111.436 Y95.927 E4.35829
G1 X111.627 Y95.975 E4.36648
G1 X112.027 Y96.116 E4.38411
G1 X112.393 Y96.33 E4.40174
G1 X112.712 Y96.609 E4.41936
G1 X112.869 Y96.794 E4.42945
G1 X112.99 Y96.953 E4.43776
G1 X113.214 Y97.313 E4.45538
G1 X113.367 Y97.709 E4.47303
G1 X113.45 Y98.308 E4.49817
G1 X113.465 Y102.283 E4.66344
G1 X113.427 Y102.705 E4.68105
G1 X113.31 Y103.112 E4.69866
G1 X113.119 Y103.49 E4.71627
G1 X112.86 Y103.826 E4.7339
G1 X112.543 Y104.107 E4.75152
G1 X112.179 Y104.324 E4.76913
G1 X111.781 Y104.469 E4.78675
G1 X111.215 Y104.541 E4.81047
G1 X109.714 Y104.541 E4.87287
G1 X109.714 Y109.641 E5.0849
G1 X116.895 Y109.641 E5.38346
G1 X117.317 Y109.681 E5.40108
G1 X117.724 Y109.799 E5.4187
G1 X118.101 Y109.992 E5.43631
G1 X118.436 Y110.252 E5.45394
G1 X118.716 Y110.57 E5.47155
G1 X118.932 Y110.935 E5.48918
G1 X119.075 Y111.334 E5.50681
G1 X119.145 Y111.891 E5.53015
G1 X119.145 Y121.891 E5.9459
G1 X119.105 Y122.313 E5.96352
G1 X118.987 Y122.72 E5.98114
G1 X118.794 Y123.097 E5.99875
G1 X118.534 Y123.432 E6.01638
G1 X118.216 Y123.712 E6.03399
G1 X117.851 Y123.928 E6.05163
G1 X117.452 Y124.071 E6.06925
G1 X116.895 Y124.141 E6.09259
G1 X103.395 Y124.141 E6.65385
G1 X102.973 Y124.101 E6.67147
G1 X102.566 Y123.983 E6.68909
G1 X102.189 Y123.79 E6.7067
G1 X101.854 Y123.53 E6.72433
G1 X101.574 Y123.212 E6.74195
G1 X101.358 Y122.847 E6.75958
G1 X101.215 Y122.448 E6.7772
G1 X101.145 Y121.891 E6.80054
G1 X101.145 Y110.098 E7.29084
G1 X101.205 Y109.58 E7.31252
G1 X101.92 Y106.558 E7.44163
G1 X101.845 Y106.517 E7.44518
G1 X101.518 Y106.248 E7.46278
G1 X101.247 Y105.922 E7.48041
G1 X101.042 Y105.551 E7.49803
G1 X100.91 Y105.148 E7.51566
G1 X100.856 Y104.728 E7.53327
G1 X100.907 Y104.172 E7.55648
G1 X101.335 Y102.218 E7.63964
G1 X101.464 Y101.814 E7.65728
G1 X101.667 Y101.442 E7.67489
G1 X101.936 Y101.114 E7.69253
G0 F6000 X102.133 Y101.649
G1 F1200 X102.388 Y101.376 E7.70806
G1 X102.636 Y101.197 E7.72078
G1 X107.428 Y98.335 E7.95283
G1 X109.909 Y96.659 E8.07731
G1 X110.239 Y96.484 E8.09284
G1 X110.598 Y96.383 E8.10835
G1 X110.971 Y96.361 E8.12388
G1 X111.315 Y96.412 E8.13834
G1 X111.506 Y96.46 E8.14653
G1 X111.856 Y96.589 E8.16204
G1 X112.171 Y96.79 E8.17757
G1 X112.472 Y97.097 E8.19545
G1 X112.593 Y97.256 E8.20375
G1 X112.786 Y97.576 E8.21929
G1 X112.907 Y97.93 E8.23484
G1 X112.95 Y98.309 E8.2507
G1 X112.965 Y102.284 E8.41596
G1 X112.927 Y102.656 E8.43151
G1 X112.81 Y103.011 E8.44705
G1 X112.621 Y103.333 E8.46257
G1 X112.368 Y103.608 E8.47811
G1 X112.062 Y103.823 E8.49366
G1 X111.717 Y103.967 E8.5092
G1 X111.215 Y104.041 E8.5303
G1 X109.214 Y104.041 E8.61349
G1 X109.214 Y110.141 E8.8671
G1 X116.895 Y110.141 E9.18643
G1 X117.266 Y110.181 E9.20195
G1 X117.621 Y110.299 E9.2175
G1 X117.943 Y110.489 E9.23305
G1 X118.216 Y110.743 E9.24855
G1 X118.43 Y111.05 E9.26411
G1 X118.573 Y111.395 E9.27963
G1 X118.645 Y111.891 E9.30047
G1 X118.645 Y121.891 E9.71622
G1 X118.605 Y122.262 E9.73174
G1 X118.487 Y122.617 E9.74729
G1 X118.297 Y122.939 E9.76283
G1 X118.043 Y123.212 E9.77834
G1 X117.736 Y123.426 E9.79389
G1 X117.391 Y123.569 E9.80942
G1 X116.895 Y123.641 E9.83026
G1 X103.395 Y123.641 E10.39152
G1 X103.024 Y123.601 E10.40704
G1 X102.669 Y123.483 E10.42259
G1 X102.347 Y123.293 E10.43813
G1 X102.074 Y123.039 E10.45364
G1 X101.86 Y122.732 E10.4692
G1 X101.717 Y122.387 E10.48472
G1 X101.645 Y121.891 E10.50556
G1 X101.645 Y110.098 E10.99586
G1 X101.692 Y109.695 E11.01272
G1 X102.499 Y106.285 E11.15841
G1 X102.374 Y106.243 E11.16389
G1 X102.053 Y106.051 E11.17945
G1 X101.78 Y105.796 E11.19498
G1 X101.568 Y105.489 E11.21049
G1 X101.425 Y105.143 E11.22605
G1 X101.359 Y104.776 E11.24156
G1 X101.396 Y104.279 E11.26228
G1 X101.824 Y102.325 E11.34544
G1 X101.942 Y101.97 E11.36099
G1 X102.133 Y101.649 E11.37652
G0 F6000 X102.595 Y101.873
G1 F1200 X102.892 Y101.626 E11.39258
G1 X107.691 Y98.76 E11.62497
G1 X110.188 Y97.073 E11.75026
G1 X110.47 Y96.931 E11.76339
G1 X110.778 Y96.864 E11.77649
G1 X111.193 Y96.897 E11.7938
G1 X111.384 Y96.945 E11.80199
G1 X111.678 Y97.06 E11.81511
G1 X111.933 Y97.245 E11.82821
G1 X112.074 Y97.4 E11.83692
G1 X112.195 Y97.559 E11.84523
G1 X112.353 Y97.832 E11.85834
G1 X112.437 Y98.136 E11.87145
G1 X112.45 Y98.311 E11.87875
G1 X112.465 Y102.286 E12.04401
G1 X112.426 Y102.6 E12.05717
G1 X112.31 Y102.893 E12.07027
G1 X112.125 Y103.148 E12.08337
G1 X111.881 Y103.349 E12.09651
G1 X111.595 Y103.482 E12.10962
G1 X111.215 Y103.541 E12.12561
G1 X108.714 Y103.541 E12.22959
G1 X108.714 Y110.641 E12.52477
G1 X116.895 Y110.641 E12.8649
G1 X117.208 Y110.681 E12.87802
G1 X117.501 Y110.798 E12.89114
G1 X117.756 Y110.984 E12.90426
G1 X117.955 Y111.229 E12.91738
G1 X118.087 Y111.516 E12.93051
G1 X118.145 Y111.891 E12.94629
G1 X118.145 Y121.891 E13.36204
G1 X118.105 Y122.204 E13.37516
G1 X117.988 Y122.497 E13.38828
G1 X117.802 Y122.752 E13.4014
G1 X117.557 Y122.951 E13.41452
G1 X117.27 Y123.083 E13.42766
G1 X116.895 Y123.141 E13.44343
G1 X103.395 Y123.141 E14.0047
G1 X103.082 Y123.101 E14.01782
G1 X102.789 Y122.984 E14.03093
G1 X102.534 Y122.798 E14.04405
G1 X102.335 Y122.553 E14.05718
G1 X102.203 Y122.266 E14.07031
G1 X102.145 Y121.891 E14.08609
G1 X102.145 Y110.098 E14.57638
G1 X102.179 Y109.81 E14.58844
G1 X103.097 Y105.932 E14.75412
G1 X102.836 Y105.874 E14.76524
G1 X102.539 Y105.767 E14.77836
G1 X102.277 Y105.59 E14.79151
G1 X102.069 Y105.353 E14.80462
G1 X101.927 Y105.071 E14.81775
G1 X101.86 Y104.763 E14.83085
G1 X101.884 Y104.386 E14.84656
G1 X102.312 Y102.432 E14.92972
G1 X102.418 Y102.134 E14.94287
G1 X102.595 Y101.873 E14.95598
G0 F6000 X102.891 Y102.312
G1 F1200 X103.148 Y102.055 E14.97109
G1 X107.962 Y99.18 E15.20421
G1 X110.468 Y97.487 E15.32995
G1 X110.69 Y97.386 E15.34009
G1 X110.933 Y97.36 E15.35025
G1 X111.071 Y97.382 E15.35606
G1 X111.262 Y97.43 E15.36424
G1 X111.486 Y97.527 E15.37439
G1 X111.676 Y97.703 E15.38516
G1 X111.797 Y97.862 E15.39347
G1 X111.911 Y98.078 E15.40362
G1 X111.95 Y98.313 E15.41352
G1 X111.965 Y102.288 E15.57879
G1 X111.926 Y102.529 E15.58894
G1 X111.812 Y102.745 E15.59909
G1 X111.635 Y102.913 E15.60924
G1 X111.413 Y103.014 E15.61938
G1 X111.215 Y103.041 E15.62769
G1 X108.214 Y103.041 E15.75245
G1 X108.214 Y111.141 E16.08921
G1 X116.895 Y111.141 E16.45013
G1 X117.136 Y111.181 E16.46028
G1 X117.351 Y111.296 E16.47042
G1 X117.518 Y111.474 E16.48057
G1 X117.619 Y111.696 E16.49071
G1 X117.645 Y111.891 E16.49889
G1 X117.645 Y121.891 E16.91464
G1 X117.605 Y122.132 E16.92479
G1 X117.49 Y122.347 E16.93493
G1 X117.312 Y122.514 E16.94508
G1 X117.09 Y122.615 E16.95522
G1 X116.895 Y122.641 E16.9634
G1 X103.395 Y122.641 E17.52466
G1 X103.154 Y122.601 E17.53482
G1 X102.939 Y122.486 E17.54496
G1 X102.772 Y122.308 E17.5551
G1 X102.671 Y122.086 E17.56524
G1 X102.645 Y121.891 E17.57342
G1 X102.645 Y110.098 E18.06372
G1 X102.665 Y109.925 E18.07096
G1 X103.7 Y105.552 E18.25779
G1 X102.943 Y105.385 E18.29002
G1 X102.717 Y105.295 E18.30013
G1 X102.531 Y105.136 E18.31031
G1 X102.406 Y104.926 E18.32047
G1 X102.356 Y104.687 E18.33062
G1 X102.372 Y104.493 E18.33871
G1 X102.8 Y102.539 E18.42187
G1 X102.891 Y102.312 E18.43204
G0 F6000 X103.405 Y102.484
G1 F1200 X108.24 Y99.596 E18.66619
G1 X110.748 Y97.902 E18.79201
G1 X110.949 Y97.867 E18.8005
G1 X111.14 Y97.915 E18.80868
G1 X111.278 Y98.006 E18.81556
G1 X111.399 Y98.165 E18.82386
G1 X111.45 Y98.315 E18.83045
G1 X111.465 Y102.29 E18.99571
G1 X111.426 Y102.425 E19.00156
G1 X111.321 Y102.517 E19.00736
G1 X111.215 Y102.541 E19.01188
G1 X107.714 Y102.541 E19.15743
G1 X107.714 Y111.641 E19.53577
G1 X116.895 Y111.641 E19.91747
G1 X117.029 Y111.68 E19.92327
G1 X117.122 Y111.786 E19.92913
G1 X117.145 Y111.891 E19.9336
G1 X117.145 Y121.891 E20.34935
G1 X117.106 Y122.025 E20.35516
G1 X117 Y122.118 E20.36102
G1 X116.895 Y122.141 E20.36549
G1 X103.395 Y122.141 E20.92675
G1 X103.261 Y122.102 E20.93255
G1 X103.168 Y121.996 E20.93842
G1 X103.145 Y121.891 E20.94289
G1 X103.145 Y110.098 E21.43318
G1 X103.152 Y110.04 E21.43561
G1 X104.303 Y105.173 E21.64354
G1 X103.051 Y104.897 E21.69684
G1 X102.928 Y104.83 E21.70266
G1 X102.861 Y104.707 E21.70849
G1 X102.861 Y104.6 E21.71294
G1 X103.289 Y102.646 E21.7961
G1 X103.405 Y102.484 E21.80438
G1 F2700 E16.80438
G1 F300 Z0.4
;MESH:FGC-9_Feed_Ramp.stl
G0 F6000 X103.645 Y121.641 Z0.4
;TYPE:WALL-OUTER
G1 F300 Z0.2
G1 F2700 E21.80438
G1 F1200 X103.645 Y110.128 E22.28304
G1 X104.849 Y105.04 E22.50041
G1 X104.907 Y104.793 E22.51096
G1 X104.659 Y104.739 E22.51775
G1 X103.646 Y104.516 E22.56087
G1 X103.402 Y104.463 E22.57126
G1 X103.455 Y104.219 E22.57796
G1 X103.754 Y102.858 E22.63589
G1 X106.319 Y101.27 E22.76131
G1 X108.502 Y100.023 E22.86584
G1 X110.541 Y98.607 E22.96904
G1 X110.859 Y98.386 E22.98515
G1 X110.9 Y98.371 E22.98696
G1 X110.935 Y98.38 E22.98846
G1 X110.95 Y98.401 E22.98954
G1 X110.951 Y98.789 E22.99985
G1 X110.963 Y101.79 E23.12462
G1 X110.964 Y101.791 E23.12468
G1 X110.964 Y102.041 E23.13507
G1 X110.714 Y102.041 E23.14179
G1 X110.713 Y102.041 E23.14184
G1 X107.214 Y102.041 E23.28731
G1 X107.214 Y112.141 E23.70722
G1 X116.645 Y112.141 E24.09931
G1 X116.645 Y121.641 E24.49428
G1 X103.645 Y121.641 E25.03475
G0 F6000 X103.645 Y121.441
G0 X104.145 Y121.141
;TYPE:WALL-INNER
G1 F1200 X104.145 Y110.188 E25.49013
G1 X105.453 Y104.66 E25.7263
G1 X105.511 Y104.413 E25.73685
G1 X105.263 Y104.359 E25.74364
G1 X104.241 Y104.135 E25.78713
G1 X103.997 Y104.082 E25.79752
G1 X104.05 Y103.838 E25.80422
G1 X104.197 Y103.172 E25.83257
G1 X106.299 Y101.87 E25.93537
G1 X106.567 Y101.704 E25.94848
G1 X106.714 Y101.62 E25.95552
G1 X106.714 Y101.704
G1 X106.714 Y102.02 E25.96461
G1 X106.714 Y112.641 E26.40618
G1 X116.145 Y112.641 E26.79828
G1 X116.145 Y121.141 E27.15166
G1 X104.145 Y121.141 E27.65057
G1 F2700 E22.65057
G1 F300 Z0.4
G0 F6000 X110.462 Y101.541 Z0.4
G1 F300 Z0.2
G1 F2700 E27.65057
G1 F1200 X107.793 Y101.541 E27.76153
G1 X107.792 Y101.541 E27.76157
G1 X106.852 Y101.541 E27.80065
G1 X107.669 Y101.075 E27.82086
G1 X108.769 Y100.446 E27.87354
G1 X110.063 Y99.547 E27.93905
G1 X110.453 Y99.277 E27.95877
G1 X110.453 Y99.751 E27.96975
G1 X110.454 Y99.752 E27.9698
G1 X110.462 Y101.541 E28.04418
G1 F2700 E23.04418
G1 F300 Z0.4
G0 F6000 X104.645 Y120.641 Z0.4
G1 F300 Z0.2
G1 F2700 E28.04418
G1 F1200 X104.645 Y110.248 E28.47627
G1 X105.72 Y105.704 E28.67041
G1 X106.057 Y104.28 E28.73124
G1 X106.115 Y104.033 E28.74179
G1 X105.867 Y103.979 E28.74858
G1 X104.592 Y103.701 E28.80283
G1 X104.64 Y103.486 E28.81199
G1 X106.214 Y102.511 E28.88897
G1 X106.214 Y104.033 E28.95225
G1 X106.214 Y105.751 E29.02367
G1 X106.214 Y113.141 E29.33091
G1 X115.645 Y113.141 E29.72301
G1 X115.645 Y120.641 E30.03482
G1 X104.645 Y120.641 E30.49215
G1 F2700 E25.49215
G1 F300 Z0.4
G0 F6000 X109.96 Y101.041 Z0.4
G1 F300 Z0.2
G1 F2700 E30.49215
G1 F1200 X109.036 Y101.041 E30.53057
G1 X108.735 Y101.041 E30.54308
G1 X109.036 Y100.869 E30.5467
G1 X109.957 Y100.23 E30.5933
G1 X109.96 Y101.041 E30.62702
G1 F2700 E25.62702
G1 F300 Z0.4
G0 F6000 X105.724 Y103.391 Z0.4
;TYPE:SKIN
G1 F300 Z0.2
G1 F2700 E30.62702
G1 F1200 X105.724 Y103.447 E30.62935
G1 X105.658 Y103.432 E30.63216
G1 X105.724 Y103.391 E30.63539
G0 F6000 X105.916 Y103.088
;TYPE:SKIN
G1 F1200 X105.308 Y103.54 E30.64956
G1 F2700 E25.64956
G1 F300 Z0.4
G0 F6000 X105.724 Y107.816 Z0.4
;TYPE:SKIN
G1 F300 Z0.2
G1 F2700 E30.64956
G1 F1200 X105.724 Y113.631 E30.89132
G1 X115.155 Y113.631 E31.28341
G1 X115.155 Y120.151 E31.55448
G1 X105.135 Y120.151 E31.97107
G1 X105.135 Y110.306 E32.38037
G1 X105.724 Y107.816 E32.48675
G1 F2700 E27.48675
G1 F300 Z0.4
G0 F6000 X114.955 Y114.247 Z0.4
G1 F300 Z0.2
G1 F2700 E32.48675
G1 F1200 X114.538 Y113.831 E32.51124
G0 F6000 X113.831 Y113.831
G1 F1200 X114.955 Y114.955 E32.57733
G0 F6000 X114.955 Y115.662
G1 F1200 X113.124 Y113.831 E32.68499
G0 F6000 X112.417 Y113.831
G1 F1200 X114.955 Y116.369 E32.83421
G0 F6000 X114.955 Y117.076
G1 F1200 X111.71 Y113.831 E33.025
G0 F6000 X111.003 Y113.831
G1 F1200 X114.955 Y117.783 E33.25737
G0 F6000 X114.955 Y118.49
G1 F1200 X110.295 Y113.831 E33.53133
G0 F6000 X109.588 Y113.83
G1 F1200 X114.955 Y119.197 E33.84689
G0 F6000 X114.955 Y119.904
G1 F1200 X108.881 Y113.83 E34.20401
G0 F6000 X108.173 Y113.83
G1 F1200 X114.293 Y119.95 E34.56385
G0 F6000 X113.586 Y119.95
G1 F1200 X107.466 Y113.83 E34.92368
G0 F6000 X106.759 Y113.83
G1 F1200 X112.878 Y119.95 E35.28348
G0 F6000 X112.171 Y119.95
G1 F1200 X106.052 Y113.83 E35.64328
G0 F6000 X105.334 Y113.82
G1 F1200 X111.464 Y119.95 E36.00371
G0 F6000 X110.757 Y119.95
G1 F1200 X105.334 Y114.527 E36.32256
G0 F6000 X105.334 Y115.234
G1 F1200 X110.05 Y119.95 E36.59984
G0 F6000 X109.343 Y119.95
G1 F1200 X105.334 Y115.941 E36.83555
G0 F6000 X105.334 Y116.648
G1 F1200 X108.636 Y119.95 E37.0297
G0 F6000 X107.929 Y119.95
G1 F1200 X105.334 Y117.355 E37.18227
