;FLAVOR:Marlin
;TIME:3411
;Filament used: 1.51481m
;Layer height: 0.16
;Generated with Cura_SteamEngine 4.0.0
M140 S60
M105
M190 S60
M104 S215
M105
M109 S215
M82 ;absolute extrusion mode
M201 X500.00 Y500.00 Z100.00 E5000.00 ;Setup machine max acceleration
M203 X500.00 Y500.00 Z10.00 E50.00 ;Setup machine max feedrate
M204 P500.00 R1000.00 T500.00 ;Setup Print/Retract/Travel acceleration
M205 X8.00 Y8.00 Z0.40 E5.00 ;Setup Jerk
M220 S100 ;Reset Feedrate
M221 S100 ;Reset Flowrate

G28 ;Home

G92 E0 ;Reset Extruder
G1 Z2.0 F3000 ;Move Z Axis up
G1 X10.1 Y20 Z0.28 F5000.0 ;Move to start position
G1 X10.1 Y200.0 Z0.28 F1500.0 E15 ;Draw the first line
G1 X10.4 Y200.0 Z0.28 F5000.0 ;Move to side a little
G1 X10.4 Y20 Z0.28 F1500.0 E30 ;Draw the second line
G92 E0 ;Reset Extruder
G1 Z2.0 F3000 ;Move Z Axis up

G92 E0
G1 F2700 E-5
;LAYER_COUNT:272
;LAYER:0
M107
G0 F6000 X105.835 Y101.151 Z0.2
;TYPE:SKIRT
G1 F2700 E0
G1 F1200 X106.208 Y100.78 E0.02187
G1 X107.689 Y99.566 E0.10149
G1 X108.126 Y99.273 E0.12336
G1 X109.811 Y98.364 E0.20296
G1 X110.296 Y98.159 E0.22485
G1 X112.113 Y97.591 E0.304
G1 X112.498 Y97.501 E0.32044
G1 X113.438 Y97.35 E0.36002
G1 X113.905 Y97.315 E0.37949
G1 X114.36 Y97.358 E0.39849
G1 X114.945 Y97.463 E0.4232
G1 X115.397 Y97.585 E0.44266
G1 X115.823 Y97.782 E0.46218
G1 X116.208 Y98.048 E0.48163
G1 X116.406 Y98.228 E0.49276
G1 X116.832 Y98.655 E0.51783
G1 X117.133 Y99.013 E0.53728
G1 X117.37 Y99.418 E0.55679
G1 X117.493 Y99.725 E0.57054
G1 X117.589 Y100.012 E0.58312
G1 X117.699 Y100.467 E0.60258
G1 X117.731 Y100.888 E0.62014
G1 X117.705 Y119.23 E1.38271
G1 X117.664 Y119.697 E1.4022
G1 X117.545 Y120.15 E1.42167
G1 X117.236 Y120.762 E1.45017
G1 X116.902 Y121.258 E1.47503
G1 X116.608 Y121.623 E1.49452
G1 X116.257 Y121.933 E1.51399
G1 X115.857 Y122.178 E1.53349
G1 X115.614 Y122.286 E1.54455
G1 X115.051 Y122.504 E1.56965
G1 X114.601 Y122.636 E1.58914
G1 X114.136 Y122.689 E1.6086
G1 X113.603 Y122.652 E1.63081
G1 X112.028 Y122.388 E1.69721
G1 X111.544 Y122.261 E1.71801
G1 X109.752 Y121.61 E1.79728
G1 X109.273 Y121.381 E1.81935
G1 X107.626 Y120.39 E1.89927
G1 X107.203 Y120.077 E1.92114
G1 X105.786 Y118.8 E2.00045
G1 X105.43 Y118.412 E2.02234
G1 X104.276 Y116.88 E2.10208
G1 X104.002 Y116.431 E2.12395
G1 X103.166 Y114.718 E2.2032
G1 X102.983 Y114.231 E2.22483
G1 X102.485 Y112.393 E2.304
G1 X102.396 Y111.872 E2.32597
G1 X102.258 Y109.961 E2.40563
G1 X102.271 Y109.435 E2.42751
G1 X102.499 Y107.539 E2.5069
G1 X102.61 Y107.027 E2.52868
G1 X103.191 Y105.216 E2.60775
G1 X103.399 Y104.734 E2.62958
G1 X104.319 Y103.056 E2.70914
G1 X104.614 Y102.622 E2.73096
G1 X105.835 Y101.151 E2.81044
G0 F6000 X106.22 Y101.47
G1 F1200 X106.525 Y101.167 E2.82831
G1 X108.006 Y99.953 E2.90793
G1 X108.364 Y99.713 E2.92585
G1 X110.049 Y98.804 E3.00544
G1 X110.446 Y98.636 E3.02337
G1 X112.263 Y98.068 E3.10251
G1 X112.577 Y97.994 E3.11592
G1 X113.517 Y97.843 E3.15551
G1 X113.94 Y97.816 E3.17313
G1 X114.271 Y97.85 E3.18696
G1 X114.856 Y97.955 E3.21167
G1 X115.265 Y98.069 E3.22933
G1 X115.644 Y98.258 E3.24693
G1 X116.052 Y98.581 E3.26857
G1 X116.478 Y99.008 E3.29364
G1 X116.748 Y99.335 E3.31127
G1 X117.019 Y99.883 E3.33669
G1 X117.115 Y100.17 E3.34927
G1 X117.211 Y100.583 E3.3669
G1 X117.231 Y100.887 E3.37957
G1 X117.205 Y119.229 E4.14214
G1 X117.164 Y119.651 E4.15977
G1 X117.046 Y120.058 E4.17739
G1 X116.821 Y120.483 E4.19738
G1 X116.487 Y120.979 E4.22224
G1 X116.219 Y121.306 E4.23982
G1 X115.893 Y121.578 E4.25747
G1 X115.433 Y121.82 E4.27908
G1 X114.87 Y122.038 E4.30418
G1 X114.463 Y122.153 E4.32176
G1 X114.04 Y122.19 E4.33942
G1 X113.686 Y122.159 E4.35419
G1 X112.111 Y121.895 E4.42058
G1 X111.715 Y121.791 E4.43761
G1 X109.923 Y121.14 E4.51687
G1 X109.531 Y120.953 E4.53493
G1 X107.884 Y119.962 E4.61484
G1 X107.538 Y119.705 E4.63276
G1 X106.121 Y118.428 E4.71207
G1 X105.83 Y118.111 E4.72996
G1 X104.676 Y116.579 E4.8097
G1 X104.451 Y116.212 E4.8276
G1 X103.615 Y114.499 E4.90684
G1 X103.465 Y114.1 E4.92457
G1 X102.967 Y112.262 E5.00374
G1 X102.895 Y111.836 E5.0217
G1 X102.757 Y109.925 E5.10136
G1 X102.767 Y109.494 E5.11928
G1 X102.995 Y107.598 E5.19867
G1 X103.087 Y107.18 E5.21647
G1 X103.668 Y105.369 E5.29554
G1 X103.837 Y104.974 E5.3134
G1 X104.757 Y103.296 E5.39296
G1 X104.999 Y102.941 E5.41083
G1 X106.22 Y101.47 E5.49031
G0 F6000 X106.604 Y101.789
G1 F1200 X106.842 Y101.554 E5.50421
G1 X108.323 Y100.34 E5.58383
G1 X108.601 Y100.153 E5.59776
G1 X110.286 Y99.244 E5.67735
G1 X110.595 Y99.114 E5.69129
G1 X112.412 Y98.546 E5.77044
G1 X112.656 Y98.488 E5.78087
G1 X113.596 Y98.337 E5.82045
G1 X113.97 Y98.318 E5.83602
G1 X114.183 Y98.343 E5.84493
G1 X114.768 Y98.448 E5.86964
G1 X115.127 Y98.552 E5.88518
G1 X115.455 Y98.731 E5.90072
G1 X115.698 Y98.934 E5.91388
G1 X116.124 Y99.361 E5.93896
G1 X116.358 Y99.652 E5.95448
G1 X116.545 Y100.042 E5.97246
G1 X116.641 Y100.329 E5.98505
G1 X116.721 Y100.694 E6.00058
G1 X116.731 Y100.886 E6.00857
G1 X116.705 Y119.228 E6.77115
G1 X116.665 Y119.6 E6.7867
G1 X116.546 Y119.954 E6.80223
G1 X116.407 Y120.203 E6.81409
G1 X116.073 Y120.699 E6.83895
G1 X115.832 Y120.985 E6.8545
G1 X115.536 Y121.214 E6.87005
G1 X115.253 Y121.354 E6.88318
G1 X114.69 Y121.572 E6.90828
G1 X114.329 Y121.669 E6.92382
G1 X113.956 Y121.687 E6.93935
G1 X113.769 Y121.666 E6.94717
G1 X112.194 Y121.402 E7.01357
G1 X111.885 Y121.321 E7.02685
G1 X110.093 Y120.67 E7.10611
G1 X109.789 Y120.524 E7.12013
G1 X108.142 Y119.533 E7.20005
G1 X107.872 Y119.334 E7.21399
G1 X106.455 Y118.057 E7.2933
G1 X106.229 Y117.81 E7.30722
G1 X105.075 Y116.278 E7.38696
G1 X104.9 Y115.993 E7.40086
G1 X104.064 Y114.28 E7.48011
G1 X103.948 Y113.97 E7.49387
G1 X103.45 Y112.132 E7.57304
G1 X103.394 Y111.8 E7.58704
G1 X103.256 Y109.889 E7.6667
G1 X103.264 Y109.554 E7.68063
G1 X103.492 Y107.658 E7.76002
G1 X103.563 Y107.332 E7.77389
G1 X104.144 Y105.521 E7.85297
G1 X104.276 Y105.215 E7.86682
G1 X105.196 Y103.537 E7.94638
G1 X105.383 Y103.26 E7.96028
G1 X106.604 Y101.789 E8.03976
G0 F6000 X106.989 Y102.109
G1 F1200 X107.159 Y101.94 E8.04972
G1 X108.64 Y100.726 E8.12934
G1 X108.839 Y100.593 E8.13929
G1 X110.524 Y99.684 E8.21889
G1 X110.744 Y99.591 E8.22882
G1 X112.561 Y99.023 E8.30796
G1 X112.736 Y98.982 E8.31544
G1 X113.676 Y98.831 E8.35502
G1 X114.095 Y98.835 E8.37244
G1 X114.68 Y98.94 E8.39715
G1 X114.981 Y99.034 E8.41026
G1 X115.344 Y99.287 E8.42866
G1 X115.77 Y99.714 E8.45373
G1 X115.963 Y99.964 E8.46686
G1 X116.07 Y100.2 E8.47764
G1 X116.166 Y100.487 E8.49022
G1 X116.231 Y100.886 E8.50703
G1 X116.205 Y119.228 E9.2696
G1 X116.165 Y119.541 E9.28272
G1 X115.992 Y119.924 E9.30019
G1 X115.658 Y120.42 E9.32505
G1 X115.45 Y120.658 E9.33819
G1 X115.072 Y120.888 E9.35659
G1 X114.509 Y121.106 E9.38169
G1 X114.203 Y121.182 E9.3948
G1 X113.851 Y121.173 E9.40944
G1 X112.276 Y120.909 E9.47583
G1 X112.056 Y120.851 E9.48529
G1 X110.264 Y120.2 E9.56456
G1 X110.047 Y120.096 E9.57456
G1 X108.4 Y119.105 E9.65447
G1 X108.207 Y118.963 E9.66444
G1 X106.79 Y117.686 E9.74374
G1 X106.629 Y117.509 E9.75369
G1 X105.475 Y115.977 E9.83343
G1 X105.35 Y115.773 E9.84338
G1 X104.514 Y114.06 E9.92262
G1 X104.431 Y113.839 E9.93244
G1 X103.933 Y112.001 E10.01161
G1 X103.892 Y111.764 E10.02161
G1 X103.754 Y109.853 E10.10127
G1 X103.76 Y109.614 E10.11121
G1 X103.988 Y107.718 E10.1906
G1 X104.039 Y107.485 E10.20052
G1 X104.62 Y105.674 E10.27959
G1 X104.714 Y105.455 E10.2895
G1 X105.634 Y103.777 E10.36906
G1 X105.768 Y103.58 E10.37896
G1 X106.989 Y102.109 E10.45844
G0 F6000 X107.374 Y102.428
G1 F1200 X107.476 Y102.327 E10.46441
G1 X108.957 Y101.113 E10.54403
G1 X109.076 Y101.033 E10.54999
G1 X110.761 Y100.124 E10.62959
G1 X110.893 Y100.068 E10.63555
G1 X112.71 Y99.5 E10.71469
G1 X112.815 Y99.475 E10.71918
G1 X113.755 Y99.324 E10.75876
G1 X114.006 Y99.327 E10.7692
G1 X114.591 Y99.432 E10.79391
G1 X114.822 Y99.513 E10.80409
G1 X114.99 Y99.64 E10.81284
G1 X115.416 Y100.067 E10.83792
G1 X115.596 Y100.359 E10.85218
G1 X115.692 Y100.646 E10.86476
G1 X115.731 Y100.885 E10.87483
G1 X115.705 Y119.227 E11.6374
G1 X115.665 Y119.468 E11.64756
G1 X115.577 Y119.645 E11.65578
G1 X115.243 Y120.141 E11.68064
G1 X115.076 Y120.319 E11.69079
G1 X114.892 Y120.421 E11.69953
G1 X114.329 Y120.639 E11.72463
G1 X114.09 Y120.689 E11.73478
G1 X113.934 Y120.68 E11.74128
G1 X112.359 Y120.416 E11.80768
G1 X112.227 Y120.381 E11.81335
G1 X110.435 Y119.73 E11.89262
G1 X110.304 Y119.668 E11.89864
G1 X108.657 Y118.677 E11.97856
G1 X108.542 Y118.591 E11.98453
G1 X107.125 Y117.314 E12.06383
G1 X107.028 Y117.208 E12.06981
G1 X105.874 Y115.676 E12.14955
G1 X105.799 Y115.554 E12.1555
G1 X104.963 Y113.841 E12.23475
G1 X104.913 Y113.708 E12.24066
G1 X104.415 Y111.87 E12.31983
G1 X104.391 Y111.728 E12.32582
G1 X104.253 Y109.817 E12.40547
G1 X104.256 Y109.673 E12.41146
G1 X104.484 Y107.777 E12.49085
G1 X104.515 Y107.638 E12.49678
G1 X105.096 Y105.827 E12.57585
G1 X105.152 Y105.695 E12.58181
G1 X106.072 Y104.017 E12.66137
G1 X106.153 Y103.899 E12.66732
G1 X107.374 Y102.428 E12.7468
G0 F6000 X107.759 Y102.747
G1 F1200 X107.793 Y102.714 E12.74877
G1 X109.274 Y101.5 E12.82839
G1 X109.313 Y101.473 E12.83036
G1 X110.998 Y100.564 E12.90996
G1 X111.042 Y100.545 E12.91195
G1 X112.859 Y99.977 E12.9911
G1 X112.894 Y99.969 E12.99259
G1 X113.834 Y99.818 E13.03217
G1 X113.918 Y99.819 E13.03566
G1 X114.503 Y99.924 E13.06037
G1 X114.636 Y99.993 E13.0666
G1 X115.062 Y100.42 E13.09168
G1 X115.122 Y100.518 E13.09646
G1 X115.218 Y100.805 E13.10904
G1 X115.231 Y100.884 E13.11237
G1 X115.205 Y119.226 E13.87494
G1 X115.162 Y119.366 E13.88103
G1 X114.828 Y119.862 E13.90589
G1 X114.711 Y119.955 E13.9121
G1 X114.148 Y120.173 E13.9372
G1 X114.017 Y120.187 E13.94268
G1 X112.442 Y119.923 E14.00907
G1 X112.398 Y119.911 E14.01097
G1 X110.606 Y119.26 E14.09024
G1 X110.562 Y119.239 E14.09226
G1 X108.915 Y118.248 E14.17218
G1 X108.877 Y118.22 E14.17414
G1 X107.46 Y116.943 E14.25345
G1 X107.427 Y116.907 E14.25548
G1 X106.273 Y115.375 E14.33522
G1 X106.248 Y115.335 E14.33718
G1 X105.412 Y113.622 E14.41643
G1 X105.396 Y113.577 E14.41841
G1 X104.898 Y111.739 E14.49758
G1 X104.89 Y111.692 E14.49956
G1 X104.752 Y109.781 E14.57922
G1 X104.753 Y109.733 E14.58122
G1 X104.981 Y107.837 E14.66061
G1 X104.991 Y107.791 E14.66257
G1 X105.572 Y105.98 E14.74164
G1 X105.591 Y105.936 E14.74363
G1 X106.511 Y104.258 E14.82319
G1 X106.538 Y104.218 E14.8252
G1 X107.759 Y102.747 E14.90468
G1 F2700 E9.90468
G1 F300 Z0.4
;MESH:FGC-9_Bolt_Drilling_Jig.stl
G0 F6000 X114.029 Y119.691 Z0.4
;TYPE:WALL-OUTER
G1 F300 Z0.2
G1 F2700 E14.90468
G1 F1200 X113.46 Y119.628 E14.92848
G1 X112.54 Y119.434 E14.96757
G1 X111.644 Y119.155 E15.00659
G1 X110.795 Y118.798 E15.04488
G1 X109.97 Y118.353 E15.08385
G1 X109.188 Y117.83 E15.12296
G1 X108.479 Y117.25 E15.16105
G1 X107.807 Y116.583 E15.20041
G1 X107.217 Y115.874 E15.23876
G1 X106.682 Y115.088 E15.27829
G1 X106.242 Y114.287 E15.31628
G1 X105.87 Y113.421 E15.35547
G1 X105.584 Y112.534 E15.39422
G1 X105.384 Y111.624 E15.43295
G1 X105.274 Y110.702 E15.47156
G1 X105.251 Y109.761 E15.51069
G1 X105.318 Y108.836 E15.54925
G1 X105.474 Y107.917 E15.588
G1 X105.715 Y107.02 E15.62662
G1 X106.042 Y106.147 E15.66537
G1 X106.455 Y105.301 E15.70451
G1 X106.939 Y104.515 E15.74289
G1 X107.511 Y103.756 E15.7824
G1 X108.132 Y103.079 E15.8206
G1 X108.825 Y102.454 E15.8594
G1 X109.578 Y101.896 E15.89836
G1 X110.369 Y101.419 E15.93676
G1 X111.218 Y101.013 E15.97589
G1 X112.093 Y100.694 E16.01461
G1 X112.993 Y100.459 E16.05328
G1 X113.902 Y100.313 E16.09156
G1 X114.144 Y100.323 E16.10163
G1 X114.355 Y100.399 E16.11095
G1 X114.538 Y100.539 E16.12053
G1 X114.669 Y100.725 E16.12999
G1 X114.737 Y100.941 E16.13941
G1 X114.749 Y118.924 E16.88705
G1 X114.711 Y119.17 E16.8974
G1 X114.61 Y119.374 E16.90686
G1 X114.454 Y119.536 E16.91621
G1 X114.251 Y119.648 E16.92585
G1 X114.029 Y119.691 E16.93526
G0 F6000 X113.831 Y119.669
G1 F2700 E11.93526
G1 F300 Z0.4
G0 F6000 X110.582 Y111.249 Z0.4
G1 F300 Z0.2
G1 F2700 E16.93526
G1 F1200 X110.946 Y111.166 E16.95078
G1 X111.27 Y110.98 E16.96631
G1 X111.524 Y110.705 E16.98187
G1 X111.685 Y110.37 E16.99733
G1 X111.742 Y110 E17.01289
G1 X111.685 Y109.63 E17.02845
G1 X111.524 Y109.295 E17.04391
G1 X111.27 Y109.02 E17.05947
G1 X110.946 Y108.834 E17.075
G1 X110.582 Y108.751 E17.09052
G1 X110.21 Y108.778 E17.10603
G1 X109.862 Y108.915 E17.12158
G1 X109.571 Y109.148 E17.13708
G1 X109.36 Y109.456 E17.1526
G1 X109.25 Y109.813 E17.16813
G1 X109.25 Y110.187 E17.18368
G1 X109.36 Y110.544 E17.19921
G1 X109.571 Y110.852 E17.21473
G1 X109.862 Y111.085 E17.23023
G1 X110.21 Y111.222 E17.24578
G1 X110.582 Y111.249 E17.26129
G0 F6000 X110.777 Y111.205
G1 F2700 E12.26129
G1 F300 Z0.4
G0 F6000 X114.008 Y119.186 Z0.4
;TYPE:WALL-INNER
G1 F300 Z0.2
G1 F2700 E17.26129
G1 F1200 X113.945 Y119.179 E17.26392
G1 X113.536 Y119.133 E17.28103
G1 X112.666 Y118.95 E17.318
G1 X111.82 Y118.686 E17.35484
G1 X111.007 Y118.345 E17.3915
G1 X110.233 Y117.927 E17.42807
G1 X109.485 Y117.427 E17.46547
G1 X108.812 Y116.876 E17.50164
G1 X108.176 Y116.244 E17.53891
G1 X107.614 Y115.57 E17.5754
G1 X107.111 Y114.83 E17.6126
G1 X106.69 Y114.064 E17.64894
G1 X106.34 Y113.25 E17.68577
G1 X106.066 Y112.399 E17.72294
G1 X105.877 Y111.54 E17.75951
G1 X105.774 Y110.673 E17.79581
G1 X105.752 Y109.775 E17.83316
G1 X105.815 Y108.894 E17.86988
G1 X105.963 Y108.025 E17.90653
G1 X106.193 Y107.168 E17.94342
G1 X106.502 Y106.344 E17.98
G1 X106.891 Y105.547 E18.01688
G1 X107.354 Y104.794 E18.05363
G1 X107.896 Y104.075 E18.09106
G1 X108.483 Y103.436 E18.12714
G1 X109.138 Y102.845 E18.16381
G1 X109.862 Y102.308 E18.20129
G1 X110.604 Y101.861 E18.2373
G1 X111.411 Y101.475 E18.2745
G1 X112.242 Y101.172 E18.31127
G1 X113.095 Y100.949 E18.34793
G1 X113.855 Y100.827 E18.37993
G1 X113.931 Y100.815 E18.38313
G1 X114.05 Y100.82 E18.38808
G1 X114.111 Y100.842 E18.39077
G1 X114.173 Y100.889 E18.39401
G1 X114.216 Y100.95 E18.39711
G1 X114.237 Y101.018 E18.40007
G1 X114.237 Y101.095 E18.40327
G1 X114.249 Y118.823 E19.14032
G1 X114.249 Y118.887 E19.14298
G1 X114.229 Y119.017 E19.14845
G1 X114.196 Y119.083 E19.15151
G1 X114.147 Y119.134 E19.15445
G1 X114.078 Y119.172 E19.15773
G1 X114.008 Y119.186 E19.1607
G1 F2700 E14.1607
G1 F300 Z0.4
G0 F6000 X110.62 Y111.753 Z0.4
G1 F300 Z0.2
G1 F2700 E19.1607
G1 F1200 X111.13 Y111.637 E19.18244
G1 X111.585 Y111.376 E19.20425
G1 X111.942 Y110.989 E19.22614
G1 X112.168 Y110.52 E19.24778
G1 X112.248 Y110 E19.26966
G1 X112.168 Y109.48 E19.29153
G1 X111.942 Y109.011 E19.31318
G1 X111.585 Y108.624 E19.33506
G1 X111.13 Y108.363 E19.35687
G1 X110.62 Y108.247 E19.37862
G1 X110.098 Y108.285 E19.40038
G1 X109.609 Y108.477 E19.42222
G1 X109.2 Y108.804 E19.44399
G1 X108.905 Y109.236 E19.46574
G1 X108.75 Y109.738 E19.48758
G1 X108.75 Y110.262 E19.50937
G1 X108.905 Y110.764 E19.53121
G1 X109.2 Y111.196 E19.55296
G1 X109.609 Y111.523 E19.57473
G1 X110.098 Y111.715 E19.59657
G1 X110.62 Y111.753 E19.61833
G1 F2700 E14.61833
G1 F300 Z0.4
G0 F6000 X113.749 Y118.654 Z0.4
G1 F300 Z0.2
G1 F2700 E19.61833
G1 F1200 X113.611 Y118.638 E19.62411
G1 X113.393 Y118.593 E19.63336
G1 X112.792 Y118.466 E19.6589
G1 X111.992 Y118.216 E19.69374
G1 X111.227 Y117.895 E19.72824
G1 X110.492 Y117.499 E19.76295
G1 X109.782 Y117.024 E19.79846
G1 X109.145 Y116.502 E19.8327
G1 X108.544 Y115.905 E19.86792
G1 X108.017 Y115.273 E19.90213
G1 X107.536 Y114.564 E19.93775
G1 X107.14 Y113.844 E19.97192
G1 X106.809 Y113.075 E20.00672
G1 X106.546 Y112.257 E20.04245
G1 X106.372 Y111.466 E20.07612
G1 X106.273 Y110.634 E20.11095
G1 X106.253 Y109.788 E20.14614
G1 X106.312 Y108.952 E20.18098
G1 X106.452 Y108.133 E20.21552
G1 X106.67 Y107.319 E20.25056
G1 X106.963 Y106.538 E20.28524
G1 X107.327 Y105.793 E20.31971
G1 X107.769 Y105.073 E20.35483
G1 X108.281 Y104.394 E20.39019
G1 X108.834 Y103.793 E20.42415
G1 X109.451 Y103.236 E20.4587
G1 X110.146 Y102.72 E20.49469
G1 X110.839 Y102.303 E20.52832
G1 X111.604 Y101.937 E20.56357
G1 X112.391 Y101.65 E20.5984
G1 X113.197 Y101.439 E20.63304
G1 X113.449 Y101.398 E20.64366
G1 X113.737 Y101.353 E20.65577
G1 X113.737 Y101.644 E20.66328
G1 X113.737 Y101.645 E20.66332
G1 X113.748 Y118.414 E21.36049
