;FLAVOR:Marlin
;TIME:2929
;Filament used: 1.48151m
;Layer height: 0.16
;Generated with Cura_SteamEngine 4.0.0
M140 S60
M105
M190 S60
M104 S215
M105
M109 S215
M82 ;absolute extrusion mode
M201 X500.00 Y500.00 Z100.00 E5000.00 ;Setup machine max acceleration
M203 X500.00 Y500.00 Z10.00 E50.00 ;Setup machine max feedrate
M204 P500.00 R1000.00 T500.00 ;Setup Print/Retract/Travel acceleration
M205 X8.00 Y8.00 Z0.40 E5.00 ;Setup Jerk
M220 S100 ;Reset Feedrate
M221 S100 ;Reset Flowrate

G28 ;Home

G92 E0 ;Reset Extruder
G1 Z2.0 F3000 ;Move Z Axis up
G1 X10.1 Y20 Z0.28 F5000.0 ;Move to start position
G1 X10.1 Y200.0 Z0.28 F1500.0 E15 ;Draw the first line
G1 X10.4 Y200.0 Z0.28 F5000.0 ;Move to side a little
G1 X10.4 Y20 Z0.28 F1500.0 E30 ;Draw the second line
G92 E0 ;Reset Extruder
G1 Z2.0 F3000 ;Move Z Axis up

G92 E0
G1 F2700 E-5
;LAYER_COUNT:95
;LAYER:0
M107
G0 F6000 X110.995 Y72.605 Z0.2
;TYPE:SKIRT
G1 F2700 E0
G1 F1200 X111.399 Y72.108 E0.02663
G1 X111.851 Y71.669 E0.05282
G1 X112.398 Y71.257 E0.0813
G1 X112.933 Y70.95 E0.10694
G1 X113.567 Y70.685 E0.13551
G1 X114.158 Y70.521 E0.16101
G1 X114.813 Y70.422 E0.18855
G1 X115.43 Y70.404 E0.21421
G1 X116.114 Y70.47 E0.24278
G1 X116.718 Y70.606 E0.26852
G1 X117.356 Y70.836 E0.29672
G1 X117.905 Y71.114 E0.3223
G1 X118.469 Y71.493 E0.35055
G1 X118.934 Y71.898 E0.37619
G1 X119.26 Y72.235 E0.39568
G1 X119.473 Y72.536 E0.41101
G1 X121.576 Y75.97 E0.57843
G1 X121.786 Y76.389 E0.59791
G1 X121.881 Y76.673 E0.61036
G1 X122.148 Y77.638 E0.65199
G1 X122.234 Y78.098 E0.67145
G1 X122.248 Y78.371 E0.68281
G1 X122.254 Y144.851 E3.44673
G1 X122.226 Y145.245 E3.46315
G1 X122.171 Y145.625 E3.47911
G1 X122.064 Y146.081 E3.49859
G1 X121.955 Y146.364 E3.5112
G1 X121.799 Y146.709 E3.52694
G1 X121.57 Y147.118 E3.54643
G1 X121.388 Y147.358 E3.55895
G1 X121.143 Y147.646 E3.57467
G1 X120.681 Y148.077 E3.60094
G1 X120.135 Y148.48 E3.62915
G1 X119.74 Y148.723 E3.64843
G1 X119.131 Y149.03 E3.67679
G1 X118.699 Y149.203 E3.69613
G1 X118.053 Y149.401 E3.72422
G1 X117.595 Y149.5 E3.7437
G1 X116.92 Y149.586 E3.772
G1 X116.454 Y149.605 E3.79139
G1 X115.778 Y149.576 E3.81952
G1 X115.314 Y149.517 E3.83896
G1 X114.649 Y149.373 E3.86725
G1 X114.208 Y149.238 E3.88642
G1 X113.579 Y148.986 E3.9146
G1 X113.157 Y148.773 E3.93425
G1 X112.579 Y148.416 E3.96249
G1 X112.208 Y148.141 E3.98169
G1 X111.701 Y147.695 E4.00977
G1 X111.378 Y147.358 E4.02917
G1 X110.949 Y146.827 E4.05756
G1 X110.687 Y146.44 E4.07699
G1 X110.358 Y145.851 E4.10503
G1 X110.166 Y145.425 E4.12446
G1 X109.939 Y144.782 E4.15281
G1 X109.821 Y144.33 E4.17223
G1 X109.707 Y143.663 E4.20037
G1 X109.668 Y143.204 E4.21952
G1 X109.659 Y137.131 E4.472
G1 X108.867 Y137.195 E4.50504
G1 X108.528 Y137.201 E4.51913
G1 X107.549 Y137.159 E4.55987
G1 X107.215 Y137.125 E4.57383
G1 X106.243 Y136.963 E4.6148
G1 X105.913 Y136.886 E4.62889
G1 X104.973 Y136.607 E4.66965
G1 X104.658 Y136.493 E4.68358
G1 X103.757 Y136.101 E4.72443
G1 X103.453 Y135.945 E4.73864
G1 X102.61 Y135.446 E4.77937
G1 X102.331 Y135.257 E4.79338
G1 X101.551 Y134.655 E4.83434
G1 X101.298 Y134.434 E4.84831
G1 X100.6 Y133.744 E4.88911
G1 X100.374 Y133.491 E4.90322
G1 X99.766 Y132.72 E4.94404
G1 X99.575 Y132.445 E4.95796
G1 X99.065 Y131.606 E4.99878
G1 X98.907 Y131.306 E5.01288
G1 X98.504 Y130.41 E5.05372
G1 X98.384 Y130.091 E5.06789
G1 X98.096 Y129.155 E5.10861
G1 X98.017 Y128.832 E5.12243
G1 X97.843 Y127.862 E5.1634
G1 X97.804 Y127.528 E5.17738
G1 X97.75 Y126.55 E5.21811
G1 X97.753 Y126.208 E5.23232
G1 X97.821 Y125.228 E5.27317
G1 X97.865 Y124.893 E5.28721
G1 X98.053 Y123.927 E5.32813
G1 X98.135 Y123.607 E5.34186
G1 X98.436 Y122.675 E5.38258
G1 X98.562 Y122.354 E5.39692
G1 X98.978 Y121.465 E5.43773
G1 X99.141 Y121.167 E5.45185
G1 X99.664 Y120.335 E5.4927
G1 X99.857 Y120.066 E5.50647
G1 X100.477 Y119.302 E5.54737
G1 X100.707 Y119.052 E5.5615
G1 X101.414 Y118.373 E5.60225
G1 X101.671 Y118.155 E5.61626
G1 X102.459 Y117.565 E5.65719
G1 X102.743 Y117.378 E5.67133
G1 X103.594 Y116.892 E5.71207
G1 X103.893 Y116.745 E5.72592
G1 X104.8 Y116.364 E5.76682
G1 X105.124 Y116.251 E5.78109
G1 X106.068 Y115.987 E5.82184
G1 X106.395 Y115.916 E5.83575
G1 X107.368 Y115.768 E5.87667
G1 X107.704 Y115.738 E5.8907
G1 X108.685 Y115.71 E5.9315
G1 X109.024 Y115.721 E5.9456
G1 X109.754 Y115.791 E5.97609
G1 X109.755 Y76.431 E7.61249
G1 X109.773 Y76.117 E7.62556
G1 X109.87 Y75.274 E7.66084
G1 X110.021 Y74.638 E7.68802
G1 X110.358 Y73.722 E7.7286
G1 X110.619 Y73.196 E7.75301
G1 X110.995 Y72.605 E7.78213
G0 F6000 X111.417 Y72.873
G1 F1200 X111.747 Y72.467 E7.80388
G1 X112.199 Y72.028 E7.83008
G1 X112.647 Y71.69 E7.85341
G1 X113.182 Y71.383 E7.87906
G1 X113.7 Y71.167 E7.90239
G1 X114.291 Y71.003 E7.92789
G1 X114.827 Y70.922 E7.95043
G1 X115.444 Y70.904 E7.97609
G1 X116.004 Y70.958 E7.99948
G1 X116.608 Y71.094 E8.02522
G1 X117.13 Y71.282 E8.04829
G1 X117.679 Y71.56 E8.07387
G1 X118.141 Y71.87 E8.097
G1 X118.606 Y72.275 E8.12264
G1 X118.898 Y72.583 E8.14029
G1 X119.047 Y72.797 E8.15113
G1 X121.15 Y76.231 E8.31854
G1 X121.4 Y76.806 E8.34461
G1 X121.667 Y77.771 E8.38624
G1 X121.748 Y78.371 E8.41141
G1 X121.754 Y144.851 E11.17532
G1 X121.731 Y145.173 E11.18875
G1 X121.676 Y145.553 E11.20471
G1 X121.499 Y146.158 E11.23092
G1 X121.343 Y146.503 E11.24666
G1 X121.007 Y147.034 E11.27278
G1 X120.762 Y147.322 E11.2885
G1 X120.384 Y147.674 E11.30998
G1 X119.838 Y148.077 E11.33819
G1 X119.515 Y148.276 E11.35396
G1 X118.906 Y148.583 E11.38232
G1 X118.552 Y148.725 E11.39818
G1 X117.906 Y148.923 E11.42627
G1 X117.531 Y149.004 E11.44222
G1 X116.856 Y149.09 E11.47051
G1 X116.476 Y149.106 E11.48632
G1 X115.8 Y149.077 E11.51445
G1 X115.42 Y149.028 E11.53038
G1 X114.755 Y148.884 E11.55867
G1 X114.394 Y148.774 E11.57436
G1 X113.765 Y148.522 E11.60253
G1 X113.42 Y148.347 E11.61861
G1 X112.842 Y147.99 E11.64686
G1 X112.538 Y147.765 E11.66258
G1 X112.031 Y147.319 E11.69065
G1 X111.767 Y147.044 E11.7065
G1 X111.338 Y146.513 E11.73488
G1 X111.124 Y146.196 E11.75079
G1 X110.795 Y145.607 E11.77883
G1 X110.637 Y145.259 E11.79472
G1 X110.41 Y144.616 E11.82307
G1 X110.314 Y144.246 E11.83897
G1 X110.2 Y143.579 E11.8671
G1 X110.168 Y143.203 E11.88279
G1 X110.158 Y136.563 E12.15885
G1 X110.08 Y136.579 E12.16216
G1 X109.806 Y136.618 E12.17366
G1 X108.827 Y136.697 E12.2145
G1 X108.55 Y136.702 E12.22602
G1 X107.571 Y136.66 E12.26676
G1 X107.297 Y136.631 E12.27821
G1 X106.325 Y136.469 E12.31918
G1 X106.055 Y136.407 E12.3307
G1 X105.115 Y136.128 E12.37146
G1 X104.857 Y136.034 E12.38288
G1 X103.956 Y135.642 E12.42373
G1 X103.708 Y135.515 E12.43531
G1 X102.865 Y135.016 E12.47604
G1 X102.636 Y134.861 E12.48754
G1 X101.856 Y134.259 E12.5285
G1 X101.649 Y134.078 E12.53993
G1 X100.951 Y133.388 E12.58074
G1 X100.766 Y133.181 E12.59228
G1 X100.158 Y132.41 E12.6331
G1 X100.002 Y132.186 E12.64445
G1 X99.492 Y131.347 E12.68527
G1 X99.363 Y131.101 E12.69682
G1 X98.96 Y130.205 E12.73767
G1 X98.861 Y129.944 E12.74927
G1 X98.573 Y129.008 E12.78999
G1 X98.509 Y128.743 E12.80132
G1 X98.335 Y127.773 E12.84229
G1 X98.303 Y127.5 E12.85372
G1 X98.249 Y126.522 E12.89444
G1 X98.251 Y126.242 E12.90608
G1 X98.319 Y125.262 E12.94693
G1 X98.355 Y124.988 E12.95842
G1 X98.543 Y124.022 E12.99933
G1 X98.611 Y123.761 E13.01054
G1 X98.912 Y122.829 E13.05126
G1 X99.015 Y122.566 E13.06301
G1 X99.431 Y121.677 E13.10381
G1 X99.564 Y121.434 E13.11533
G1 X100.087 Y120.602 E13.15619
G1 X100.245 Y120.381 E13.16748
G1 X100.865 Y119.617 E13.20839
G1 X101.053 Y119.412 E13.21995
G1 X101.76 Y118.733 E13.26071
G1 X101.97 Y118.555 E13.27215
G1 X102.758 Y117.965 E13.31308
G1 X102.991 Y117.812 E13.32467
G1 X103.842 Y117.326 E13.36541
G1 X104.087 Y117.206 E13.37675
G1 X104.994 Y116.825 E13.41765
G1 X105.259 Y116.732 E13.42933
G1 X106.203 Y116.468 E13.47008
G1 X106.471 Y116.411 E13.48147
G1 X107.444 Y116.263 E13.52239
G1 X107.718 Y116.238 E13.53383
G1 X108.699 Y116.21 E13.57463
G1 X108.976 Y116.219 E13.58615
G1 X109.952 Y116.312 E13.62692
G1 X110.225 Y116.355 E13.63841
G1 X110.254 Y116.361 E13.63964
G1 X110.255 Y76.431 E15.29973
G1 X110.27 Y76.174 E15.31044
G1 X110.367 Y75.331 E15.34572
G1 X110.49 Y74.811 E15.36793
G1 X110.827 Y73.895 E15.40851
G1 X111.041 Y73.464 E15.42852
G1 X111.417 Y72.873 E15.45764
G0 F6000 X111.838 Y73.142
G1 F1200 X112.096 Y72.826 E15.4746
G1 X112.548 Y72.387 E15.50079
G1 X112.896 Y72.124 E15.51893
G1 X113.431 Y71.817 E15.54457
G1 X113.834 Y71.649 E15.56273
G1 X114.425 Y71.485 E15.58823
G1 X114.842 Y71.422 E15.60576
G1 X115.459 Y71.404 E15.63142
G1 X115.894 Y71.446 E15.64959
G1 X116.498 Y71.582 E15.67533
G1 X116.905 Y71.728 E15.69331
G1 X117.454 Y72.006 E15.71889
G1 X117.812 Y72.247 E15.73684
G1 X118.277 Y72.652 E15.76247
G1 X118.62 Y73.058 E15.78457
G1 X120.723 Y76.492 E15.95198
G1 X120.918 Y76.939 E15.97226
G1 X121.185 Y77.904 E16.01389
G1 X121.248 Y78.371 E16.03348
G1 X121.254 Y144.851 E18.7974
G1 X121.236 Y145.102 E18.80786
G1 X121.181 Y145.482 E18.82382
G1 X121.044 Y145.952 E18.84417
G1 X120.888 Y146.297 E18.85992
G1 X120.626 Y146.71 E18.88025
G1 X120.381 Y146.998 E18.89597
G1 X120.087 Y147.272 E18.91268
G1 X119.541 Y147.675 E18.94089
G1 X119.29 Y147.83 E18.95316
G1 X118.681 Y148.137 E18.98151
G1 X118.406 Y148.247 E18.99383
G1 X117.76 Y148.445 E19.02192
G1 X117.468 Y148.508 E19.03434
G1 X116.793 Y148.594 E19.06263
G1 X116.497 Y148.606 E19.07494
G1 X115.821 Y148.577 E19.10307
G1 X115.526 Y148.539 E19.11544
G1 X114.861 Y148.395 E19.14373
G1 X114.58 Y148.309 E19.15594
G1 X113.951 Y148.057 E19.18412
G1 X113.682 Y147.922 E19.19663
G1 X113.104 Y147.565 E19.22487
G1 X112.868 Y147.39 E19.23709
G1 X112.361 Y146.944 E19.26516
G1 X112.156 Y146.73 E19.27748
G1 X111.727 Y146.199 E19.30586
G1 X111.56 Y145.952 E19.31826
G1 X111.231 Y145.363 E19.34631
G1 X111.109 Y145.093 E19.35863
G1 X110.882 Y144.45 E19.38698
G1 X110.807 Y144.162 E19.39935
G1 X110.693 Y143.495 E19.42748
G1 X110.668 Y143.203 E19.43967
G1 X110.657 Y135.949 E19.74125
G1 X109.979 Y136.089 E19.77004
G1 X109.766 Y136.119 E19.77898
G1 X108.787 Y136.198 E19.81981
G1 X108.571 Y136.202 E19.8288
G1 X107.592 Y136.16 E19.86953
G1 X107.379 Y136.138 E19.87844
G1 X106.407 Y135.976 E19.91941
G1 X106.197 Y135.928 E19.92836
G1 X105.257 Y135.649 E19.96913
G1 X105.057 Y135.576 E19.97798
G1 X104.156 Y135.184 E20.01883
G1 X103.963 Y135.085 E20.02785
G1 X103.12 Y134.586 E20.06858
G1 X102.942 Y134.465 E20.07752
G1 X102.162 Y133.863 E20.11849
G1 X102.001 Y133.723 E20.12736
G1 X101.303 Y133.033 E20.16816
G1 X101.159 Y132.872 E20.17714
G1 X100.551 Y132.101 E20.21797
G1 X100.43 Y131.926 E20.22681
G1 X99.92 Y131.087 E20.26763
G1 X99.819 Y130.896 E20.27661
G1 X99.416 Y130 E20.31746
G1 X99.339 Y129.797 E20.32649
G1 X99.051 Y128.861 E20.3672
G1 X99.001 Y128.655 E20.37601
G1 X98.827 Y127.685 E20.41699
G1 X98.803 Y127.472 E20.4259
G1 X98.749 Y126.494 E20.46662
G1 X98.75 Y126.277 E20.47564
G1 X98.818 Y125.297 E20.51648
G1 X98.846 Y125.084 E20.52542
G1 X99.034 Y124.118 E20.56633
G1 X99.087 Y123.914 E20.57509
G1 X99.388 Y122.982 E20.61581
G1 X99.468 Y122.778 E20.62492
G1 X99.884 Y121.889 E20.66573
G1 X99.987 Y121.7 E20.67468
G1 X100.51 Y120.868 E20.71554
G1 X100.633 Y120.696 E20.72433
G1 X101.253 Y119.932 E20.76523
G1 X101.4 Y119.773 E20.77424
G1 X102.107 Y119.094 E20.81499
G1 X102.27 Y118.955 E20.8239
G1 X103.058 Y118.365 E20.86482
G1 X103.239 Y118.246 E20.87383
G1 X104.09 Y117.76 E20.91457
G1 X104.28 Y117.667 E20.92337
G1 X105.187 Y117.286 E20.96427
G1 X105.394 Y117.214 E20.97338
G1 X106.338 Y116.95 E21.01413
G1 X106.546 Y116.905 E21.02298
G1 X107.519 Y116.757 E21.0639
G1 X107.732 Y116.738 E21.07279
G1 X108.713 Y116.71 E21.11359
G1 X108.929 Y116.717 E21.12258
G1 X109.905 Y116.81 E21.16334
G1 X110.117 Y116.843 E21.17226
G1 X110.754 Y116.984 E21.19938
G1 X110.755 Y76.431 E22.88538
G1 X110.766 Y76.231 E22.89371
G1 X110.863 Y75.388 E22.92899
G1 X110.96 Y74.984 E22.94626
G1 X111.297 Y74.068 E22.98684
G1 X111.462 Y73.733 E23.00236
G1 X111.838 Y73.142 E23.03149
G0 F6000 X112.26 Y73.41
G1 F1200 X112.444 Y73.184 E23.0436
G1 X112.896 Y72.745 E23.0698
G1 X113.145 Y72.558 E23.08274
G1 X113.68 Y72.251 E23.10839
G1 X113.968 Y72.131 E23.12136
G1 X114.559 Y71.967 E23.14686
G1 X114.857 Y71.922 E23.15939
G1 X115.474 Y71.904 E23.18505
G1 X115.785 Y71.934 E23.19804
G1 X116.389 Y72.07 E23.22378
G1 X116.679 Y72.174 E23.23659
G1 X117.228 Y72.452 E23.26218
G1 X117.484 Y72.624 E23.275
G1 X117.949 Y73.029 E23.30063
G1 X118.194 Y73.319 E23.31642
G1 X120.297 Y76.753 E23.48383
G1 X120.436 Y77.073 E23.49834
G1 X120.703 Y78.038 E23.53996
G1 X120.748 Y78.371 E23.55394
G1 X120.754 Y144.851 E26.31785
G1 X120.741 Y145.03 E26.32531
G1 X120.686 Y145.41 E26.34128
G1 X120.588 Y145.746 E26.35583
G1 X120.432 Y146.091 E26.37157
G1 X120.245 Y146.386 E26.38609
G1 X120 Y146.674 E26.40181
G1 X119.79 Y146.87 E26.41375
G1 X119.244 Y147.273 E26.44197
G1 X119.065 Y147.383 E26.4507
G1 X118.456 Y147.69 E26.47906
G1 X118.259 Y147.769 E26.48788
G1 X117.613 Y147.967 E26.51597
G1 X117.405 Y148.012 E26.52482
G1 X116.73 Y148.098 E26.55311
G1 X116.518 Y148.107 E26.56193
G1 X115.842 Y148.078 E26.59006
G1 X115.631 Y148.051 E26.59891
G1 X114.966 Y147.907 E26.62719
G1 X114.766 Y147.845 E26.6359
G1 X114.137 Y147.593 E26.66407
G1 X113.945 Y147.496 E26.67301
G1 X113.367 Y147.139 E26.70126
G1 X113.198 Y147.015 E26.70997
G1 X112.691 Y146.569 E26.73805
G1 X112.545 Y146.416 E26.74684
G1 X112.116 Y145.885 E26.77522
G1 X111.997 Y145.709 E26.78405
G1 X111.668 Y145.12 E26.8121
G1 X111.58 Y144.926 E26.82096
G1 X111.353 Y144.283 E26.84931
G1 X111.3 Y144.078 E26.85811
G1 X111.186 Y143.411 E26.88625
G1 X111.168 Y143.202 E26.89497
G1 X111.156 Y135.303 E27.22337
G1 X110.988 Y135.36 E27.23075
G1 X110.842 Y135.4 E27.23704
G1 X109.878 Y135.599 E27.27796
G1 X109.726 Y135.621 E27.28435
G1 X108.747 Y135.7 E27.32518
G1 X108.592 Y135.703 E27.33163
G1 X107.613 Y135.661 E27.37237
G1 X107.462 Y135.645 E27.37868
G1 X106.49 Y135.483 E27.41965
G1 X106.339 Y135.448 E27.42609
G1 X105.399 Y135.169 E27.46686
G1 X105.256 Y135.117 E27.47318
G1 X104.355 Y134.725 E27.51404
G1 X104.217 Y134.655 E27.52047
G1 X103.374 Y134.156 E27.5612
G1 X103.247 Y134.07 E27.56757
G1 X102.467 Y133.468 E27.60854
G1 X102.352 Y133.367 E27.6149
G1 X101.654 Y132.677 E27.65571
G1 X101.551 Y132.562 E27.66212
G1 X100.943 Y131.791 E27.70295
G1 X100.857 Y131.666 E27.70925
G1 X100.347 Y130.827 E27.75007
G1 X100.275 Y130.691 E27.75647
G1 X99.872 Y129.795 E27.79732
G1 X99.817 Y129.65 E27.80377
G1 X99.529 Y128.714 E27.84448
G1 X99.494 Y128.567 E27.85076
G1 X99.32 Y127.597 E27.89173
G1 X99.302 Y127.445 E27.8981
G1 X99.248 Y126.467 E27.93882
G1 X99.249 Y126.311 E27.94531
G1 X99.317 Y125.331 E27.98615
G1 X99.337 Y125.179 E27.99252
G1 X99.525 Y124.213 E28.03344
G1 X99.562 Y124.068 E28.03966
G1 X99.863 Y123.136 E28.08038
G1 X99.921 Y122.99 E28.08691
G1 X100.337 Y122.101 E28.12772
G1 X100.411 Y121.966 E28.13412
G1 X100.934 Y121.134 E28.17497
G1 X101.021 Y121.011 E28.18124
G1 X101.641 Y120.247 E28.22214
G1 X101.746 Y120.133 E28.22859
G1 X102.453 Y119.454 E28.26934
G1 X102.57 Y119.355 E28.27571
G1 X103.358 Y118.765 E28.31664
G1 X103.487 Y118.681 E28.32304
G1 X104.338 Y118.195 E28.36378
G1 X104.474 Y118.128 E28.37009
G1 X105.381 Y117.747 E28.41099
G1 X105.528 Y117.695 E28.41747
G1 X106.472 Y117.431 E28.45822
G1 X106.621 Y117.399 E28.46456
G1 X107.594 Y117.251 E28.50548
G1 X107.746 Y117.238 E28.51182
G1 X108.727 Y117.21 E28.55262
G1 X108.882 Y117.215 E28.55907
G1 X109.858 Y117.308 E28.59983
G1 X110.009 Y117.332 E28.60619
G1 X110.971 Y117.545 E28.64715
G1 X111.119 Y117.587 E28.65355
G1 X111.254 Y117.635 E28.6595
G1 X111.255 Y76.431 E30.37257
G1 X111.263 Y76.288 E30.37852
G1 X111.36 Y75.445 E30.4138
G1 X111.429 Y75.156 E30.42615
G1 X111.766 Y74.24 E30.46673
G1 X111.884 Y74.001 E30.47781
G1 X112.26 Y73.41 E30.50693
G0 F6000 X112.682 Y73.678
G1 F1200 X112.792 Y73.543 E30.51417
G1 X113.244 Y73.104 E30.54037
G1 X113.394 Y72.991 E30.54818
G1 X113.929 Y72.684 E30.57382
G1 X114.101 Y72.612 E30.58158
G1 X114.692 Y72.448 E30.60708
G1 X114.871 Y72.421 E30.6146
G1 X115.488 Y72.403 E30.64026
G1 X115.675 Y72.421 E30.64807
G1 X116.279 Y72.557 E30.67381
G1 X116.453 Y72.62 E30.68151
G1 X117.002 Y72.898 E30.70709
