;FLAVOR:Marlin
;TIME:1587
;Filament used: 0.558601m
;Layer height: 0.16
;Generated with Cura_SteamEngine 4.0.0
M140 S60
M105
M190 S60
M104 S215
M105
M109 S215
M82 ;absolute extrusion mode
M201 X500.00 Y500.00 Z100.00 E5000.00 ;Setup machine max acceleration
M203 X500.00 Y500.00 Z10.00 E50.00 ;Setup machine max feedrate
M204 P500.00 R1000.00 T500.00 ;Setup Print/Retract/Travel acceleration
M205 X8.00 Y8.00 Z0.40 E5.00 ;Setup Jerk
M220 S100 ;Reset Feedrate
M221 S100 ;Reset Flowrate

G28 ;Home

G92 E0 ;Reset Extruder
G1 Z2.0 F3000 ;Move Z Axis up
G1 X10.1 Y20 Z0.28 F5000.0 ;Move to start position
G1 X10.1 Y200.0 Z0.28 F1500.0 E15 ;Draw the first line
G1 X10.4 Y200.0 Z0.28 F5000.0 ;Move to side a little
G1 X10.4 Y20 Z0.28 F1500.0 E30 ;Draw the second line
G92 E0 ;Reset Extruder
G1 Z2.0 F3000 ;Move Z Axis up

G92 E0
G1 F2700 E-5
;LAYER_COUNT:200
;LAYER:0
M107
G0 F6000 X107.52 Y107.242 Z0.2
;TYPE:SKIRT
G1 F2700 E0
G1 F1200 X107.964 Y106.909 E0.02307
G1 X108.342 Y106.694 E0.04115
G1 X108.799 Y106.5 E0.06179
G1 X109.353 Y106.361 E0.08554
G1 X109.746 Y106.308 E0.10203
G1 X110.285 Y106.309 E0.12444
G1 X110.649 Y106.357 E0.1397
G1 X111.086 Y106.478 E0.15855
G1 X111.057 Y106.477 E0.15976
G1 X111.011 Y106.463 E0.16176
G1 X110.026 Y106.326 E0.2031
G1 X109.97 Y106.325 E0.20543
G1 X109.375 Y106.378 E0.23027
G1 X109.319 Y106.39 E0.23265
G1 X108.371 Y106.703 E0.27416
G1 X108.304 Y106.736 E0.27726
G1 X107.464 Y107.334 E0.32013
G1 X107.41 Y107.387 E0.32328
G1 X106.784 Y108.214 E0.3664
G1 X106.748 Y108.281 E0.36956
G1 X106.392 Y109.28 E0.41365
G1 X106.377 Y109.363 E0.41716
G1 X106.371 Y110.61 E0.469
G1 X106.385 Y110.693 E0.4725
G1 X106.734 Y111.694 E0.51658
G1 X106.769 Y111.761 E0.51972
G1 X107.38 Y112.582 E0.56227
G1 X107.433 Y112.635 E0.56538
G1 X108.269 Y113.246 E0.60843
G1 X108.336 Y113.281 E0.61158
G1 X109.319 Y113.616 E0.65475
G1 X109.394 Y113.629 E0.65792
G1 X110.434 Y113.653 E0.70117
G1 X110.509 Y113.643 E0.70431
G1 X111.505 Y113.356 E0.74741
G1 X111.573 Y113.325 E0.75051
G1 X112.434 Y112.759 E0.79335
G1 X112.49 Y112.708 E0.7965
G1 X113.143 Y111.911 E0.83934
G1 X113.182 Y111.847 E0.84245
G1 X113.57 Y110.885 E0.88558
G1 X113.587 Y110.811 E0.88874
G1 X113.672 Y109.776 E0.93191
G1 X113.667 Y109.701 E0.93504
G1 X113.439 Y108.691 E0.97808
G1 X113.411 Y108.62 E0.98126
G1 X112.89 Y107.724 E1.02435
G1 X112.843 Y107.666 E1.02745
G1 X112.082 Y106.968 E1.07038
G1 X112.019 Y106.926 E1.07353
G1 X111.706 Y106.779 E1.08791
G1 X111.703 Y106.773 E1.08819
G1 X111.575 Y106.66 E1.09529
G1 X111.168 Y106.5 E1.11347
G1 X111.233 Y106.518 E1.11627
G1 X111.672 Y106.692 E1.1359
G1 X112.035 Y106.907 E1.15344
G1 X112.435 Y107.213 E1.17438
G1 X112.8 Y107.576 E1.19578
G1 X113.093 Y107.96 E1.21587
G1 X113.321 Y108.361 E1.23504
G1 X113.466 Y108.714 E1.25091
G1 X113.624 Y109.283 E1.27546
G1 X113.692 Y109.788 E1.29665
G1 X113.691 Y110.317 E1.31864
G1 X113.658 Y110.606 E1.33073
G1 X113.499 Y111.205 E1.3565
G1 X113.33 Y111.625 E1.37532
G1 X113.093 Y112.028 E1.39476
G1 X112.775 Y112.435 E1.41623
G1 X112.474 Y112.741 E1.43408
G1 X112.018 Y113.095 E1.45808
G1 X111.642 Y113.316 E1.47621
G1 X111.48 Y113.379 E1.48344
G1 X111.468 Y113.384 E1.48398
G1 X111.168 Y113.518 E1.49764
G1 X110.76 Y113.619 E1.51511
G1 X110.225 Y113.692 E1.53756
G1 X109.71 Y113.691 E1.55897
G1 X109.29 Y113.641 E1.57656
G1 X108.836 Y113.509 E1.59621
G1 X108.369 Y113.318 E1.61719
G1 X107.941 Y113.069 E1.63778
G1 X107.576 Y112.792 E1.65683
G1 X107.567 Y112.779 E1.65748
G1 X107.534 Y112.741 E1.65958
G1 X107.194 Y112.414 E1.67919
G1 X106.931 Y112.059 E1.69756
G1 X106.674 Y111.611 E1.71903
G1 X106.466 Y111.102 E1.74189
G1 X106.368 Y110.702 E1.75901
G1 X106.308 Y110.213 E1.7795
G1 X106.309 Y109.701 E1.80078
G1 X106.367 Y109.293 E1.81792
G1 X106.506 Y108.799 E1.83925
G1 X106.691 Y108.338 E1.8599
G1 X106.818 Y108.117 E1.8705
G1 X106.944 Y107.919 E1.88026
G1 X107.29 Y107.477 E1.90359
G1 X107.52 Y107.242 E1.91727
G0 F6000 X107.784 Y107.72
G1 F1200 X107.207 Y108.482 E1.957
G1 X106.877 Y109.409 E1.99791
G1 X106.871 Y110.569 E2.04614
G1 X107.193 Y111.492 E2.08678
G1 X107.76 Y112.254 E2.12627
G1 X108.533 Y112.819 E2.16608
G1 X109.445 Y113.13 E2.20614
G1 X110.41 Y113.152 E2.24627
G1 X111.329 Y112.887 E2.28603
G1 X112.13 Y112.36 E2.3259
G1 X112.73 Y111.628 E2.36525
G1 X113.092 Y110.731 E2.40546
G1 X113.171 Y109.777 E2.44526
G1 X112.958 Y108.835 E2.48541
G1 X112.479 Y108.01 E2.52507
G1 X111.761 Y107.352 E2.56556
G1 X111.377 Y107.121 E2.5842
G1 X110.933 Y106.964 E2.60377
G1 X109.985 Y106.825 E2.64361
G1 X109.445 Y106.874 E2.66615
G1 X108.565 Y107.164 E2.70467
G1 X107.784 Y107.72 E2.74453
G0 F6000 X108.169 Y108.06
G1 F1200 X108.761 Y107.638 E2.77476
G1 X108.828 Y107.605 E2.77786
G1 X109.522 Y107.376 E2.80825
G1 X109.578 Y107.364 E2.81063
G1 X109.945 Y107.331 E2.82595
G1 X110.002 Y107.332 E2.82832
G1 X110.724 Y107.433 E2.85863
G1 X110.796 Y107.455 E2.86176
G1 X111.454 Y107.765 E2.892
G1 X111.516 Y107.807 E2.89511
G1 X112.057 Y108.302 E2.9256
G1 X112.104 Y108.36 E2.9287
G1 X112.468 Y108.987 E2.95884
G1 X112.496 Y109.058 E2.96202
G1 X112.658 Y109.775 E2.99258
G1 X112.663 Y109.851 E2.99574
G1 X112.603 Y110.578 E3.02607
G1 X112.586 Y110.651 E3.02919
G1 X112.31 Y111.333 E3.05978
G1 X112.271 Y111.397 E3.06289
G1 X111.814 Y111.955 E3.09288
G1 X111.758 Y112.006 E3.09603
G1 X111.149 Y112.406 E3.12632
G1 X111.082 Y112.437 E3.12939
G1 X110.381 Y112.64 E3.15973
G1 X110.305 Y112.65 E3.16292
G1 X109.57 Y112.633 E3.19348
G1 X109.495 Y112.62 E3.19665
G1 X108.804 Y112.384 E3.227
G1 X108.738 Y112.349 E3.23011
G1 X108.146 Y111.917 E3.26058
G1 X108.092 Y111.864 E3.26373
G1 X107.663 Y111.287 E3.29362
G1 X107.628 Y111.22 E3.29676
G1 X107.386 Y110.525 E3.32736
G1 X107.372 Y110.442 E3.33086
G1 X107.376 Y109.538 E3.36844
G1 X107.39 Y109.455 E3.37194
G1 X107.637 Y108.761 E3.40257
G1 X107.674 Y108.694 E3.40575
G1 X108.115 Y108.113 E3.43607
G1 X108.169 Y108.06 E3.43922
G1 F2700 E-1.56078
G1 F300 Z0.4
G0 F6000 X106.941 Y107.12 Z0.4
G1 F300 Z0.2
G1 F2700 E3.43922
G1 F1200 X107.666 Y106.508 E3.47867
G1 X107.717 Y106.474 E3.48121
G1 X108.608 Y106.038 E3.52245
G1 X108.668 Y106.018 E3.52508
G1 X109.68 Y105.813 E3.56801
G1 X109.744 Y105.808 E3.57068
G1 X110.712 Y105.861 E3.61099
G1 X110.764 Y105.87 E3.61318
G1 X111.375 Y106.038 E3.63953
G1 X111.402 Y106.047 E3.64071
G1 X111.878 Y106.237 E3.66202
G1 X111.926 Y106.262 E3.66427
G1 X112.737 Y106.814 E3.70505
G1 X112.783 Y106.856 E3.70764
G1 X113.488 Y107.655 E3.75194
G1 X113.525 Y107.709 E3.75467
G1 X113.928 Y108.523 E3.79243
G1 X113.949 Y108.583 E3.79507
G1 X114.187 Y109.718 E3.84329
G1 X114.192 Y109.78 E3.84587
G1 X114.153 Y110.67 E3.88291
G1 X114.141 Y110.736 E3.8857
G1 X113.79 Y111.819 E3.93303
G1 X113.768 Y111.868 E3.93526
G1 X113.52 Y112.291 E3.95565
G1 X113.493 Y112.329 E3.95759
G1 X112.83 Y113.091 E3.99958
G1 X112.783 Y113.133 E4.0022
G1 X111.895 Y113.747 E4.04708
G1 X111.851 Y113.771 E4.04917
G1 X111.345 Y113.986 E4.07203
G1 X111.292 Y114.002 E4.07433
G1 X110.287 Y114.188 E4.11682
G1 X110.228 Y114.192 E4.11928
G1 X109.224 Y114.136 E4.16109
G1 X109.169 Y114.126 E4.16341
G1 X108.688 Y113.987 E4.18423
G1 X108.647 Y113.971 E4.18606
G1 X107.695 Y113.504 E4.23014
G1 X107.648 Y113.474 E4.23246
G1 X107.205 Y113.116 E4.25614
G1 X107.175 Y113.087 E4.25787
G1 X106.535 Y112.362 E4.29808
G1 X106.497 Y112.306 E4.30089
G1 X106.001 Y111.283 E4.34816
G1 X105.98 Y111.218 E4.351
G1 X105.812 Y110.271 E4.39099
G1 X105.809 Y110.211 E4.39348
G1 X105.872 Y109.225 E4.43456
G1 X105.888 Y109.151 E4.43771
G1 X106.368 Y107.902 E4.49334
G1 X106.4 Y107.844 E4.49609
G1 X106.901 Y107.163 E4.53124
G1 X106.941 Y107.12 E4.53368
G0 F6000 X106.618 Y106.738
G1 F1200 X107.343 Y106.126 E4.57313
G1 X107.497 Y106.025 E4.58079
G1 X108.388 Y105.589 E4.62203
G1 X108.569 Y105.528 E4.62997
G1 X109.581 Y105.323 E4.6729
G1 X109.771 Y105.309 E4.68082
G1 X110.739 Y105.362 E4.72112
G1 X110.897 Y105.388 E4.72778
G1 X111.508 Y105.556 E4.75412
G1 X111.587 Y105.582 E4.75758
G1 X112.063 Y105.772 E4.77889
G1 X112.207 Y105.849 E4.78568
G1 X113.018 Y106.401 E4.82646
G1 X113.158 Y106.525 E4.83424
G1 X113.863 Y107.324 E4.87854
G1 X113.973 Y107.487 E4.88672
G1 X114.376 Y108.301 E4.92448
G1 X114.438 Y108.48 E4.93236
G1 X114.676 Y109.615 E4.98057
G1 X114.691 Y109.802 E4.98837
G1 X114.652 Y110.692 E5.02541
G1 X114.616 Y110.89 E5.03377
G1 X114.265 Y111.973 E5.0811
G1 X114.199 Y112.121 E5.08784
G1 X113.951 Y112.544 E5.10823
G1 X113.87 Y112.657 E5.11401
G1 X113.207 Y113.419 E5.156
G1 X113.068 Y113.544 E5.16377
G1 X112.18 Y114.158 E5.20866
G1 X112.046 Y114.231 E5.215
G1 X111.54 Y114.446 E5.23786
G1 X111.383 Y114.493 E5.24467
G1 X110.378 Y114.679 E5.28717
G1 X110.2 Y114.691 E5.29458
G1 X109.196 Y114.635 E5.33639
G1 X109.03 Y114.607 E5.34339
G1 X108.549 Y114.468 E5.3642
G1 X108.427 Y114.42 E5.36965
G1 X107.475 Y113.953 E5.41374
G1 X107.334 Y113.863 E5.42069
G1 X106.891 Y113.505 E5.44437
G1 X106.8 Y113.418 E5.44961
G1 X106.16 Y112.693 E5.48981
G1 X106.047 Y112.524 E5.49827
G1 X105.551 Y111.501 E5.54553
G1 X105.488 Y111.305 E5.55409
G1 X105.32 Y110.358 E5.59408
G1 X105.31 Y110.179 E5.60153
G1 X105.373 Y109.193 E5.64261
G1 X105.421 Y108.972 E5.65201
G1 X105.901 Y107.723 E5.70764
G1 X105.997 Y107.548 E5.71594
G1 X106.498 Y106.867 E5.75109
G1 X106.618 Y106.738 E5.75841
G0 F6000 X106.296 Y106.356
G1 F1200 X107.021 Y105.744 E5.79786
G1 X107.278 Y105.576 E5.81063
G1 X108.169 Y105.14 E5.85187
G1 X108.47 Y105.038 E5.86508
G1 X109.482 Y104.833 E5.90801
G1 X109.798 Y104.81 E5.92118
G1 X110.766 Y104.863 E5.96149
G1 X111.029 Y104.906 E5.97256
G1 X111.64 Y105.074 E5.99891
G1 X111.772 Y105.118 E6.00469
G1 X112.248 Y105.308 E6.026
G1 X112.488 Y105.436 E6.03731
G1 X113.299 Y105.988 E6.0781
G1 X113.533 Y106.194 E6.09106
G1 X114.238 Y106.993 E6.13536
G1 X114.421 Y107.265 E6.14899
G1 X114.824 Y108.079 E6.18675
G1 X114.927 Y108.377 E6.19986
G1 X115.165 Y109.512 E6.24808
G1 X115.191 Y109.824 E6.26109
G1 X115.152 Y110.714 E6.29813
G1 X115.092 Y111.044 E6.31207
G1 X114.741 Y112.127 E6.35941
G1 X114.63 Y112.374 E6.37066
G1 X114.382 Y112.797 E6.39105
G1 X114.247 Y112.985 E6.40067
G1 X113.584 Y113.747 E6.44267
G1 X113.352 Y113.955 E6.45562
G1 X112.464 Y114.569 E6.5005
G1 X112.242 Y114.691 E6.51104
G1 X111.736 Y114.906 E6.53389
G1 X111.474 Y114.985 E6.54527
G1 X110.469 Y115.171 E6.58776
G1 X110.172 Y115.19 E6.60014
G1 X109.168 Y115.134 E6.64194
G1 X108.891 Y115.087 E6.65362
G1 X108.41 Y114.948 E6.67444
G1 X108.206 Y114.869 E6.68353
G1 X107.254 Y114.402 E6.72762
G1 X107.019 Y114.252 E6.73921
G1 X106.576 Y113.894 E6.76289
G1 X106.425 Y113.749 E6.77159
G1 X105.785 Y113.024 E6.8118
G1 X105.597 Y112.742 E6.82589
G1 X105.101 Y111.719 E6.87316
G1 X104.995 Y111.392 E6.88745
G1 X104.827 Y110.445 E6.92744
G1 X104.811 Y110.147 E6.93984
G1 X104.874 Y109.161 E6.98092
G1 X104.954 Y108.793 E6.99658
G1 X105.434 Y107.544 E7.05221
G1 X105.594 Y107.251 E7.06609
G1 X106.095 Y106.57 E7.10124
G1 X106.296 Y106.356 E7.11344
G0 F6000 X105.973 Y105.974
G1 F1200 X106.698 Y105.362 E7.15289
G1 X107.058 Y105.127 E7.17076
G1 X107.949 Y104.691 E7.212
G1 X108.371 Y104.548 E7.23053
G1 X109.383 Y104.343 E7.27345
G1 X109.826 Y104.311 E7.29192
G1 X110.794 Y104.364 E7.33223
G1 X111.162 Y104.424 E7.34773
G1 X111.773 Y104.592 E7.37407
G1 X111.958 Y104.654 E7.38218
G1 X112.434 Y104.844 E7.40349
G1 X112.77 Y105.022 E7.4193
G1 X113.581 Y105.574 E7.46009
G1 X113.908 Y105.863 E7.47823
G1 X114.613 Y106.662 E7.52253
G1 X114.869 Y107.044 E7.54165
G1 X115.272 Y107.858 E7.57941
G1 X115.417 Y108.275 E7.59777
G1 X115.655 Y109.41 E7.64598
G1 X115.69 Y109.846 E7.66417
G1 X115.651 Y110.736 E7.7012
G1 X115.568 Y111.199 E7.72076
G1 X115.217 Y112.282 E7.76809
G1 X115.062 Y112.627 E7.78382
G1 X114.814 Y113.05 E7.8042
G1 X114.624 Y113.314 E7.81773
G1 X113.961 Y114.076 E7.85972
G1 X113.636 Y114.366 E7.87783
G1 X112.748 Y114.98 E7.92271
G1 X112.437 Y115.152 E7.93749
G1 X111.931 Y115.367 E7.96035
G1 X111.565 Y115.477 E7.97623
G1 X110.56 Y115.663 E8.01873
G1 X110.145 Y115.689 E8.03601
G1 X109.141 Y115.633 E8.07782
G1 X108.752 Y115.567 E8.09422
G1 X108.271 Y115.428 E8.11504
G1 X107.986 Y115.318 E8.12774
G1 X107.034 Y114.851 E8.17183
G1 X106.705 Y114.641 E8.18805
G1 X106.262 Y114.283 E8.21173
G1 X106.05 Y114.08 E8.22394
G1 X105.41 Y113.355 E8.26414
G1 X105.147 Y112.96 E8.28387
G1 X104.651 Y111.937 E8.33114
G1 X104.503 Y111.48 E8.35111
G1 X104.335 Y110.533 E8.3911
G1 X104.312 Y110.115 E8.4085
G1 X104.375 Y109.129 E8.44958
G1 X104.487 Y108.613 E8.47153
G1 X104.967 Y107.364 E8.52716
G1 X105.191 Y106.955 E8.54655
G1 X105.692 Y106.274 E8.5817
G1 X105.973 Y105.974 E8.59879
G0 F6000 X105.651 Y105.592
G1 F1200 X106.376 Y104.98 E8.63823
G1 X106.838 Y104.678 E8.66118
G1 X107.729 Y104.242 E8.70242
G1 X108.271 Y104.058 E8.72622
G1 X109.283 Y103.853 E8.76915
G1 X109.853 Y103.811 E8.79291
G1 X110.821 Y103.864 E8.83321
G1 X111.295 Y103.942 E8.85318
G1 X111.906 Y104.11 E8.87953
G1 X112.143 Y104.189 E8.88992
G1 X112.619 Y104.379 E8.91122
G1 X113.051 Y104.609 E8.93157
G1 X113.862 Y105.161 E8.97236
G1 X114.283 Y105.532 E8.99569
G1 X114.988 Y106.331 E9.03999
G1 X115.317 Y106.822 E9.06456
G1 X115.72 Y107.636 E9.10232
G1 X115.906 Y108.172 E9.12591
G1 X116.144 Y109.307 E9.17413
G1 X116.19 Y109.868 E9.19753
G1 X116.151 Y110.758 E9.23457
G1 X116.043 Y111.353 E9.25971
G1 X115.692 Y112.436 E9.30704
G1 X115.493 Y112.88 E9.32727
G1 X115.245 Y113.303 E9.34765
G1 X115.001 Y113.642 E9.36502
G1 X114.338 Y114.404 E9.40701
G1 X113.921 Y114.778 E9.4303
G1 X113.033 Y115.392 E9.47518
G1 X112.633 Y115.612 E9.49416
G1 X112.127 Y115.827 E9.51702
G1 X111.656 Y115.968 E9.53746
G1 X110.651 Y116.154 E9.57995
G1 X110.117 Y116.189 E9.6022
G1 X109.113 Y116.133 E9.64401
G1 X108.613 Y116.048 E9.66509
G1 X108.132 Y115.909 E9.68591
G1 X107.766 Y115.767 E9.70223
G1 X106.814 Y115.3 E9.74632
G1 X106.391 Y115.03 E9.76718
G1 X105.948 Y114.672 E9.79086
G1 X105.675 Y114.411 E9.80656
G1 X105.035 Y113.686 E9.84677
G1 X104.697 Y113.179 E9.8721
G1 X104.201 Y112.156 E9.91937
G1 X104.011 Y111.567 E9.9451
G1 X103.843 Y110.62 E9.98509
G1 X103.813 Y110.084 E10.00741
G1 X103.876 Y109.098 E10.04848
G1 X103.942 Y108.679 E10.06612
G1 X104.021 Y108.434 E10.07682
G1 X104.501 Y107.185 E10.13245
G1 X104.789 Y106.659 E10.15738
G1 X105.29 Y105.978 E10.19253
G1 X105.651 Y105.592 E10.2145
G0 F6000 X105.328 Y105.21
G1 F1200 X106.053 Y104.598 E10.25395
G1 X106.618 Y104.229 E10.282
G1 X107.509 Y103.793 E10.32325
G1 X108.172 Y103.568 E10.35235
G1 X109.184 Y103.363 E10.39528
G1 X109.88 Y103.312 E10.4243
G1 X110.848 Y103.365 E10.4646
G1 X111.427 Y103.459 E10.48899
G1 X112.038 Y103.627 E10.51533
G1 X112.328 Y103.725 E10.52806
G1 X112.804 Y103.915 E10.54937
G1 X113.332 Y104.196 E10.57424
G1 X114.143 Y104.748 E10.61502
G1 X114.658 Y105.202 E10.64357
G1 X115.363 Y106.001 E10.68787
G1 X115.642 Y106.377 E10.70733
G1 X115.765 Y106.6 E10.71792
G1 X116.168 Y107.414 E10.75568
G1 X116.395 Y108.07 E10.78454
G1 X116.633 Y109.205 E10.83276
G1 X116.689 Y109.889 E10.86129
G1 X116.65 Y110.779 E10.89833
G1 X116.59 Y111.244 E10.91782
G1 X116.519 Y111.507 E10.92915
G1 X116.168 Y112.59 E10.97648
G1 X115.924 Y113.133 E11.00123
G1 X115.676 Y113.556 E11.02161
G1 X115.379 Y113.97 E11.0428
G1 X114.716 Y114.732 E11.08479
G1 X114.205 Y115.189 E11.11329
G1 X113.317 Y115.803 E11.15818
G1 X112.828 Y116.072 E11.18138
G1 X112.322 Y116.287 E11.20424
G1 X111.747 Y116.46 E11.2292
G1 X110.742 Y116.646 E11.27169
G1 X110.089 Y116.688 E11.2989
G1 X109.085 Y116.632 E11.3407
G1 X108.475 Y116.528 E11.36643
G1 X107.994 Y116.389 E11.38725
G1 X107.546 Y116.216 E11.40721
G1 X106.594 Y115.749 E11.4513
G1 X106.077 Y115.419 E11.4768
G1 X105.634 Y115.061 E11.50048
G1 X105.3 Y114.742 E11.51968
G1 X104.66 Y114.017 E11.55989
G1 X104.381 Y113.64 E11.57938
G1 X104.248 Y113.397 E11.5909
G1 X103.752 Y112.374 E11.63817
G1 X103.584 Y111.936 E11.65767
G1 X103.518 Y111.654 E11.66971
G1 X103.35 Y110.707 E11.7097
G1 X103.314 Y110.052 E11.73697
G1 X103.377 Y109.066 E11.77805
G1 X103.446 Y108.602 E11.79755
G1 X103.554 Y108.254 E11.8127
G1 X104.034 Y107.005 E11.86833
G1 X104.239 Y106.584 E11.8878
G1 X104.386 Y106.362 E11.89887
G1 X104.887 Y105.681 E11.93402
G1 X105.328 Y105.21 E11.96084
