;FLAVOR:Marlin
;TIME:4145
;Filament used: 2.4707m
;Layer height: 0.16
;Generated with Cura_SteamEngine 4.0.0
M140 S60
M105
M190 S60
M104 S215
M105
M109 S215
M82 ;absolute extrusion mode
M201 X500.00 Y500.00 Z100.00 E5000.00 ;Setup machine max acceleration
M203 X500.00 Y500.00 Z10.00 E50.00 ;Setup machine max feedrate
M204 P500.00 R1000.00 T500.00 ;Setup Print/Retract/Travel acceleration
M205 X8.00 Y8.00 Z0.40 E5.00 ;Setup Jerk
M220 S100 ;Reset Feedrate
M221 S100 ;Reset Flowrate

G28 ;Home

G92 E0 ;Reset Extruder
G1 Z2.0 F3000 ;Move Z Axis up
G1 X10.1 Y20 Z0.28 F5000.0 ;Move to start position
G1 X10.1 Y200.0 Z0.28 F1500.0 E15 ;Draw the first line
G1 X10.4 Y200.0 Z0.28 F5000.0 ;Move to side a little
G1 X10.4 Y20 Z0.28 F1500.0 E30 ;Draw the second line
G92 E0 ;Reset Extruder
G1 Z2.0 F3000 ;Move Z Axis up

G92 E0
G1 F2700 E-5
;LAYER_COUNT:143
;LAYER:0
M107
G0 F6000 X109.7 Y109.826 Z0.2
;TYPE:SKIRT
G1 F2700 E0
G1 F1200 X110 Y109.653 E0.0144
G1 X110.3 Y109.826 E0.0288
G1 X110.3 Y110.174 E0.04326
G1 X110 Y110.347 E0.05766
G1 X109.7 Y110.174 E0.07206
G1 X109.7 Y109.826 E0.08653
G0 F6000 X109.2 Y109.538
G1 F1200 X110 Y109.075 E0.12496
G1 X110.8 Y109.538 E0.16339
G1 X110.8 Y110.462 E0.2018
G1 X110 Y110.925 E0.24023
G1 X109.2 Y110.462 E0.27866
G1 X109.2 Y109.538 E0.31707
G0 F6000 X108.7 Y109.249
G1 F1200 X110 Y108.497 E0.37951
G1 X111.3 Y109.249 E0.44195
G1 X111.3 Y110.751 E0.5044
G1 X110 Y111.503 E0.56684
G1 X108.7 Y110.751 E0.62928
G1 X108.7 Y109.249 E0.69172
G0 F6000 X108.2 Y108.96
G1 F1200 X110 Y107.92 E0.77815
G1 X111.8 Y108.96 E0.86458
G1 X111.8 Y111.04 E0.95105
G1 X110 Y112.08 E1.03748
G1 X108.2 Y111.04 E1.12391
G1 X108.2 Y108.96 E1.21039
G0 F6000 X107.7 Y108.671
G1 F1200 X110 Y107.343 E1.32081
G1 X112.3 Y108.671 E1.43122
G1 X112.3 Y111.329 E1.54173
G1 X110 Y112.657 E1.65215
G1 X107.7 Y111.329 E1.76257
G1 X107.7 Y108.671 E1.87307
G0 F6000 X107.2 Y108.383
G1 F1200 X110 Y106.765 E2.00752
G1 X112.8 Y108.383 E2.14197
G1 X112.8 Y111.617 E2.27642
G1 X110 Y113.235 E2.41087
G1 X107.2 Y111.617 E2.54532
G1 X107.2 Y108.383 E2.67978
G1 F2700 E-2.32022
G1 F300 Z0.4
G0 F6000 X102.66 Y105.243 Z0.4
G1 F300 Z0.2
G1 F2700 E2.67978
G1 F1200 X102.694 Y105.19 E2.68239
G1 X102.613 Y105.134 E2.68649
G1 X102.509 Y104.965 E2.69474
G1 X102.478 Y104.75 E2.70377
G1 X102.528 Y104.56 E2.71194
G1 X102.944 Y104.029 E2.73998
G1 X103.115 Y103.934 E2.74811
G1 X103.327 Y103.912 E2.75698
G1 X103.514 Y103.97 E2.76512
G1 X103.597 Y104.04 E2.76963
G1 X103.64 Y103.993 E2.77228
G1 X103.571 Y103.924 E2.77633
G1 X103.497 Y103.74 E2.78458
G1 X103.503 Y103.525 E2.79352
G1 X103.586 Y103.346 E2.80173
G1 X104.09 Y102.894 E2.82987
G1 X104.275 Y102.831 E2.838
G1 X104.486 Y102.846 E2.84679
G1 X104.659 Y102.934 E2.85486
G1 X104.73 Y103.018 E2.85943
G1 X104.78 Y102.98 E2.86204
G1 X104.724 Y102.9 E2.8661
G1 X104.683 Y102.705 E2.87439
G1 X104.727 Y102.494 E2.88335
G1 X104.84 Y102.333 E2.89153
G1 X105.413 Y101.977 E2.91957
G1 X105.606 Y101.946 E2.9277
G1 X105.81 Y101.997 E2.93644
G1 X105.965 Y102.115 E2.94454
G1 X106.021 Y102.212 E2.9492
G1 X106.079 Y102.182 E2.95191
G1 X106.037 Y102.092 E2.95604
G1 X106.031 Y101.893 E2.96432
G1 X106.112 Y101.692 E2.97333
G1 X106.252 Y101.553 E2.98153
G1 X106.88 Y101.303 E3.00963
G1 X107.073 Y101.306 E3.01766
G1 X107.265 Y101.391 E3.02639
G1 X107.398 Y101.533 E3.03448
G1 X107.437 Y101.639 E3.03917
G1 X107.496 Y101.621 E3.04174
G1 X107.47 Y101.524 E3.04591
G1 X107.498 Y101.328 E3.05414
G1 X107.61 Y101.145 E3.06306
G1 X107.771 Y101.031 E3.07127
G1 X108.433 Y100.891 E3.0994
G1 X108.624 Y100.928 E3.10749
G1 X108.8 Y101.046 E3.11629
G1 X108.907 Y101.21 E3.12444
G1 X108.927 Y101.322 E3.12917
G1 X108.993 Y101.314 E3.13193
G1 X108.985 Y101.205 E3.13647
G1 X109.049 Y101.019 E3.14465
G1 X109.192 Y100.861 E3.15351
G1 X109.37 Y100.779 E3.16166
G1 X110.046 Y100.76 E3.18978
G1 X110.226 Y100.829 E3.19779
G1 X110.376 Y100.972 E3.20641
G1 X110.453 Y101.148 E3.21439
G1 X110.455 Y101.265 E3.21926
G1 X110.513 Y101.268 E3.22167
G1 X110.521 Y101.169 E3.2258
G1 X110.614 Y100.995 E3.234
G1 X110.782 Y100.861 E3.24294
G1 X110.974 Y100.809 E3.25121
G1 X111.645 Y100.906 E3.2794
G1 X111.811 Y101.006 E3.28745
G1 X111.935 Y101.176 E3.2962
G1 X111.979 Y101.365 E3.30427
G1 X111.96 Y101.477 E3.30899
G1 X112.023 Y101.492 E3.31168
G1 X112.05 Y101.392 E3.31599
G1 X112.174 Y101.237 E3.32424
G1 X112.364 Y101.136 E3.33319
G1 X112.56 Y101.12 E3.34137
G1 X113.198 Y101.332 E3.36932
G1 X113.343 Y101.459 E3.37733
G1 X113.436 Y101.648 E3.38609
G1 X113.447 Y101.843 E3.39421
G1 X113.41 Y101.947 E3.3988
G1 X113.468 Y101.972 E3.40142
G1 X113.513 Y101.877 E3.40579
G1 X113.66 Y101.747 E3.41395
G1 X113.863 Y101.679 E3.42285
G1 X114.06 Y101.696 E3.43107
G1 X114.655 Y102.014 E3.45912
G1 X114.777 Y102.165 E3.46719
G1 X114.836 Y102.369 E3.47602
G1 X114.813 Y102.562 E3.4841
G1 X114.757 Y102.66 E3.48879
G1 X114.81 Y102.694 E3.49141
G1 X114.866 Y102.613 E3.49551
G1 X115.035 Y102.509 E3.50376
G1 X115.25 Y102.478 E3.51279
G1 X115.44 Y102.528 E3.52096
G1 X115.971 Y102.944 E3.549
G1 X116.066 Y103.115 E3.55713
G1 X116.088 Y103.327 E3.56599
G1 X116.03 Y103.514 E3.57413
G1 X115.96 Y103.597 E3.57865
G1 X116.007 Y103.64 E3.5813
G1 X116.076 Y103.571 E3.58535
G1 X116.26 Y103.497 E3.5936
G1 X116.475 Y103.503 E3.60254
G1 X116.654 Y103.586 E3.61074
G1 X117.106 Y104.09 E3.63889
G1 X117.169 Y104.275 E3.64702
G1 X117.154 Y104.486 E3.65581
G1 X117.066 Y104.659 E3.66388
G1 X116.982 Y104.73 E3.66845
G1 X117.02 Y104.78 E3.67106
G1 X117.1 Y104.724 E3.67512
G1 X117.295 Y104.683 E3.68341
G1 X117.506 Y104.727 E3.69237
G1 X117.667 Y104.84 E3.70055
G1 X118.023 Y105.413 E3.72859
G1 X118.054 Y105.606 E3.73672
G1 X118.003 Y105.81 E3.74546
G1 X117.885 Y105.965 E3.75356
G1 X117.788 Y106.021 E3.75822
G1 X117.818 Y106.079 E3.76093
G1 X117.908 Y106.037 E3.76506
G1 X118.107 Y106.031 E3.77334
G1 X118.308 Y106.112 E3.78235
G1 X118.447 Y106.252 E3.79055
G1 X118.697 Y106.88 E3.81865
G1 X118.694 Y107.073 E3.82668
G1 X118.609 Y107.265 E3.83541
G1 X118.467 Y107.398 E3.8435
G1 X118.361 Y107.437 E3.84819
G1 X118.379 Y107.496 E3.85076
G1 X118.476 Y107.47 E3.85493
G1 X118.672 Y107.498 E3.86316
G1 X118.855 Y107.61 E3.87208
G1 X118.969 Y107.771 E3.88028
G1 X119.109 Y108.433 E3.90842
G1 X119.072 Y108.624 E3.9165
G1 X118.954 Y108.8 E3.92531
G1 X118.79 Y108.907 E3.93346
G1 X118.678 Y108.927 E3.93819
G1 X118.686 Y108.993 E3.94095
G1 X118.795 Y108.985 E3.94549
G1 X118.981 Y109.049 E3.95367
G1 X119.139 Y109.192 E3.96253
G1 X119.221 Y109.37 E3.97068
G1 X119.24 Y110.046 E3.99879
G1 X119.171 Y110.226 E4.00681
G1 X119.028 Y110.376 E4.01543
G1 X118.852 Y110.453 E4.02341
G1 X118.735 Y110.455 E4.02828
G1 X118.732 Y110.513 E4.03069
G1 X118.831 Y110.521 E4.03482
G1 X119.005 Y110.614 E4.04302
G1 X119.139 Y110.782 E4.05196
G1 X119.191 Y110.974 E4.06023
G1 X119.094 Y111.645 E4.08842
G1 X118.994 Y111.811 E4.09647
G1 X118.824 Y111.935 E4.10522
G1 X118.635 Y111.979 E4.11329
G1 X118.523 Y111.96 E4.11801
G1 X118.508 Y112.023 E4.1207
G1 X118.608 Y112.05 E4.12501
G1 X118.763 Y112.174 E4.13326
G1 X118.864 Y112.364 E4.14221
G1 X118.88 Y112.56 E4.15038
G1 X118.668 Y113.198 E4.17834
G1 X118.541 Y113.344 E4.18638
G1 X118.351 Y113.437 E4.19518
G1 X118.156 Y113.447 E4.20329
G1 X118.053 Y113.41 E4.20784
G1 X118.028 Y113.468 E4.21047
G1 X118.123 Y113.513 E4.21484
G1 X118.253 Y113.66 E4.223
G1 X118.321 Y113.863 E4.2319
G1 X118.304 Y114.06 E4.24012
G1 X117.986 Y114.655 E4.26817
G1 X117.835 Y114.777 E4.27624
G1 X117.631 Y114.836 E4.28507
G1 X117.438 Y114.813 E4.29315
G1 X117.34 Y114.757 E4.29784
G1 X117.306 Y114.81 E4.30046
G1 X117.387 Y114.866 E4.30455
G1 X117.491 Y115.035 E4.3128
G1 X117.522 Y115.25 E4.32183
G1 X117.472 Y115.44 E4.33
G1 X117.056 Y115.971 E4.35805
G1 X116.885 Y116.066 E4.36618
G1 X116.673 Y116.088 E4.37504
G1 X116.486 Y116.03 E4.38318
G1 X116.403 Y115.96 E4.3877
G1 X116.36 Y116.007 E4.39034
G1 X116.429 Y116.076 E4.3944
G1 X116.503 Y116.26 E4.40265
G1 X116.497 Y116.475 E4.41159
G1 X116.414 Y116.654 E4.41979
G1 X115.91 Y117.106 E4.44794
G1 X115.725 Y117.169 E4.45606
G1 X115.514 Y117.154 E4.46486
G1 X115.341 Y117.066 E4.47293
G1 X115.27 Y116.982 E4.4775
G1 X115.22 Y117.02 E4.48011
G1 X115.276 Y117.1 E4.48417
G1 X115.317 Y117.295 E4.49245
G1 X115.273 Y117.506 E4.50142
G1 X115.16 Y117.667 E4.50959
G1 X114.587 Y118.023 E4.53764
G1 X114.394 Y118.054 E4.54577
G1 X114.19 Y118.003 E4.55451
G1 X114.035 Y117.885 E4.56261
G1 X113.979 Y117.788 E4.56726
G1 X113.921 Y117.818 E4.56998
G1 X113.963 Y117.908 E4.57411
G1 X113.969 Y118.107 E4.58239
G1 X113.888 Y118.308 E4.59139
G1 X113.748 Y118.447 E4.5996
G1 X113.12 Y118.697 E4.6277
G1 X112.927 Y118.694 E4.63572
G1 X112.735 Y118.609 E4.64445
G1 X112.602 Y118.467 E4.65254
G1 X112.563 Y118.361 E4.65724
G1 X112.504 Y118.379 E4.6598
G1 X112.53 Y118.476 E4.66398
G1 X112.502 Y118.672 E4.67221
G1 X112.39 Y118.855 E4.68113
G1 X112.229 Y118.969 E4.68933
G1 X111.567 Y119.109 E4.71746
G1 X111.376 Y119.072 E4.72555
G1 X111.2 Y118.954 E4.73436
G1 X111.093 Y118.79 E4.7425
G1 X111.073 Y118.678 E4.74723
G1 X111.007 Y118.686 E4.75
G1 X111.015 Y118.795 E4.75454
G1 X110.951 Y118.981 E4.76272
G1 X110.808 Y119.139 E4.77158
G1 X110.63 Y119.221 E4.77973
G1 X109.954 Y119.24 E4.80784
G1 X109.774 Y119.171 E4.81586
G1 X109.624 Y119.028 E4.82447
G1 X109.547 Y118.852 E4.83246
G1 X109.545 Y118.735 E4.83732
G1 X109.487 Y118.732 E4.83974
G1 X109.479 Y118.831 E4.84387
G1 X109.386 Y119.005 E4.85207
G1 X109.218 Y119.139 E4.861
G1 X109.026 Y119.191 E4.86927
G1 X108.355 Y119.094 E4.89746
G1 X108.189 Y118.994 E4.90552
G1 X108.065 Y118.824 E4.91427
G1 X108.021 Y118.635 E4.92233
G1 X108.04 Y118.523 E4.92706
G1 X107.977 Y118.508 E4.92975
G1 X107.95 Y118.608 E4.93406
G1 X107.826 Y118.763 E4.94231
G1 X107.636 Y118.864 E4.95126
G1 X107.44 Y118.88 E4.95943
G1 X106.802 Y118.668 E4.98738
G1 X106.656 Y118.541 E4.99543
G1 X106.563 Y118.351 E5.00422
G1 X106.553 Y118.156 E5.01234
G1 X106.59 Y118.053 E5.01689
G1 X106.532 Y118.028 E5.01952
G1 X106.487 Y118.123 E5.02389
G1 X106.34 Y118.253 E5.03204
G1 X106.137 Y118.321 E5.04095
G1 X105.94 Y118.304 E5.04917
G1 X105.345 Y117.986 E5.07721
G1 X105.223 Y117.835 E5.08529
G1 X105.164 Y117.631 E5.09411
G1 X105.187 Y117.438 E5.1022
G1 X105.243 Y117.34 E5.10689
G1 X105.19 Y117.306 E5.10951
G1 X105.134 Y117.387 E5.1136
G1 X104.965 Y117.491 E5.12185
G1 X104.75 Y117.522 E5.13088
G1 X104.56 Y117.472 E5.13905
G1 X104.029 Y117.056 E5.16709
G1 X103.934 Y116.885 E5.17523
G1 X103.912 Y116.673 E5.18409
G1 X103.97 Y116.486 E5.19223
G1 X104.04 Y116.403 E5.19674
G1 X103.993 Y116.36 E5.19939
G1 X103.924 Y116.429 E5.20345
G1 X103.74 Y116.503 E5.21169
G1 X103.525 Y116.497 E5.22063
G1 X103.346 Y116.414 E5.22884
G1 X102.894 Y115.91 E5.25698
G1 X102.831 Y115.725 E5.26511
G1 X102.846 Y115.514 E5.2739
G1 X102.934 Y115.341 E5.28197
G1 X103.018 Y115.27 E5.28655
G1 X102.98 Y115.22 E5.28916
G1 X102.9 Y115.276 E5.29322
G1 X102.705 Y115.317 E5.3015
G1 X102.494 Y115.273 E5.31046
G1 X102.333 Y115.16 E5.31864
G1 X101.977 Y114.587 E5.34669
G1 X101.946 Y114.394 E5.35481
G1 X101.997 Y114.19 E5.36355
G1 X102.115 Y114.035 E5.37165
G1 X102.212 Y113.979 E5.37631
G1 X102.182 Y113.921 E5.37903
G1 X102.092 Y113.963 E5.38315
G1 X101.893 Y113.969 E5.39143
G1 X101.692 Y113.888 E5.40044
G1 X101.553 Y113.748 E5.40864
G1 X101.303 Y113.12 E5.43675
G1 X101.306 Y112.927 E5.44477
G1 X101.391 Y112.735 E5.4535
G1 X101.533 Y112.602 E5.46159
G1 X101.639 Y112.563 E5.46628
G1 X101.621 Y112.504 E5.46885
G1 X101.524 Y112.53 E5.47302
G1 X101.328 Y112.502 E5.48126
G1 X101.145 Y112.39 E5.49018
G1 X101.031 Y112.229 E5.49838
G1 X100.891 Y111.567 E5.52651
G1 X100.928 Y111.376 E5.5346
G1 X101.046 Y111.2 E5.54341
G1 X101.21 Y111.093 E5.55155
G1 X101.322 Y111.073 E5.55628
G1 X101.314 Y111.007 E5.55904
G1 X101.205 Y111.015 E5.56359
G1 X101.019 Y110.951 E5.57176
G1 X100.861 Y110.808 E5.58062
G1 X100.779 Y110.63 E5.58877
G1 X100.76 Y109.959 E5.61668
G1 X100.83 Y109.779 E5.62471
G1 X100.976 Y109.627 E5.63347
G1 X101.155 Y109.55 E5.64157
G1 X101.265 Y109.55 E5.64615
G1 X101.269 Y109.487 E5.64877
G1 X101.169 Y109.479 E5.65294
G1 X100.995 Y109.386 E5.66114
G1 X100.861 Y109.218 E5.67008
G1 X100.809 Y109.026 E5.67835
G1 X100.906 Y108.355 E5.70654
G1 X101.006 Y108.189 E5.71459
G1 X101.176 Y108.065 E5.72334
G1 X101.365 Y108.021 E5.73141
G1 X101.477 Y108.04 E5.73613
G1 X101.492 Y107.977 E5.73882
G1 X101.392 Y107.95 E5.74313
G1 X101.237 Y107.826 E5.75138
G1 X101.136 Y107.636 E5.76033
G1 X101.12 Y107.44 E5.76851
G1 X101.332 Y106.802 E5.79646
G1 X101.459 Y106.656 E5.8045
G1 X101.649 Y106.563 E5.8133
G1 X101.844 Y106.553 E5.82141
G1 X101.947 Y106.59 E5.82596
G1 X101.972 Y106.532 E5.82859
G1 X101.877 Y106.487 E5.83296
G1 X101.747 Y106.34 E5.84112
G1 X101.679 Y106.137 E5.85002
G1 X101.696 Y105.94 E5.85824
G1 X102.014 Y105.345 E5.88629
G1 X102.165 Y105.223 E5.89436
G1 X102.369 Y105.164 E5.90319
G1 X102.562 Y105.187 E5.91127
G1 X102.66 Y105.243 E5.91596
G0 F6000 X101.984 Y104.767
G1 F1200 X101.988 Y104.577 E5.92386
G1 X102.135 Y104.251 E5.93873
G1 X102.551 Y103.72 E5.96678
G1 X102.73 Y103.555 E5.9769
G1 X103.014 Y103.455 E5.98941
G1 X103.05 Y103.271 E5.99721
G1 X103.252 Y102.974 E6.01214
G1 X103.756 Y102.522 E6.04029
G1 X103.962 Y102.39 E6.05046
G1 X104.258 Y102.341 E6.06293
G1 X104.326 Y102.164 E6.07082
G1 X104.576 Y101.908 E6.08569
G1 X105.149 Y101.552 E6.11374
G1 X105.375 Y101.459 E6.1239
G1 X105.675 Y101.461 E6.13637
G1 X105.775 Y101.296 E6.14439
G1 X106.067 Y101.088 E6.1593
G1 X106.695 Y100.838 E6.1874
G1 X106.933 Y100.786 E6.19753
G1 X107.222 Y100.839 E6.20975
G1 X107.343 Y100.7 E6.21741
G1 X107.668 Y100.542 E6.23243
G1 X108.33 Y100.402 E6.26056
G1 X108.574 Y100.391 E6.27072
G1 X108.858 Y100.496 E6.28331
G1 X109.012 Y100.374 E6.29147
G1 X109.356 Y100.279 E6.30631
G1 X110.032 Y100.26 E6.33443
G1 X110.274 Y100.293 E6.34458
G1 X110.524 Y100.44 E6.35664
G1 X110.683 Y100.351 E6.36421
G1 X111.045 Y100.314 E6.37934
G1 X111.716 Y100.411 E6.40753
G1 X111.949 Y100.485 E6.41769
G1 X112.177 Y100.679 E6.43014
G1 X112.36 Y100.617 E6.43817
G1 X112.718 Y100.645 E6.4531
G1 X113.356 Y100.857 E6.48105
G1 X113.572 Y100.971 E6.49121
G1 X113.758 Y101.196 E6.50334
G1 X113.945 Y101.166 E6.51122
G1 X114.296 Y101.255 E6.52627
G1 X114.891 Y101.573 E6.55432
G1 X115.084 Y101.721 E6.56443
G1 X115.233 Y101.984 E6.577
G1 X115.423 Y101.988 E6.5849
G1 X115.749 Y102.135 E6.59977
G1 X116.28 Y102.551 E6.62781
G1 X116.445 Y102.73 E6.63794
G1 X116.545 Y103.014 E6.65045
G1 X116.729 Y103.05 E6.65825
G1 X117.026 Y103.252 E6.67318
G1 X117.478 Y103.756 E6.70133
G1 X117.61 Y103.962 E6.7115
G1 X117.659 Y104.258 E6.72397
G1 X117.836 Y104.326 E6.73186
G1 X118.092 Y104.576 E6.74673
G1 X118.448 Y105.149 E6.77478
G1 X118.541 Y105.375 E6.78494
G1 X118.539 Y105.675 E6.79741
G1 X118.704 Y105.775 E6.80543
G1 X118.912 Y106.067 E6.82034
G1 X119.162 Y106.695 E6.84844
G1 X119.214 Y106.933 E6.85857
G1 X119.161 Y107.222 E6.87078
G1 X119.3 Y107.343 E6.87845
G1 X119.458 Y107.668 E6.89347
G1 X119.598 Y108.33 E6.9216
G1 X119.609 Y108.574 E6.93176
G1 X119.504 Y108.858 E6.94434
G1 X119.626 Y109.012 E6.95251
G1 X119.721 Y109.356 E6.96735
G1 X119.74 Y110.032 E6.99547
G1 X119.707 Y110.274 E7.00562
G1 X119.56 Y110.524 E7.01768
G1 X119.649 Y110.683 E7.02525
G1 X119.686 Y111.045 E7.04038
G1 X119.589 Y111.716 E7.06857
G1 X119.515 Y111.949 E7.07873
G1 X119.321 Y112.177 E7.09118
G1 X119.383 Y112.36 E7.09921
G1 X119.355 Y112.718 E7.11414
G1 X119.143 Y113.356 E7.14209
G1 X119.029 Y113.572 E7.15225
G1 X118.804 Y113.758 E7.16438
G1 X118.834 Y113.945 E7.17226
G1 X118.745 Y114.296 E7.18731
G1 X118.427 Y114.891 E7.21536
G1 X118.279 Y115.084 E7.22547
G1 X118.016 Y115.233 E7.23804
G1 X118.012 Y115.423 E7.24594
G1 X117.865 Y115.749 E7.26081
G1 X117.449 Y116.28 E7.28885
G1 X117.27 Y116.445 E7.29897
G1 X116.986 Y116.545 E7.31149
G1 X116.95 Y116.729 E7.31929
G1 X116.748 Y117.026 E7.33422
G1 X116.244 Y117.478 E7.36237
G1 X116.038 Y117.61 E7.37254
G1 X115.742 Y117.659 E7.38501
G1 X115.674 Y117.836 E7.39289
G1 X115.424 Y118.092 E7.40777
G1 X114.851 Y118.448 E7.43582
G1 X114.625 Y118.541 E7.44598
G1 X114.325 Y118.539 E7.45845
G1 X114.225 Y118.704 E7.46647
G1 X113.933 Y118.912 E7.48138
