;FLAVOR:Marlin
;TIME:9824
;Filament used: 7.28181m
;Layer height: 0.16
;Generated with Cura_SteamEngine 4.0.0
M140 S60
M105
M190 S60
M104 S215
M105
M109 S215
M82 ;absolute extrusion mode
M201 X500.00 Y500.00 Z100.00 E5000.00 ;Setup machine max acceleration
M203 X500.00 Y500.00 Z10.00 E50.00 ;Setup machine max feedrate
M204 P500.00 R1000.00 T500.00 ;Setup Print/Retract/Travel acceleration
M205 X8.00 Y8.00 Z0.40 E5.00 ;Setup Jerk
M220 S100 ;Reset Feedrate
M221 S100 ;Reset Flowrate

G28 ;Home

G92 E0 ;Reset Extruder
G1 Z2.0 F3000 ;Move Z Axis up
G1 X10.1 Y20 Z0.28 F5000.0 ;Move to start position
G1 X10.1 Y200.0 Z0.28 F1500.0 E15 ;Draw the first line
G1 X10.4 Y200.0 Z0.28 F5000.0 ;Move to side a little
G1 X10.4 Y20 Z0.28 F1500.0 E30 ;Draw the second line
G92 E0 ;Reset Extruder
G1 Z2.0 F3000 ;Move Z Axis up

G92 E0
G1 F2700 E-5
;LAYER_COUNT:65
;LAYER:0
M107
G0 F6000 X63.576 Y141.22 Z0.2
;TYPE:SKIRT
G1 F2700 E0
G1 F1200 X141.22 Y63.576 E4.56517
G1 X141.579 Y63.275 E4.58465
G1 X141.983 Y63.038 E4.60412
G1 X142.422 Y62.873 E4.62362
G1 X142.882 Y62.786 E4.64308
G1 X143.351 Y62.777 E4.66258
G1 X143.814 Y62.849 E4.68207
G1 X144.258 Y62.998 E4.70154
G1 X144.671 Y63.22 E4.72103
G1 X145.11 Y63.576 E4.74453
G1 X156.424 Y74.89 E5.40975
G1 X156.725 Y75.249 E5.42923
G1 X156.962 Y75.653 E5.4487
G1 X157.127 Y76.092 E5.4682
G1 X157.214 Y76.552 E5.48766
G1 X157.223 Y77.021 E5.50716
G1 X157.151 Y77.484 E5.52664
G1 X157.002 Y77.928 E5.54611
G1 X156.78 Y78.341 E5.56561
G1 X156.424 Y78.78 E5.58911
G1 X78.78 Y156.424 E10.15428
G1 X78.421 Y156.725 E10.17375
G1 X78.017 Y156.962 E10.19323
G1 X77.578 Y157.127 E10.21273
G1 X77.118 Y157.214 E10.23219
G1 X76.649 Y157.223 E10.25169
G1 X76.186 Y157.151 E10.27117
G1 X75.742 Y157.002 E10.29064
G1 X75.329 Y156.78 E10.31014
G1 X74.89 Y156.424 E10.33364
G1 X63.576 Y145.11 E10.99886
G1 X63.275 Y144.751 E11.01833
G1 X63.038 Y144.347 E11.03781
G1 X62.873 Y143.908 E11.0573
G1 X62.786 Y143.448 E11.07677
G1 X62.777 Y142.979 E11.09627
G1 X62.849 Y142.516 E11.11575
G1 X62.998 Y142.072 E11.13522
G1 X63.22 Y141.659 E11.15472
G1 X63.576 Y141.22 E11.17821
G0 F6000 X63.93 Y141.574
G1 F1200 X141.574 Y63.93 E15.74338
G1 X141.901 Y63.66 E15.76101
G1 X142.272 Y63.456 E15.77862
G1 X142.675 Y63.325 E15.79624
G1 X143.096 Y63.272 E15.81388
G1 X143.518 Y63.299 E15.83146
G1 X143.929 Y63.405 E15.8491
G1 X144.312 Y63.585 E15.8667
G1 X144.756 Y63.93 E15.89007
G1 X156.07 Y75.244 E16.55529
G1 X156.34 Y75.571 E16.57293
G1 X156.544 Y75.942 E16.59053
G1 X156.675 Y76.345 E16.60815
G1 X156.728 Y76.766 E16.62579
G1 X156.701 Y77.188 E16.64337
G1 X156.595 Y77.599 E16.66101
G1 X156.415 Y77.982 E16.67861
G1 X156.07 Y78.426 E16.70198
G1 X78.426 Y156.07 E21.26715
G1 X78.099 Y156.34 E21.28478
G1 X77.728 Y156.544 E21.30239
G1 X77.325 Y156.675 E21.32001
G1 X76.904 Y156.728 E21.33765
G1 X76.482 Y156.701 E21.35523
G1 X76.071 Y156.595 E21.37287
G1 X75.688 Y156.415 E21.39047
G1 X75.244 Y156.07 E21.41384
G1 X63.93 Y144.756 E22.07906
G1 X63.66 Y144.429 E22.09669
G1 X63.456 Y144.058 E22.1143
G1 X63.325 Y143.655 E22.13192
G1 X63.272 Y143.234 E22.14956
G1 X63.299 Y142.812 E22.16714
G1 X63.405 Y142.401 E22.18478
G1 X63.585 Y142.018 E22.20238
G1 X63.93 Y141.574 E22.22575
G0 F6000 X64.284 Y141.928
G1 F1200 X141.928 Y64.284 E26.79092
G1 X142.218 Y64.049 E26.80644
G1 X142.552 Y63.882 E26.82197
G1 X142.914 Y63.789 E26.83751
G1 X143.288 Y63.775 E26.85307
G1 X143.656 Y63.841 E26.86861
G1 X144.001 Y63.984 E26.88414
G1 X144.402 Y64.284 E26.90496
G1 X155.716 Y75.598 E27.57018
G1 X155.951 Y75.888 E27.5857
G1 X156.118 Y76.222 E27.60122
G1 X156.211 Y76.584 E27.61676
G1 X156.225 Y76.958 E27.63232
G1 X156.159 Y77.326 E27.64786
G1 X156.016 Y77.671 E27.66339
G1 X155.716 Y78.072 E27.68421
G1 X78.072 Y155.716 E32.24938
G1 X77.782 Y155.951 E32.2649
G1 X77.448 Y156.118 E32.28043
G1 X77.086 Y156.211 E32.29596
G1 X76.712 Y156.225 E32.31152
G1 X76.344 Y156.159 E32.32707
G1 X75.999 Y156.016 E32.34259
G1 X75.598 Y155.716 E32.36342
G1 X64.284 Y144.402 E33.02864
G1 X64.049 Y144.112 E33.04415
G1 X63.882 Y143.778 E33.05968
G1 X63.789 Y143.416 E33.07522
G1 X63.775 Y143.042 E33.09078
G1 X63.841 Y142.674 E33.10632
G1 X63.984 Y142.329 E33.12185
G1 X64.284 Y141.928 E33.14267
G0 F6000 X64.637 Y142.281
G1 F1200 X142.281 Y64.637 E37.70784
G1 X142.531 Y64.444 E37.72097
G1 X142.821 Y64.319 E37.7341
G1 X143.133 Y64.271 E37.74722
G1 X143.447 Y64.303 E37.76035
G1 X143.743 Y64.412 E37.77346
G1 X144.049 Y64.637 E37.78925
G1 X155.363 Y75.951 E38.45447
G1 X155.556 Y76.201 E38.4676
G1 X155.681 Y76.491 E38.48073
G1 X155.729 Y76.803 E38.49385
G1 X155.697 Y77.117 E38.50698
G1 X155.588 Y77.413 E38.52009
G1 X155.363 Y77.719 E38.53588
G1 X77.719 Y155.363 E43.10105
G1 X77.469 Y155.556 E43.11418
G1 X77.179 Y155.681 E43.12731
G1 X76.867 Y155.729 E43.14043
G1 X76.553 Y155.697 E43.15356
G1 X76.257 Y155.588 E43.16667
G1 X75.951 Y155.363 E43.18246
G1 X64.637 Y144.049 E43.84768
G1 X64.444 Y143.799 E43.86081
G1 X64.319 Y143.509 E43.87394
G1 X64.271 Y143.197 E43.88707
G1 X64.303 Y142.883 E43.90019
G1 X64.412 Y142.587 E43.9133
G1 X64.637 Y142.281 E43.92909
G0 F6000 X64.991 Y142.635
G1 F1200 X142.635 Y64.991 E48.49426
G1 X142.833 Y64.848 E48.50442
G1 X143.067 Y64.777 E48.51458
G1 X143.311 Y64.785 E48.52473
G1 X143.539 Y64.871 E48.53486
G1 X143.695 Y64.991 E48.54305
G1 X155.009 Y76.305 E49.20827
G1 X155.152 Y76.503 E49.21842
G1 X155.223 Y76.737 E49.22859
G1 X155.215 Y76.981 E49.23874
G1 X155.129 Y77.209 E49.24887
G1 X155.009 Y77.365 E49.25705
G1 X77.365 Y155.009 E53.82222
G1 X77.167 Y155.152 E53.83238
G1 X76.933 Y155.223 E53.84254
G1 X76.689 Y155.215 E53.85269
G1 X76.461 Y155.129 E53.86282
G1 X76.305 Y155.009 E53.87101
G1 X64.991 Y143.695 E54.53622
G1 X64.848 Y143.497 E54.54638
G1 X64.777 Y143.263 E54.55655
G1 X64.785 Y143.019 E54.5667
G1 X64.871 Y142.791 E54.57683
G1 X64.991 Y142.635 E54.58501
G0 F6000 X65.344 Y142.988
G1 F1200 X142.988 Y65.344 E59.15018
G1 X143.111 Y65.277 E59.156
G1 X143.251 Y65.286 E59.16183
G1 X143.342 Y65.344 E59.16632
G1 X154.656 Y76.658 E59.83154
G1 X154.723 Y76.781 E59.83736
G1 X154.714 Y76.921 E59.8432
G1 X154.656 Y77.012 E59.84768
G1 X77.012 Y154.656 E64.41285
G1 X76.889 Y154.723 E64.41868
G1 X76.749 Y154.714 E64.42451
G1 X76.658 Y154.656 E64.42899
G1 X65.344 Y143.342 E65.09421
G1 X65.277 Y143.219 E65.10004
G1 X65.286 Y143.079 E65.10587
G1 X65.344 Y142.988 E65.11036
G1 F2700 E60.11036
G1 F300 Z0.4
;MESH:FGC-9_Upper_Receiver_Rail.stl
G0 F6000 X76.835 Y154.125 Z0.4
;TYPE:WALL-OUTER
G1 F300 Z0.2
G1 F2700 E65.11036
G1 F1200 X65.875 Y143.165 E65.75476
G1 X143.165 Y65.875 E70.29912
G1 X154.125 Y76.835 E70.94352
G1 X76.835 Y154.125 E75.48788
G0 F6000 X76.694 Y153.984
G1 F2700 E70.48788
G1 F300 Z0.4
G0 F6000 X84.302 Y137.753 Z0.4
G1 F300 Z0.2
G1 F2700 E75.48788
G1 F1200 X84.909 Y137.585 E75.51407
G1 X85.21 Y137.409 E75.52856
G1 X85.652 Y136.96 E75.55476
G1 X85.825 Y136.657 E75.56926
G1 X85.986 Y136.036 E75.59593
G1 X85.925 Y135.387 E75.62304
G1 X85.645 Y134.798 E75.65015
G1 X85.188 Y134.348 E75.67681
G1 X84.895 Y134.181 E75.69084
G1 X84.587 Y134.071 E75.70443
G1 X84.254 Y134.015 E75.71847
G1 X83.616 Y134.075 E75.74511
G1 X83.026 Y134.355 E75.77226
G1 X82.576 Y134.812 E75.79893
G1 X82.403 Y135.115 E75.81344
G1 X82.245 Y135.724 E75.83959
G1 X82.247 Y136.073 E75.8541
G1 X82.415 Y136.681 E75.88033
G1 X82.591 Y136.982 E75.89482
G1 X83.04 Y137.424 E75.92102
G1 X83.343 Y137.597 E75.93553
G1 X83.953 Y137.755 E75.96172
G1 X84.302 Y137.753 E75.97623
G0 F6000 X84.495 Y137.7
G1 F2700 E70.97623
G1 F300 Z0.4
G0 F6000 X135.746 Y85.985 Z0.4
G1 F300 Z0.2
G1 F2700 E75.97623
G1 F1200 X136.384 Y85.925 E76.00287
G1 X136.974 Y85.645 E76.03003
G1 X137.424 Y85.188 E76.05669
G1 X137.597 Y84.885 E76.0712
G1 X137.755 Y84.276 E76.09735
G1 X137.753 Y83.927 E76.11186
G1 X137.585 Y83.319 E76.13809
G1 X137.409 Y83.018 E76.15259
G1 X136.96 Y82.576 E76.17878
G1 X136.657 Y82.403 E76.19329
G1 X136.047 Y82.245 E76.21948
G1 X135.698 Y82.247 E76.23399
G1 X135.091 Y82.415 E76.26018
G1 X134.79 Y82.591 E76.27468
G1 X134.348 Y83.04 E76.30087
G1 X134.175 Y83.343 E76.31538
G1 X134.014 Y83.964 E76.34205
G1 X134.075 Y84.613 E76.36915
G1 X134.355 Y85.202 E76.39626
G1 X134.812 Y85.652 E76.42293
G1 X135.105 Y85.819 E76.43695
G1 X135.413 Y85.929 E76.45055
G1 X135.746 Y85.985 E76.46459
G0 F6000 X135.945 Y85.967
G1 F2700 E71.46459
G1 F300 Z0.4
G0 F6000 X76.835 Y153.417 Z0.4
;TYPE:WALL-INNER
G1 F300 Z0.2
G1 F2700 E76.46459
G1 F1200 X66.583 Y143.165 E77.06736
G1 X143.165 Y66.583 E81.57009
G1 X153.417 Y76.835 E82.17287
G1 X76.835 Y153.417 E86.6756
G1 F2700 E81.6756
G1 F300 Z0.4
G0 F6000 X84.371 Y138.253 Z0.4
G1 F300 Z0.2
G1 F2700 E86.6756
G1 F1200 X85.105 Y138.05 E86.70726
G1 X85.52 Y137.807 E86.72725
G1 X86.054 Y137.264 E86.75892
G1 X86.292 Y136.847 E86.77888
G1 X86.492 Y136.077 E86.81195
G1 X86.415 Y135.252 E86.8464
G1 X86.059 Y134.504 E86.88084
G1 X85.492 Y133.946 E86.91392
G1 X85.104 Y133.725 E86.93248
G1 X84.714 Y133.585 E86.94971
G1 X84.272 Y133.511 E86.96834
G1 X83.481 Y133.585 E87.00137
G1 X82.732 Y133.941 E87.03585
G1 X82.174 Y134.508 E87.06892
G1 X81.936 Y134.925 E87.08888
G1 X81.745 Y135.662 E87.12054
G1 X81.747 Y136.142 E87.14049
G1 X81.95 Y136.877 E87.1722
G1 X82.193 Y137.292 E87.19219
G1 X82.736 Y137.826 E87.22385
G1 X83.153 Y138.064 E87.24381
G1 X83.891 Y138.255 E87.27551
G1 X84.371 Y138.253 E87.29546
G1 F2700 E82.29546
G1 F300 Z0.4
G0 F6000 X135.728 Y86.489 Z0.4
G1 F300 Z0.2
G1 F2700 E87.29546
G1 F1200 X136.519 Y86.415 E87.32849
G1 X137.268 Y86.059 E87.36297
G1 X137.826 Y85.492 E87.39605
G1 X138.064 Y85.075 E87.41601
G1 X138.255 Y84.338 E87.44766
G1 X138.253 Y83.858 E87.46762
G1 X138.05 Y83.123 E87.49932
G1 X137.807 Y82.708 E87.51931
G1 X137.264 Y82.174 E87.55097
G1 X136.847 Y81.936 E87.57094
G1 X136.109 Y81.745 E87.60263
G1 X135.629 Y81.747 E87.62259
G1 X134.895 Y81.95 E87.65425
G1 X134.48 Y82.193 E87.67424
G1 X133.946 Y82.736 E87.7059
G1 X133.708 Y83.153 E87.72587
G1 X133.508 Y83.923 E87.75894
G1 X133.585 Y84.748 E87.79339
G1 X133.941 Y85.496 E87.82783
G1 X134.508 Y86.054 E87.86091
G1 X134.896 Y86.275 E87.87947
G1 X135.286 Y86.415 E87.8967
G1 X135.728 Y86.489 E87.91533
G1 F2700 E82.91533
G1 F300 Z0.4
G0 F6000 X76.835 Y152.709 Z0.4
G1 F300 Z0.2
G1 F2700 E87.91533
G1 F1200 X67.291 Y143.165 E88.47648
G1 X143.165 Y67.291 E92.93758
G1 X152.709 Y76.835 E93.49873
G1 X76.835 Y152.709 E97.95983
G1 F2700 E92.95983
G1 F300 Z0.4
G0 F6000 X84.44 Y138.753 Z0.4
G1 F300 Z0.2
G1 F2700 E97.95983
G1 F1200 X85.301 Y138.514 E97.99698
G1 X85.83 Y138.205 E98.02245
G1 X86.456 Y137.568 E98.05958
G1 X86.759 Y137.037 E98.085
G1 X86.998 Y136.118 E98.12448
G1 X86.905 Y135.117 E98.16627
G1 X86.473 Y134.209 E98.20808
G1 X85.796 Y133.544 E98.24753
G1 X85.314 Y133.269 E98.2706
G1 X84.841 Y133.099 E98.2915
G1 X84.29 Y133.007 E98.31473
G1 X83.346 Y133.095 E98.35414
G1 X82.438 Y133.527 E98.39595
G1 X81.772 Y134.204 E98.43543
G1 X81.469 Y134.735 E98.46085
G1 X81.245 Y135.599 E98.49796
G1 X81.247 Y136.211 E98.5234
G1 X81.485 Y137.073 E98.56058
G1 X81.795 Y137.602 E98.58607
G1 X82.432 Y138.228 E98.6232
G1 X82.963 Y138.531 E98.64862
G1 X83.828 Y138.755 E98.68577
G1 X84.44 Y138.753 E98.71121
G1 F2700 E93.71121
G1 F300 Z0.4
G0 F6000 X135.71 Y86.993 Z0.4
G1 F300 Z0.2
G1 F2700 E98.71121
G1 F1200 X136.654 Y86.905 E98.75063
G1 X137.562 Y86.473 E98.79244
G1 X138.228 Y85.796 E98.83192
G1 X138.531 Y85.265 E98.85734
G1 X138.755 Y84.401 E98.89444
G1 X138.753 Y83.789 E98.91989
G1 X138.515 Y82.927 E98.95707
G1 X138.205 Y82.398 E98.98256
G1 X137.568 Y81.772 E99.01969
G1 X137.037 Y81.469 E99.04511
G1 X136.172 Y81.245 E99.08226
G1 X135.56 Y81.247 E99.1077
G1 X134.699 Y81.486 E99.14485
G1 X134.17 Y81.795 E99.17032
G1 X133.544 Y82.432 E99.20745
G1 X133.241 Y82.963 E99.23287
G1 X133.002 Y83.882 E99.27235
G1 X133.095 Y84.883 E99.31414
G1 X133.527 Y85.791 E99.35595
G1 X134.204 Y86.456 E99.3954
G1 X134.686 Y86.731 E99.41847
G1 X135.159 Y86.901 E99.43937
G1 X135.71 Y86.993 E99.4626
G0 F6000 X135.692 Y87.487
;TYPE:SKIN
G1 F1200 X136.786 Y87.385 E99.50828
G1 X137.85 Y86.879 E99.55726
G1 X138.622 Y86.094 E99.60303
G1 X138.989 Y85.451 E99.63382
G1 X139.245 Y84.462 E99.67629
G1 X139.243 Y83.722 E99.70705
G1 X138.97 Y82.735 E99.74963
G1 X138.595 Y82.094 E99.7805
G1 X137.866 Y81.378 E99.82299
G1 X137.223 Y81.011 E99.85377
G1 X136.233 Y80.755 E99.89628
G1 X135.493 Y80.757 E99.92705
G1 X134.507 Y81.031 E99.96959
G1 X133.866 Y81.405 E100.00045
G1 X133.15 Y82.134 E100.04293
G1 X132.783 Y82.777 E100.07371
G1 X132.506 Y83.841 E100.11942
G1 X132.615 Y85.015 E100.16844
G1 X133.122 Y86.079 E100.21744
G1 X133.906 Y86.85 E100.26316
G1 X134.48 Y87.178 E100.29064
G1 X135.035 Y87.377 E100.31515
G1 X135.692 Y87.487 E100.34285
G1 F2700 E95.34285
G1 F300 Z0.4
G0 F6000 X152.015 Y76.835 Z0.4
G1 F300 Z0.2
G1 F2700 E100.34285
G1 F1200 X76.835 Y152.015 E104.76315
G1 X67.985 Y143.165 E105.28349
G1 X143.165 Y67.985 E109.70379
G1 X152.015 Y76.835 E110.22413
G1 F2700 E105.22413
G1 F300 Z0.4
G0 F6000 X86.878 Y133.921 Z0.4
G1 F300 Z0.2
G1 F2700 E110.22413
G1 F1200 X86.094 Y133.15 E110.26985
G1 X85.52 Y132.822 E110.29733
G1 X84.965 Y132.623 E110.32185
G1 X84.308 Y132.513 E110.34954
G1 X83.214 Y132.615 E110.39522
G1 X82.15 Y133.121 E110.44421
G1 X81.378 Y133.906 E110.48998
G1 X81.011 Y134.549 E110.52076
G1 X80.755 Y135.538 E110.56323
G1 X80.757 Y136.278 E110.594
G1 X81.03 Y137.265 E110.63658
G1 X81.405 Y137.906 E110.66745
G1 X82.134 Y138.622 E110.70993
G1 X82.777 Y138.989 E110.74071
G1 X83.767 Y139.245 E110.78323
G1 X84.507 Y139.243 E110.81399
G1 X85.493 Y138.969 E110.85654
G1 X86.134 Y138.595 E110.88739
G1 X86.85 Y137.866 E110.92988
G1 X87.217 Y137.223 E110.96066
G1 X87.494 Y136.159 E111.00637
G1 X87.385 Y134.985 E111.05539
G1 X86.878 Y133.921 E111.10439
G1 F2700 E106.10439
G1 F300 Z0.4
G0 F6000 X77.16 Y151.406 Z0.4
G1 F300 Z0.2
G1 F2700 E111.10439
G1 F1200 X68.592 Y142.839 E111.60812
G0 F6000 X68.946 Y142.485
G1 F1200 X77.513 Y151.052 E112.11183
G0 F6000 X77.867 Y150.699
G1 F1200 X69.3 Y142.131 E112.61557
G0 F6000 X69.653 Y141.778
G1 F1200 X78.22 Y150.345 E113.11927
G0 F6000 X78.574 Y149.992
G1 F1200 X70.007 Y141.424 E113.62301
G0 F6000 X70.36 Y141.071
G1 F1200 X78.927 Y149.638 E114.12672
G0 F6000 X79.281 Y149.285
G1 F1200 X70.714 Y140.717 E114.63045
G0 F6000 X71.067 Y140.364
G1 F1200 X79.635 Y148.931 E115.13419
G0 F6000 X79.988 Y148.577
G1 F1200 X71.421 Y140.01 E115.63789
G0 F6000 X71.774 Y139.657
G1 F1200 X80.342 Y148.224 E116.14163
G0 F6000 X80.695 Y147.87
G1 F1200 X72.128 Y139.303 E116.64534
G0 F6000 X72.481 Y138.95
G1 F1200 X81.049 Y147.517 E117.14907
G0 F6000 X81.402 Y147.163
G1 F1200 X72.835 Y138.596 E117.65278
G0 F6000 X73.189 Y138.242
G1 F1200 X81.756 Y146.81 E118.15652
G0 F6000 X82.109 Y146.456
G1 F1200 X73.542 Y137.889 E118.66022
G0 F6000 X73.896 Y137.535
G1 F1200 X82.463 Y146.103 E119.16396
G0 F6000 X82.817 Y145.749
G1 F1200 X74.249 Y137.182 E119.6677
G0 F6000 X74.603 Y136.828
G1 F1200 X83.17 Y145.396 E120.17143
G0 F6000 X83.524 Y145.042
G1 F1200 X74.956 Y136.475 E120.67517
G0 F6000 X75.31 Y136.121
G1 F1200 X83.877 Y144.688 E121.17888
G0 F6000 X84.231 Y144.335
G1 F1200 X75.663 Y135.768 E121.68261
G0 F6000 X76.017 Y135.414
G1 F1200 X84.584 Y143.981 E122.18632
G0 F6000 X84.938 Y143.628
G1 F1200 X76.371 Y135.06 E122.69005
G0 F6000 X76.724 Y134.707
G1 F1200 X85.291 Y143.274 E123.19376
G0 F6000 X85.645 Y142.921
G1 F1200 X77.078 Y134.353 E123.6975
G0 F6000 X77.431 Y134
G1 F1200 X80.943 Y137.512 E123.90399
G0 F6000 X80.6 Y136.462
G1 F1200 X77.785 Y133.646 E124.06953
G0 F6000 X78.138 Y133.293
G1 F1200 X80.555 Y135.71 E124.21164
G0 F6000 X80.659 Y135.106
G1 F1200 X78.492 Y132.939 E124.33905
G0 F6000 X78.845 Y132.586
G1 F1200 X80.804 Y134.544 E124.4542
G0 F6000 X81.047 Y134.08
G1 F1200 X79.199 Y132.232 E124.56286
G0 F6000 X79.553 Y131.878
G1 F1200 X81.337 Y133.662 E124.66775
G0 F6000 X81.687 Y133.306
G1 F1200 X79.906 Y131.525 E124.77247
G0 F6000 X80.26 Y131.171
G1 F1200 X82.038 Y132.95 E124.87704
G0 F6000 X82.517 Y132.722
G1 F1200 X80.613 Y130.818 E124.98898
G0 F6000 X80.967 Y130.464
G1 F1200 X82.997 Y132.494 E125.10834
G0 F6000 X83.587 Y132.378
G1 F1200 X81.32 Y130.111 E125.24163
G0 F6000 X81.674 Y129.757
